/* XPM */
static char *_ac4865dbcf746fedb5a769312eac64cmWldhQUlVBAmD8xg[] = {
/* columns rows colors chars-per-pixel */
"160 164 256 2 ",
"   c #040607",
".  c #02030D",
"X  c #0A0A0E",
"o  c #020214",
"O  c #0B0114",
"+  c #010B14",
"@  c #02021C",
"#  c #0B011C",
"$  c #010A1B",
"%  c #0A0A1A",
"&  c #140218",
"*  c #020224",
"=  c #0B0123",
"-  c #010B24",
";  c #01022C",
":  c #0B022B",
">  c #010B2C",
",  c #0B0B29",
"<  c #150527",
"1  c #031429",
"2  c #151328",
"3  c #020333",
"4  c #010B34",
"5  c #01033B",
"6  c #0B0638",
"7  c #020B3C",
"8  c #140738",
"9  c #051439",
"0  c #15153A",
"q  c #230B32",
"w  c #0A2538",
"e  c #010343",
"r  c #020B43",
"t  c #01034B",
"y  c #030C4B",
"u  c #0B0948",
"i  c #150A47",
"p  c #031344",
"a  c #03134C",
"s  c #081849",
"d  c #171648",
"f  c #020353",
"g  c #030C53",
"h  c #070959",
"j  c #160B57",
"k  c #031454",
"l  c #03135B",
"z  c #091858",
"x  c #161759",
"c  c #260F4E",
"v  c #261858",
"b  c #082649",
"n  c #082658",
"m  c #132E51",
"M  c #162659",
"N  c #262757",
"B  c #060A66",
"V  c #180C67",
"C  c #0B1463",
"Z  c #071867",
"A  c #171968",
"S  c #0E0B76",
"D  c #091976",
"F  c #161776",
"G  c #1C1B74",
"H  c #141C7C",
"J  c #1B1C7B",
"K  c #2D0E6F",
"L  c #261969",
"P  c #271878",
"I  c #231C7C",
"U  c #351779",
"Y  c #092668",
"T  c #172669",
"R  c #0B3669",
"E  c #173468",
"W  c #0B2474",
"Q  c #0C247C",
"!  c #072878",
"~  c #132374",
"^  c #1B2374",
"/  c #14247B",
"(  c #1B237C",
")  c #162B79",
"_  c #083579",
"`  c #163678",
"'  c #242569",
"]  c #252477",
"[  c #2F2C71",
"{  c #263878",
"}  c #441A77",
"|  c #0B445B",
" . c #104773",
".. c #194679",
"X. c #254878",
"o. c #160D8C",
"O. c #0A1B88",
"+. c #141C84",
"@. c #1C1C84",
"#. c #191588",
"$. c #131C8B",
"%. c #1C1C8B",
"&. c #091C97",
"*. c #141C93",
"=. c #1C1C93",
"-. c #181899",
";. c #270C89",
":. c #231C83",
">. c #281688",
",. c #231C8B",
"<. c #331588",
"1. c #281796",
"2. c #231B94",
"3. c #301093",
"4. c #032484",
"5. c #0C2384",
"6. c #04248C",
"7. c #0C238C",
"8. c #072B88",
"9. c #142384",
"0. c #1B2283",
"q. c #14238C",
"w. c #1C238B",
"e. c #172B88",
"r. c #083588",
"t. c #173788",
"y. c #042494",
"u. c #0C2393",
"i. c #072997",
"p. c #0C239C",
"a. c #032B9C",
"s. c #142393",
"d. c #1B2393",
"f. c #13239B",
"g. c #182998",
"h. c #073698",
"j. c #173798",
"k. c #252588",
"l. c #263887",
"z. c #252697",
"x. c #332F90",
"c. c #263898",
"v. c #091CA5",
"b. c #0F17AF",
"n. c #171BA6",
"m. c #2D15A7",
"M. c #2619A5",
"N. c #0728A6",
"B. c #1628A5",
"V. c #0837A7",
"C. c #1838A7",
"Z. c #0728B5",
"A. c #162BB5",
"S. c #0838B7",
"D. c #1738B7",
"F. c #2627A6",
"G. c #2639A8",
"H. c #2F30B2",
"J. c #263AB6",
"K. c #441D96",
"L. c #0A4489",
"P. c #174688",
"I. c #0A4698",
"U. c #184698",
"Y. c #145694",
"T. c #244788",
"R. c #264699",
"E. c #275699",
"W. c #345292",
"Q. c #176795",
"!. c #2C6797",
"~. c #0A46A8",
"^. c #1847A8",
"/. c #0955A8",
"(. c #1857A9",
"). c #0947B8",
"_. c #1847B7",
"`. c #0A56B9",
"'. c #1856B8",
"]. c #2646A8",
"[. c #3448A9",
"{. c #2758A9",
"}. c #3759A9",
"|. c #2648B7",
" X c #3549B8",
".X c #2758B8",
"XX c #3658B8",
"oX c #1A67A9",
"OX c #0A6EB5",
"+X c #1868B9",
"@X c #1674B8",
"#X c #2867AA",
"$X c #3664A9",
"%X c #2866B8",
"&X c #3564B6",
"*X c #2873B4",
"=X c #455695",
"-X c #4653B4",
";X c #4664B4",
":X c #0838C6",
">X c #1739C7",
",X c #1232CD",
"<X c #2A39C6",
"1X c #2A3EE1",
"2X c #0948C7",
"3X c #1748C6",
"4X c #0858C7",
"5X c #1858C8",
"6X c #084AD7",
"7X c #1749D6",
"8X c #0859D7",
"9X c #1859D7",
"0X c #2649C7",
"qX c #3649C8",
"wX c #2759C8",
"eX c #3559C7",
"rX c #2C4BD4",
"tX c #275AD7",
"yX c #355AD7",
"uX c #0A69C9",
"iX c #1868C8",
"pX c #0874C9",
"aX c #1773C9",
"sX c #0969D8",
"dX c #1C64D3",
"fX c #1669D7",
"gX c #1C64DB",
"hX c #0774D8",
"jX c #1773D7",
"kX c #2767C7",
"lX c #2364CB",
"zX c #3464C7",
"xX c #2364D3",
"cX c #2666D9",
"vX c #3565D7",
"bX c #2773D0",
"nX c #0F58EB",
"mX c #185AE6",
"MX c #265AE6",
"NX c #3659E6",
"BX c #2D57F2",
"VX c #0969E7",
"CX c #1866E7",
"ZX c #146BE3",
"AX c #0674E7",
"SX c #1574E7",
"DX c #0869F6",
"FX c #1666F5",
"GX c #0575F6",
"HX c #1574F6",
"JX c #2666E6",
"KX c #296BEE",
"LX c #4654CE",
"PX c #4565CC",
"IX c #4759EE",
"UX c #0A82D2",
/* pixels */
"1 ! ! z 4 > j K J +.$.LXXX X1.1.2.B._.iXlXi.( A u 9 b M ' U ] U.wXtXmX6XS.N.6.^.%X#Xt.M 0 i x A x v L +.NXnXZXcXtXb.v._.kX%Xt.A u 3 3 b Y ^ >.,.G..XiXjXJXC.7.O.{.kX%X_ n 3 3 y ~ ( ^ ( .XgXCXCXMXtX&.h.I.$XT.^ T , + > z ' L ' j.cXCXZX9XwXC.h.4.{.}.t.{ A t e k v L K :..XbX+XiXMXMX~.~.5XtX<X-.:.x - 3 l J k.) W wXeXT.4 o   ",
"b +XdX5X(.].c.k.h f f :.k.=.o.H.yX'._ p 9 3 3 u T.E 9 > ; ; 5 C d.B.Z.S.tXtXeXZ p 4 5 r E W.W e ; - - t i.V.6.8.V.wXwXr.p 1 3 t c.}.E.a > > ; 5 l 8.r.y.N.3XgXdX! r > ; k (.%XU.g 3 ; 5 W i.a.Z.Z.S.9X'.t.r > : 3 ..Q.oXZ g 3 6 y 9.p.v.A.S.6XsXuX! 9 o @ s .XkXr.r , % ; D a.a.V.:X:X4X`.h.B.n.-.=.c.E.E.T.T 5 p t f.f.%.A ' d ",
"b hXVXFXCXtXC.D t t f F 0.+.=.J.cXvX` ; @ ; 3 e ;X!.7 > > ; 5 V ,.*.O.6.tXtXeXt ; > 5 t ) &X` 5 @ . + 3 _ ! W ` t.wXkXE $ + 4 t {.bX%Xr ; - * 3 k ! 8.g.*.wXfXiXk - - : C iXjX^.e : = 3 D e.6.u.*.B.cX'.T.3 = # ; L.pXaXl 5 ; u e 9.=.1.1.&.6XVXbXz * O @ a lXfX'.e $ + - Z a.i.O.v.Z.sXaX7.O.s.B.v.3XxXkX8.E > - 5 z.1.2.>.P i ",
"n hXGXDXDXCXV.! k a Z D g.g.H j.tX.X( e e t f f ;XW.r r y h B S =.z.( Z {..XXXf 4 3 t f e.%X` r > - 4 k ! ) T M T }.{.E > ; r f '.bX(.a 5 5 y h Z ! ! ( F [..X{.k 5 5 f D lXlXt.r > 6 g Q 8.t.D G 9.wX'.e.e > > 5 ^.uXkXl 4 7 k D N.B.:.P P ].wXeXC u e t D cXgX_.h 7 9 z 4.N.j.Z P w.'.'.=.+.7.B.Z.6XFXfXh.Y a 9 u +.2.k.V x 6 ",
"Y jXDXDXDXVXh.Y W.{.XXvXtXC.f B y.s.I L L ~ 5.Q &X}.T T l.}.eXvXyXXXM ; Y W e.F ' ] q.6.j.&Xt.M E W.$XwXyX[.5 ; j k.Q ! T ' e.i.`.kX}.T T { }.XXeXXXe.e 5 T Q e.F ] k.w.C.wXkXU.M N W.XXvXkX{.t 5 t O.u.q.D T T W _.9XzXY m E $XkXJXwX) 3 ; x q.d.S ( ( 4.i.tXtX|.! T.!.#XxXtX.Xy : 6 D g.2.=.C.eXtXmXDX9XV.5.[.=X}.g.O.Z t 3 @ ",
"z 5X8XVXDXfX_ s W.{.3XKXCX).g C f.@.L L M t.I./.^.R.A x ' W.'.sXsXiXn @ N P @.,.+.O.Z.S.^.W.) z C c.wX7XBXeXt 3 u ,.$.9.( H V.S.2XwX[.x d ' W.|.wXvXg.3 # x H $.2.>.;.B.3X3X.Xt.s 0 x.0XHXjX#X3 * 8 <.=.u.4.t.j.S.7XNX XY d d W.'.uX+X .- @ x >.3.1.e.r.I.I.|.-Xc.T E W.(.dXsX%X7 O & K <.1.n.C..XwX9XDXJXu.$.-X[.].S.V.D r , o ",
"y 7.N.2XZXdXz ; T 6.N.FXDX5XZ ( -.#.P [ ^ .XxXdXa.W e 3 u ) h.4XhXjXY * x G #.z.=.A.BXMX^.W a 5 5 Z p.:XBXeXe 3 u >.2.9.+.d.0XMXZ.&.G 3 ; 5 H u.S.yXz.3 @ x J #.F.3.2.tX9XN.8.z - ; F v.VXhX*X3 * 8 U %.O.8.].tXJX,Xb.H 5 * * ` h.sXpXP.- @ i K ;.1.u.5XdX5Xu.0.A 5 a ) 8.8XZXkX9 . & } <.1.n.y.8.8.).CXvXD f H W a.7XJX_.) N 2 ",
"6 J *._.xXwXA 6 F u.Z.FXFXwXG 0.B.*.:.k.q.0XMX9Xa.Y 3 ; u ( 8./.sXlXY 3 G d.f.*.+.f.NXMX^.! r * * d / N.yX}.3 ; u ,.+./ ( 9.|.tXS.i.T * * 6 I s.C.eXk.5 > A +.+.,.>.w.vX5Xi.8.s * ; A *.8XsX%X5 ; u >.s.6.8.].tXMXD.B.( 3 = * W h.ZXsXP.3 ; x I :.,.p.tXJXtXy.Q x 5 j :.u.3XfXkXk * # U >.#.s.u.q.0.^.xXeXD t A ) h.MXBX0X9.T 8 ",
"8 P %.C.3X|.F j J *.p.>X3XG.P z.D.C.~ h C G.0X7X_.t.3 @ , d z t._.].A u g.3XD.D x T |.D._.^.Y * O 2 0 Z ^.T.u a D J.G.~ u j c._.).~.P.- o * i C ( R.T u u j._.C.A d x ].).).~.Y ; % 8 l ~.).].h i x C.^.r.Z ^ J.3XS.V.l.5 # # s W _._.d.j h 8.~.j.Z D  X_.).~.I.Y 5 u j C j.'.^.D h g U.t.C C Z I P z._.|.D B G ^ 9.<X<Xc.C u , ",
", L ,.-.v.B.#.P #.*.w.$.f.2.;.J.gXkXE 3 3 A =.N.yX}.3 +   o ; V ,.%.I ( 5XCXgXg @ , ) 6._.lXe.3 O   . 3 ~ T T / h.CXxX` * o x 7.5XjX#X> . . * 3 u T T G H 5XSX5Xg @ @ T h.SXjXr.3 O O > D O.d.F I 9.iXiXt.r u I s.4XfX%X7 O O ; e +.=.3.3.=.).hX@Xz 5 ] H h.uXiXP.3 * = 3 k Q i.u.d.6.uX/.5 3 u L K ,.N.u.$.%.k.H k.@.k.x 3 * . ",
", G z.M.-.&.d.w.*.&.z.@.%.=.-.D.ZXiX` 4 ; j P *.LXXX5 * @ ; e S 2.=.k.e.4XZXbXt @ - E ! c.eXe.5 * @ @ 3 ] A w.&.S.AXaX| $ o d T '.iX%X3 o @ 5 t B 0./ ! 8.8XSXlXg 3 ; N t.JXcXe.e ; * 3 S o.M.-.f.V.sXuXt.3 0 v / '.dX.Xr : : t h =.=.*.*.p.4XhX@Xs r i [ k.tXxXU.5 ; ; 5 g ( s.&.p.V.sX/.5 3 h P <.1.n.&.f.u.B.&.k.L v d ; ; o ",
"6 G ,.1.-.&.|._.wX|.G.h h H 0X9XsXiX` > @ : i B G.c.h x M t.U.H.M.-.G.'.sXhXkXe * @ 9 p A x.0.G A ` T.l.( Q  X3XCXAXOX| $ o , 6 8.h.R.y d x R.|.V.p.C.(.`.sXZXeXf r 4 0 k V.D.q.A A { T.d.-.H.<X7X8XAXaXP.* < 2 r 8.D.c.x c L c.g.*.f.C.3X3XZXhX@Xz 4 = q i B.D.e.C ^ T.T.) k.d.A.3X8XCX5XG L H I P 1.M.B.J.).5X3XG.i < d { T.b ",
"i <.3.3.M.N.7XCXCXcX$X7 > n wXCXZXxX) -     + 3 W e.F G j.kX+XU.+.$.|.fXhXpX#X5 * O % @ u G J @.5.(.aXkXy.h.yXmXnXnXJXt.; o O = G g.z.I L ] zXvX_.V.3XjXsXhXhX%X7 @ . . 4 9.g.%.I ^ U.iXV.v.B.tXsXVXVXdX` @   + 3 D f.P L A e.vXwX*.-.3XMXCXVXuX@Xb - +   = I $.5.4.U.kXkXj.@.2.qXJXAXDX9XO.] H P L P #.z.XXfXAXFX X3 @ m %XiXR ",
"u K 3.3.=.p.9XHXVXsX#X4 - n %XcXJXwX` 9 + + + 1 n ) e.O.S.fXiXU.W e..XiXuXaX{.y 5 ; @ @ s T k.q.y.4XsXgXa.i.yXMXBXBXNXw.e * * 5 G #.o.%.w.j.'.5X'.h.).jXsXAXfX#Xa $   + 9 A H @.k.5._.jXV.6.! kXuXZXCXwXt.4 $ > e H %.j [ W 8.gX5X9.H C.MXFXCXcXoXn 9 - @ , x ^ D h.).sXxXj.H %.qXxXZXAXCXa.O.( ^ ] U P %.|.4XVXMXqXe ; n +XlX` ",
"m #XXX) t t 4.V.nXCXbX_ n Y e.O.q.h.~.(.(.oXE.W.r g .X9XnXFXJXt.e e D r.t.t.d.|.xXiXoXE.` g t.'.4XHXHXdXS B c.d.s.*.g.C.(.(.{.R.A f B wXgX8XSXbX^.g Y r.a.g.d.c.].(.oXE.` 7 r k.eXtXtX5Xl 4 3 T.8.&.B.B.G.(.`.`.`.W r 5 }.`.uXSX(.4 ; u w.A.n.n.F.|.tXtXwXU.9 4 Y '.VXHXcXW r t e.8.8.i.).5XwX^.O.S >.>.s.C.F.F.M.m.I Z n k y - ",
"b OXaX_ 5 4 z ! vX9X`.h.8.8.j.0.^ W ^.dXfXcXkX;Xe h lXHXDXnXtXr.g y l T L L :.qXCX8XhXaXU.y ..aXsXVX9X5XB f A x ' ' ~ U.lXfXbX%Xk 3 t iXGXGXsX5Xr.y p T e.U K >.qXcXfXbXU.; ; ~ wXnXKXwXn - @ s G k.U I G.tXFXGXhXn $ > *XhXGXsXI.> $ 4 z ( >.<.3.LXBXDXDX`.- + n aXDXDX3XD e 5 a E { ) j.dXfX4XN.v.=.#.&.&.2.3.o.-.g.8.Y r 3 % ",
"n ZXHX_.Z d < o * 3 Z '.dXjXsXL.> ; Z a.Z.9XdX{.g Z `.sX4Xa.h./.'..XW e : ; e ^ 8.).sXuXL.y T.+XhX2XV.I.oX!.9 @ o . @ s ) r.^.#X9 $ 4 oXsXsXh.4.t.}.` r 3 < < t 9.6.a.4XU.4 7 t.jXGX:Xb.wX#X!.9 * @ @ * g 8.).iX@Xw   - #X8XCXZ.D.zX}.[ 4 - + o ; G h.sXGXOX+   b %X4XS.,XrXeX}.s - @ @ a lXCXnXFXFX>X*.=.f.O.wXKXdX6.4.I.{.}.M ",
"z gXmXD.k.N &     @ y %XfXZXVXU.* ; l y.Z.9XdX*Xr g .XjX'.D 8./.jXcXQ 5 3 ; 3 T W h.uXjXP.t t.kXZXS.y.8.#X#X4 1 + . @ a W 8.(.#X1   - #XcX5X$.@.c..Xr.t ; # # 5 W D a.bX^.3 3 ` iXsX6XZ.tX+X@Xr * @ . - k 8._.cX%Xw   3 zXgXJXv.A.tXlXt.7 $     : h ! jXAXOX+   d ;X].&.v.7XCXkXa > - $ s xXCXFXDXFXD.@.P :.g.5XSXsX6.h.h.wXzXE ",
"s 5XwXC.F c < & = 4 B wXJXCX9Xt.5 e D V.S.).'.W.4 5 [.kXC.+.7.).CXgX7.C r 7 r ` t.h.5X'.` f e.0XrXA.&.6..XzXZ n s 4 u Z h.V.`.(.9 . * W.qX<X1.2.C.cXS.D s > > y r.h.V.9Xj.; ; T {.5XS.N.4XjXuXW z p 4 p D V.7XMXwXx < t  XwX3Xf.N.fXhX~.Z z 7 3 g D V.5X8X^.$ . c =Xl.H D 4XsXuX8.Z s 4 z gXCXmXnXmXg.v c U <.J.iXiXV.V.C.|.{.M ",
"7 8.8.C e 8 c v ' Y a.gXCX7Xy.+.P G ].tX9XV.r.M @ 3 T D g.z.f.2XfXZXwXXX] A W PXwXwXV.7.A f H d.f.=.w.g.wX9XuXaX(.~ ( ].JXgXS.h.4 O = ] &.B.*.f.D.JXfXiX&X` Y W lXxXxXV.! * # d 0.u.y.a.iXhXAXsXtX.X! ! j.yX>XZ.*.j 8 u z.s.u.O.V.sXAXZXiX.Xl.] q.|.eXa.N.Q * # i L L ] / `.hXsX4XvXPX~ h.SXVX5XN.y.l ; = c K ,.4.r.cXwX^.h e - ",
", W W k 3 6 j <.@.O.V.gXJXtXu.w.>.q._.tXtXV.! N * ; ' D @.>.-._.5XiXiXkXj.O.O.vXmXtX=.K K f C J I L G q.wXCXHXsX5XO.f.<XMXCXS.g.u = : x Q h.8.i.V.dXgXdXwXh.g.a.cXCXgXy.Z # # 0 P #.u.8.+XuXVXFXBXNX-.w.c.eXG.%.P i = 8 L G ( Q h.uXhXAXZXdXC.7.i.wXPXH k.V 3 3 h F I I +..XjXjXxXyXLXO.Z.CXZX_.6.W k ; 4 x L k.W _ cXdX^.e = . ",
"9 j.~.r.! Q F :.G Z ! ^.0XD.*.g.C.C.c.c.c.~ z z M n z x x V F G.|.^._.2XD.C.~.^.~.j.L c x Y z a d c v H |.2X7X3X3X_.D.D.j.U.W l M M E 9 s n k Z g.|.<X0X3X).).~.h.r.t.z s m m d j A A l c.].3X7X>X0XB.c.l.{ E d c x Y n d 0 0 s Y {.'.2X2X3X_.C._.j.l.d d u T ) W C x x C j._._.|.C.qX>X2X2X3XC.8._ ! Y W ~ I P k Z |.|.j.B i < ",
"n dXVXsXsXfXV.9.3 : ; ^ %.-.*.C.iX%X^ 6 = : 3 k *X#Xr ; * * 5 V @.w.N.Z.5XkX%Xa 4 * # @ R Q.R > @ = : t $.i.p.$.j.kXlXj.7 $ + 4 Y.#X$X- . . @ 3 j >.1.n.v.5XfX%Xk = # o b #X#X` 3 * = ; P ,.q.8.! r.zXXXP.> + o @ L.OXQ.w     % 4 G $.p.f.B.|.wXeXC ; O   1 %XiXI.7 - ; 5 D *.H e.+.B.tXrX&.s.%.5.8./.uXxXC.2.h e 5 >.;.>.>.P i ",
"n dXAXAXDXDXS.Q 3 : 5 ( s.d.9.j.iXkX) ; # = 3 h kX#Xe 3 * ; e B +.8.6.6.eXeX&X5 ; = , ; R oXR > @ * 3 f u.6.5.( k.&X&X) 3 % # 7 '.sXiX5 o . * 3 y ( w.@.9.wXdX%Xt 3 < = k +XaXI.r ; * 5 H *.q.Q R _ %X.XU.y 3 - * U.pXpXz - o - e w.s.q.@.J ].bXXXz 3 - @ p fXsXI.9 - - r H *.! ! / O.yXwX9.J %.s.i.2XDXJXZ.*.f 4 4 k.>.<.P P 0 ",
"n +XhXAXDXDXS.8.{ [ c.|._.j.h W V.C.e.k d s C O.xX%Xk d M ` U.^.'./.! g c.F.G.C d c j D t.#X` d 0 E T.j._.U.l u x l.c.( x c j D 9XDXgXD 0 d { P.U.E._ r r t.V.G.S F A x e.sXhX/.Y z E t._.5X^.B a s P.V.N.O.D x x ].9XjX4.A x { R._._.e.j u t.C.j.Z z z k ! FXZXY.s N { t.|.|.E.z g B C.j.G J F.qX0XmXDXmXA.$.W.|  .8.5.F u i # ",
"b oXuXAXGXHXh.~ -X-XeXgXJXC.t l 7.u.q.I I 0.p.N.dX{.M N { kX9XcXSXsXY * L ,.B.S U P -.i.U.$XT.' N [.vXtXkX.Xr * 6 G +.s.k.J :.g.3XCXzX~ M E #XiXxXzX` - @ C $.-.1.:.k.9.C.9XcX^.! Y E.lXfXSX.Xy ; > W q.&.p.5.Q / |.wXyX7.^ ] -XyXCXdXt.3 = A @.e.D 0.5.4.h.gXwXR.T { ;XeXtX9X#X9 ; ; ( H P 2.H.LXNXFXDXCXV.6.PX$X&X8.4.Z t 5 * ",
"p r.~.4XsXsX! y U z._.8XFX3XG I q.$.#.1.1.J.7X6X).r.7 , z C.S.6XDXsXn o j J F.=.<.z.1X7X^.t.C u u q.A.S.lX{.7 @ 6 I 2.-.d.s.G.|.S.V.e.r > s ~.S.3XwXE $ $ A ,.3.m.F 9.|._.D.C.D y p ! S.8XZX'.7 $ > A >.=.f.C..XwXD.C.z.h r u z._.VXfXP.3 = j P H +.z. X5X4X~.j.( h C w.C.9XZX#X9 @ # ] I P >.M.H.A.6XVXiX! B g.s.g.0XwX].D Z 0 ",
"6 +.N.2XSXpXn > x G h.fXHX9Xu.$.z.2.,.>.z.qXBXFXN.F : & i e.a.).ZXjXn @ x k.+.,.K z.IXBX3X7.Z 5 5 D O.i.%XE.3 @ 4 G F I @.*.|.vXA.B.F 3 @ 3 H y._.kXR - = j #.>.,.H e.wX_.a.( i # o u p.mXKX%X3 + @ ' <.:.O.~.dXmXZ.$.L 3 @ ; D V.sXuXr.3 ; d ] G ( #.LXJX9X6.8.x 5 j k.u.`.uX*Xa ; ; Z k.U U 2.=.*.3XKXbXZ t Y e.i.tXtXwX&.O.u ",
"6 ;.n.>XtX5XY 7 T ~ 4.wXgX5Xa.&.O.%.F A ]  XvXMXN.k.8 & < z W U.zX.XZ 3 Z 5.g.J v I rXBX7Xh.k - * x ~ ` W.W.e 3 k 9.H ] ] 0.].wXZ.b.w.3 # = j ( U.{.R 7 e A e.e.Z A e.vX3Xa.) 8 X & 0 ( 0XrXXXe > ; A 0.H Z U.cXFX:Xu.T @ . $ T r.bXkXt.y 5 l W ) H S LXvXtXa.r.z ; i A 5.'.kX{.l g t ! ) L L F ,.%.J.tXwXZ t Z ~ w. XyX0Xi.Q 9 ",
"> H -.-.=.z.>.;.%.$.&.A.s.w.w._.cXkX` - o p Y h.4X{.3 . X o = i F $.O.V.JXJXeXh 8 6 _ h./.oX| +   , ; ; x U k.7.a.tXvX) 5 3 Y i.6XBXPXr     : 5 u F F J w.'.+XY.p 5 f *.Z.9XbX..- . + > 0.-.F.S ( j.JXcXU.a s 9.v.6XSXoX1     $ 3 A I :.+.s.0XvXvXQ t K P B.9XxXT.> % = 5 D 6.q.O.6.y.lXU.5 3 u ^ G +.s.z.%.w.c.1.;.<.[ d ; -   ",
"4 ( z.,.P <.3.M.&.v.n.M.>.V F h.VXuXY @ . w E ! bX#X3 @ o @ = i U 1.B.Z.nXDXcXt o @ M ! U.*Xm $ o * ; 3 [ F -.N.:XCXcXe.3 @ N / JXKXeX5 O o ; 5 j <.z.*.p.5XjXoX9 @ ; 0.V.mXxXt.5 - . @ G 2.2.*.y.S.FXZXI.4 , L d.6XDXoX1     1 6 U U ;.*.v.7XMX5XZ 5 v U k.cX5XP.> o * 5 D $.@.d.N.N.KX{.3 ; u T ] :.2.#.2.*.&.1.P U v 0 @ +   ",
"6 :.3.<.U P F.Z.S.V.A.o.P T P.`.DXZX8.3 * 0 s Y }.W.e 5 y C l z G #.B.Z.VXAXaX9 + + N L K.-XP t t g h z Z s.N.:X6XVX4X) ; O q i |.wXE.k > 4 h B S H O.p.V.4XfXoX1     b t.eXqXz.f 5 9 b G 2.O.V.N.:XBXMXU.> % c ( 0XtXE.s > 4 k B >.>.*.Z.:XnXCXvXZ > 1 d W wXlXR.y 7 a C D @.I z.S.Z.ZX^.t 5 j A I >.>.o.F.D.V.u.e.] T k k s - ",
"u >.;.>.P :.0XmXsXuX0XB t z #XsXVXZXt.5 * > ; 5 x L A / j.kX.XU.9.%.0XmXGXhXOX9 +   % 8 K <.>.>.2.].zX%X8.i.tXFXDXGXjXt.; O & : / 8.! Y n _ kXkX].i._.cX9XVXZX+X>     . a +.=.%.I ^ E.{.z.1.y.xXfXFXMXtXP.- . # 3 F -.I x ^ r.wXeX;.z.^.cXCXVXfXwXz +   $ 4 4.a.7.D l.&X%XG.2.k.[.JXDXKXwXH P P I P I :.=.qX7XKX5XXXt e Y $X}.m ",
"u I J >.I +.tXVXhXUX'.f u C zXgXCXlX` > $ $ - 3 A A ( 8.h.jXiX^.s.-.0XJXsXjX+X7 - . + # j P I =.N.3XcX5Xh.i.wXJXCXsXiXt.4 $ @ 3 ( 5./ W ! r.iX+X^.h.).CXVXDXGXiXy o X O 8 A G J ( / _.tXF.1.6.iXhXZXgX%XP.> + % = L U K G d.N.mXtX*.9.U.iXuXhXfXkXz +     1 _ i.y.p.G.zXxXA.=.^ $X5XCXJX0X2.>.3.1.2.,.%.*.rXDXDXsX%Xt 5 T &X$XE ",
"k j.j.0.V C ^.8XhXpXwXB h G  X.X.X^.` Y n Y Y z A G c.V.2XsXuXI.D D H.J.|..X{.W Y n b b z x ) h.S.9XcX5X6.7. X_.'.'.'.h.R n n Y Z Z Z t.h.).dXxX].D h.5X2X8X6X3X5.Y n n n M x T t.V.4XdX9.A l {.'.'..X^.I.Y Y n n A V x t.C.S.mX0XD C ` Y./.`.'.^.t.Y m m n n W 4.V.3XgXlXj.C z T.'.5X0X0XJ.A.B.n.n.=.%.*.0X7X4X'.U.h u n T.T.m ",
"Y sXiXt.5 3 l 8..XlXyXB.+.9.4.Q W W U.iXsXSXuX.Xf h XXxXCXVXjX .r e V K <.@.7.eXxXaXOX*X` 9  .@XpXuXbXwXS f k.+.9.! _ ~.aXOXaX%Xk 4 9 #XdXJXMXyXG.f z 9.7.f.&.g..XxXjXaXI.9 > T eXCXhXOXn 7 ; T T ( H 5.~.uXZXfXiXY 4 p {.lXgXgX|.f 5 s n Y Q 9.u.0XJXCXvXR.3 3 Y .XfXsX+Xn @ ; s 8.8.i.V.MXmX3XN.N.d.,.2.2.G G / 9.>.] a 9 > + ",
"Y jXfXj.g j u z { ` ~ U.~.).2Xh.z k ) ^.).CXgXzXf h zXxXtXS.).I.r._ A c c i h ].3X2XsXiXP.r P.aXhX`.^.^.g.) l h d d s _ /.).5XkXk 3 7 @XsXCX>X_.h.) T d d d u x c.D.6XfXI.> $ m kXCX8X).h.` T s u d d l 4.).sXAXuXn + > oXiXsX2X).r.` n 9 9 d x C C.2XFXxX}.; ; M zX9X2X~.r.R E y C C Z 6.HXGXVX2X3Xg.>.3.>.( T.(.^.#.s.8.r.` b ",
"z fXfX^.Q ] u * * 4 > oXpXAXGX).t 3 j 0.y.wXwX.Xt l %XwX|.$.u.).fXaXY 3 # # 5 D &.:XSXdXP.y U.iXgX~.6.a.wX(.a 7 * O @ k 5.a.3XyXx : 7 OXsX9Xp.i.~.%X` : & O o ; A &.Z.JXU.-   m %XFX,XZ.7XlX%Xy > @ @ ; g 8.).sXuXb   - #XiX4XV.V.iX%X` > * : : 3 Z V.CXiXE.- ; A zX0XN.a.'.dX%Xl 5 ; 5 Z AXGXsXsXcXj.P <.>.u.5XaXlX&.N.2X9XwXE ",
"n lXxX].( ' 6 * 3 t 7 oXhXSXCXC.f e j 9.i.3XkX}.r y %XkX|.q.*.|.fXpX! 4 @ o 3 W N.:XVXcXl.e l.eXwXj.q.p.wX+Xl r ; O = C D h.3XeXd # 4 %XJXrX*.*.).iXt.3 , @ - 4 ~ p.N.cXU.- + m &XmX>Xp.9XsXkXf 5 ; > 5 h 8.^.9XkXb . 4 #XiX5XB.N.dXiXr.r 4 3 3 3 Y V.9XlXE.3 3 Y {.^.q.O.3XVXsXZ 3 @ - z AXGXjXiXlXR.] P #.f.tXgX9Xv.N.).iX&XN ",
"a C.C.~ h u i c V F ! +XsX9XC.q.D Z l. X'.V.U.` 7 5 ` h.h.7.s.J.fXhXoX..M s Z ].rX7X:XV.n 5 A c.F.k.>.o.yXuX/.U.l.c j c.|.'.D.j.6 . * l.A.<X-.B.:XdX'.L.P.R n n U.wX3XV.! * o 0 t.S.s.) `.sXZXC.c.l.Z W e.].G.C.j.u * 5 t.I.h.q.g.lXiX'.U.P.) ~ z R.3X:X_.t.3 6 z t._ ~ +.7XDXAX/.T.[ d ~ ZXZX5XV.h.W u h @.-.J.S.S.rX|.I.Y M 2 ",
"u @.@.x 3 3 j U P ( i.9XfX5Xu.$.f.&.|.yXtXh.! M ; ; T ( @.%.&.3XdXpXaX%Xt.5.N.tXcXwXu.) s 5 V >.3.3.3.*.wXhXhXfX0X*.=.J.yXcXV.! >   O N H d.=.B.:XCXfXuXiXh.8.8.%XbX'.y.( ; o 2 T 5.( ( '.AXVXVXdXwX4.8.C.PXJ.s.I i < 6 T ! ! 4.h.cXcXgXdXiXC.s.5.eXtXZ.B.H 5 3 a T F >.1.0XZXAXuXkXXXJ g.MXmX3XN.7.k * 5 P ;.M.u.i.vXlXP.4 - O ",
"u w.+.l 5 r V U L T u.rXtX_.q.*.N.Z.0XwXXXt.Y M * ; x [ P >.B.3XxXkXlX5XV.N.:XMXzX}.L T p 4 g V <.U >.5.%XiXfXKX7XZ.v.|.yXvXI.Y > o o d ' ^ @.s.S.tXcXgXdXV.N.h./.*XzX5.F 5 3 9 M T L I .XCXVXGXZXxXa.h.C.|.j.k.P i 6 6 x M R _ h.wXyXKXCXCXS.y.i..XXXg.0.C e 5 y A K U >.|.xXuXuXgXtXN.A.NXNX3XN.O.k - 5 V <.>.Z ! vXwXU.r * o ",
"b 5X9XiX+X{.c.] 6 > f s.B.F.,.J.tXwXt.g p 7 3 a W.l.t e 5 e f O.d.e.i.h._.wX5XD a u 6 r R Q.R 4 8 8 3 4 R t.7.N.3XtX.X) y 7 4 5 X.$XW.4 > 4 3 e Z 8.i.B.N.3XxXkXY s u f S R.E.R r 6 6 e 9.N.V.S.V.V.wXwXC.D g 5 3 ..#XE.k 3 4 r h z.B.v.N.V._.wX'.! a : : p P.oX_ k u 6 e Z 8.i.V.S.D.5X_.g.g.g.u.B.j.T.R.c.] e 3 g C.B.*.S G i ",
"n sXDXVXVXfXh.D 9 1 5 D $.%.S G.9XwXT * o @ ; t ;X;Xt 5 7 9 r B J H D ! (.kXkXt ; < 8 5 R Q.| $ . o @ 9 R ' k.@.u.kXbX..+   : e (.iX#Xe * # @ ; a W 9.,.#.3X5X%Xp - ; e D bXiXr.e 6 8 e H O.s.O.Q 4.eX.Xj.t ; @ $ Y.pXkXy ; * 4 t d.-.-.*.6.^.lX+Xk #   X 9 oX@X(.e * @ 4 Y r.h.i.O.O.jX5Xw.G D O.B.wXbXvXi.! 5 3 t -.M.M.2.] d ",
"n sXDXDXDXDXS.8.k r y ! V.j.G c.wXXX' , < ; t B .X[.t 7 > > 7 l e.j.) Y {.%X{.a < < i f _ Q.R 1 $ - 9 a Y A L x.c.XX{.E < & : B 9XHXJXh 5 ; 4 7 z ) ( P P  XeXXXk * * t O.JXbX^.g 3 5 y D 4.t.A ' { LXqXG.f ; @ - /.hXbXl ; * 4 g 6.p.d.] G [.eXzXZ 8 O o 9 @XaX^.f r 7 r Y 8.8.O.k.+.cX'./ G e.B.A.2XsXfXa.Q l h h o.1.P V x , ",
"z gXVXGXGXDXV.5.XX&X'.bXdX~.f B 8./ x i v ~ h.a..X;XT E E !.$X%XkX.Xz 3 W 6.! z N v >.$.^.&XP.n m W.&XkXkX}.e 5 h w.9.] v c ] N.nXnXcX8.T { }.}.XXXX) 5 3 D O.w.G v ' 8.V.dX5XU.T M W.&XbXiX{.5 ; 5 +.*.z.G N M Y /.uXlX! ' N W.&XcXwX) 5 ; C 8.7.B ] ' n _ %XiX_.D c.-XXXbXjX.XZ e 5 6.i.9.k.G.LXyXCXAXSX).h.}.;X[.F.=.V 5 - . ",
"A eX5XsXsXfXg.H |.wX4XSXAX).l h +.J P ] w.N.S.).^.=Xd d ' }.'.uXsXfXn ; H F.z.G A F B.N.D.qXx.A z ].wX6X9XE.4 ; u :.;.1.x.z.N.:X6X7XXXF x ) XXwXxXzXe.* @ A +.1.,.P @.i.).5X.XT.M M t.'.AXhX@X5 * 8 >.2.%.J ] t.h.`.'.(.W v v =XeXCXdXt.; @ k q.z.=.B.V.V.V..XXXR.F z.LX0XZXsXiXy # # <.-.&.&.H.qXqXfXsXfX6.Z E.}.|.A.N.H 5 - . ",
"i %.a.).jXiXZ t $.Z.S.VXVX5X9.J k.>.P >.B.mXFXCX4.M # = u q.a.).sXSXY ; J -.#.k.0.g.MXMX3X&.B 5 5 H v.,XNX}.1 $ 4 G >.>.;.*.2XVX2Xy.^ 3 3 t 7.a.).lX` $ + x #.m.3.3.d.iX4Xa.Q k ; ; C h.8XsXaX5 : 8 :.=.+.0.c.wXCXS.i.5.f ; ; T h.VXZXP.> @ k +.@.%.N.9XJX5X8.~ x t V =.N.8XhXiXa # & K o.p.p.n.=.*.`.pXdXD t Y W V.MXNX XT N , ",
"i 2.&.^.kX%Xz 3 F p.y.KXmXrX1.2.f.%.J ,.f.MXJXJXD N # = u ( y.).JXtXT 3 @.n.*.H ( j.9XCX2X6.h ; * A $.n.LX=X@ $ 9 W +.,.:.q.5XsX).D N # o ; W 8.~.%X` > 1 l ,.3.3.>.q.iX`.i.( i ; ; z 8.5XgXzXt 5 e 9.i.5.5.c.tXFX>X$.:.f # @ Y h.VXVXh.5 * A @.J 0.y.cXMXtX6.~ M ; d G 5.'.fX%Xg # & <.%.u.s.2.,.,.(.iXkXZ e x 9.N.BXNXXX~ L 8 ",
"6 @.f.C.^.].A i 0.u.u.|.|.H.1.n.D.G.H V F G.3X_.g.{ ; = 6 z Z j.0XJ.A z g.D.c.C x ~ _.5X).U.n o o d V S H.x.6 s n I.C.0.x x U._._.j.{ o   O b n _ ].` a a 5.D.H.S j C {.~.~.j.T 3 = 6 A C.|.[.h h Z V.~.8.Z 0.0X7X:XV.c.e O O 9 W 2X7XB.C y ) j.j.Y Z ]._._.C.j.T ; 1 0 s R.|.|.Z i i c.g.Z C P U >.j.^.^.D h G D B.<X|.l.A x 8 ",
"4 H =.=.*.d.@.J O.u.H k.( @.*.D.CXkX~ 3 ; A / 5.PX-X5 ; * - 3 l @.2.J ) 5XcXXX5 = 6 H u.D.&XM $ X @ 3 t k.P ] Q h.iXkXl.3 @ x w.wXyX-X; &   $ > k e.0.J 9.5XCXlXl ; ; A j.xXiXt.3 = # ; T H <.;.O.h.fXiXt.t j >.v.9XfXzX5 O   o t -.M.M.,./ (.aX%Xz 5 T / B.MXcXj.4 +   @ A %.f.+.P ( +X(.r 3 i U <.=.i.7.q.%.2.=.o.%.G d 3 3 * ",
"4 ^ ,.3.1.%.*.&.N.N.H ^ z ^ 7.S.sXlX` ; * d A H ;X[.f r > - > k I >.+.8.`.jX%X5 = < L @.G.}.T ; - > 3 y Q I z.&.).ZXxXe.3 o c I 0XyXeXf : # - 4 l H ,.z.p.7XfXiXa - , v l.lXiXt.e 3 ; > M G P z.&.V.sXaXR.e c U @._.fXzXy - o @ e ,.1.3.1.s.).uXkXz 5 N T 7.MXmX_.g - + - A >.o.=.2.g.uXoX5 3 i U 3.2.s.O.f.-.*.z.#.k.A d 3 5 ; ",
"6 ( #.;.>.@.H.rX7X3XG.h p Y ].wXfXiX` 3 * 4 p k R.t.Z Z Y ` X.` G I G.5XuXuXkXt * = i j H c.^ l z ` P.P.r.d.qX>XmXFXdXe.5 * 6 h g.C.C.B Z Y ` t.k.w.z. X|.tXcX+Xa - > i Z j.I.r.Z z ` ..` ^ F [._.9XVXiXt.e 6 i h 8.~.^.B z n E { H :.x.H.|.9XCXlXC 5 6 u B D.:XS.! R X.{ ] #.=.J.<X|.iXoXl k A >.3.,.0.*.J.qX|.J.G.S u 0 [ { M ",
"r O.*.:.T T [.yXJXCXyXf 4 z eXvXbX'.r.g e 5 5 7 Y _ r.8.V.wXzXR.G ] |.9XjXiXcXB 4 > 7 7 l H H q.i.`.@X+X8.O.LXNXtXgXiXr.y 7 5 r x ^ ) ! 8.I.iXkX].9.c.eXwXvXzX(.n 4 5 f B ~ ! _ ! 4.^..Xr.) / XXyXJXKXwXj.a 4 4 7 n T D 7.a.h..X{.~ ^ T.XXwXcXMX.X! r 3 3 5 ~ 5.6.h.~.%XXXt.e.u.eXyXyXkX'.r.8.4.=.m.;.A d.qXyXxXyXqXf r m =XW.E ",
"z 0X|.e.9 > t.C.9XCXtX4.Y ) A.B.i.h.^._.'.(.R.X.a k {.5X9XJXtXj.h h q.N.V.h.S._.Q. .Y.Y.R h z.wX2XsXaX+XB B d.B.D.h.r.I./.(.Y.T.9 , p (.uXsXCX9X^.B A t.h.j.j.h.I.U.{.|.e.g 7 R (.5XtXtXD B h j.D.A.N.V.~.Y.Y.Y.Y.b 9 t .X8X8XZX(.y 7 b _ h.S.S.C.U.U.Y.W.E 6 7 W '.9XcXkXW g B C.V.V.j.h.5X5X_.v.1.I ' =.A.V.V.D.p.D T 9 w n p ",
"n iXiX_ > * G B.tXFXKX6.! w.n.-.@.+._.CXDXDX5X}.t f kXZXVXCXxXt.e 5 K <.A ! a.dXiXOXOX@XL.l P.dXmXsXaX+Xt t k.;.2.+.8./.uXpXjX*X9   > #XVXDXCXgX^.t d T ) H 0.i.tXtXJXCX(.3 > E +XfXgXvXC t t e.5.O.H 5.I.+XpXpX@Xb $ r jXnXDXsX{.3 * 9 ] k.*.y.8.(.fXjXiXP.> - n %XCXVXiXY * e H e.D ) h.VXCX3X&.$.] [ ,.n.f.s.-.2.@.T w + @ + ",
"n aXuXr.e : c F XXwXdXV.r.7.&.#.P ] |.CXDXGXCXPXt h lXAXAXsX'.t.y 3 c K N m r.xXcXdXhXpXL.a L.jXKXCXiX'.Z r x K U L ) `.fXsXsXiX9   1 oXVXHXJX5XV.g d x ] L A 7.rXtXCXVX/.3 4 E +XpXiX'.Z t t l ] { ' ) U.iXsXAXuXb + 9 aXVXHX9X(.5 4 a L <.] ) 8.'.8XGXSX(.4 - n kXKXVXuXY ; y C [ ' ' r.AXHX7XN.i.F L #.-.$.$.O.-.%.G s * * o ",
"b xXmX>XD x , $ + - B '.iXfXCXR.; ; z 8.V.`.+X$X3 a OXhX4XV.a./.@X*XT ; + + t O.M.A.mXfXP.9  .iXFX:XZ.V.L. .1 ; : # ; C i.S.7XwX9   1 OXsX8Xa.N._..X` t e * - 5 W 5.h.jX/.3 3 T %XpX/.I.uXfXbXy * o @ 3 l i._.CXCXb   > #X9XMXZ.V.kX%X8.t 5 * # 5 H N.nXfX(.; - n +X2XN.V.'.&XE.a ; # # p uXHXCXmXtXC.z.M.M.&.yXjXcXB.-.H.eXXX` ",
"s kXBXrXq.T ,     . t vXfXVXsXU.* * u ! h.+X*X!.> p *XjX`.i.y.).uXOXY ; + + y +.=.A.MXxX` 4 ..lXFX,Xb.N.%X*X1 3 ; # : h O.&.rXvXp o 4 oXfXxXq.q.V.wXj.f 5 * + ; n ! 4.lXU.3 3 T {.iXI._ uXsXpXg ; # # 3 g 4.V.9XtXs   ; $XxXtXA.v.dXaXI.l 7 - O : A N.mXlX$X- * M %X'.y.a.7XJXiXk ; # < p uXVXVXmXMXJ.,.#.-.-.wXuXuXN.v.A.tXkX` ",
"s E.|.c.Z n 7 4 @ ; f vXgXJXtXt.5 5 C r.I./.Y.T.4 y {.wXD.f.i.`.jXjXi.h 4 9 r ! r.V.9XwX{ 4 E ].rXJ.M.B.zXOXY D B u i A g.V.3X X8 & 3 E.kX].V ( C.cX~.D C 4 3 r ) r.h.XXc.4 4 T .XwXt.) iXSXVX6.h 7 ; 3 C h.`.iX&Xd X ; W.|.0XF.B.jXpXI.z s 7 : 5 ] D.9X(.T.* = x W.R.e.u.6XDXAX! g 6 > z hXAXCXrXqXx.P P :.+.eXfX8XS.V.I.#X#Xm ",
"p e.e.x ; 4 p M M T O.cX9X5Xp.+.A G G.wX5X).r.E 3 5 ) g.-.1.f.~.4XCXJXvXt.Z W &X+X`.N.*.j 5 x 0.z.1.-.&.tXhXuXjX|.P P x.eX5XV.e.: O 3 e.O.w.k.k.N.cXZXdX.X` T ^ }.lXlX$.A @ @ a 7.v.$.H wXVXDXVXkX}.T ^ j..X).h.W , O * T Q q.=.B.uXpXUX@X*Xl.K L R.0X:XN.~ ; * i ] / F %.9XGXAX4X&X-X) h.AXVX2Xa.0.j 5 e V :.z.v.Z.tXiX .9 4 @ ",
"g n.%.i @ o d ' ^ 5.N.tXCX3XO.9.5.i.0XMXMXS.4.Y 4 ; M I >.1.B._.JXFXFXFXN.*.&.vXsXuXu.>.K i V >.;.3.2.*.vXuXhXhX5X$.:.[.wXJXV.D > + 3 0.1.o.,.%.D.yXcXCXfXj.H H XXfX9X%.L o o 9 0.n.1.1.NXFXDXDXfX.X8.5.|.yX<Xf.I 8 # * M A G :.V.hXhXpXOX%Xx.3.k..XJXZ.N.D 5 ; 8 L I 3.1._.sXAXSXvXPXO.N.DXCX'.8.T a 3 5 A P ;.m.b.tX+X .4 * o ",
"C D.D.Q Y z L L A l Q _.0XJ.$.g.C.~.^.C.c.~ C k M M x x v j C e. X0X7X7X:XS.V.{.L.L.C A A T Z A V L V Z ].'.dX2X3XV.C.U.U.R.W z b b n F P V x z e.|.|.5X).V.C.C.].^.t.V v b b s x V K V J.3X8X4X'.(.~.V.C.c.( x x Y Y n M d d x Q 4X4X4X`..XJ.A.C.j.].D H Z Y b z d j L V j.`.`.3X|. XD.2X6X7XC.5.~ ~ Z Y T T j P S '.(.P.u 8 # ",
"Y fXVXVXZXtXF.U 5 > e Q p.s.H j.tXlX_ 4 # O = 7 #X{.t 3 @ + ; k H k.%.$.tXiXoXs @ $ * 4 ` #X_ 7 - * # ; Y 9.f.n.A.xXiXr.4 @ = 4 Q.Q.@Xl 5 = + $ a 5.5.9.H 5XfX5XB 5 ; < x %X+Xr.5 # < 6 D 8.r.! R r.dXdXj.5 @ + > /.sXaXa @ . * t *.N.&.6.6._.CXyXZ > + > p oXoX..> - - 3 k ! 8.+.^ D zXtXZ.Z.N.u.6._.5XiXr.m $ > r ! 5.@.P K < ",
"n uXAXGXDXFXH.:.) _ j._._.t.s W D._.! u q c j D bXwXZ C M R r.V.C.G.A a ^.).^.C 8 d x z t.%Xr.l s T ` R P.l.j j F ^.^.e.h i c x Q.OXaXD V x R R t.U.e.l j j.)._.D u d d W dXjXI.z 0 ' t._./.P.s 9 z ~._.j.j 8 i C 2XVXjXY 0 0 E t.>X>Xu.B g r.^.|.F s 0 i Z iXaXY.z Y ) e.t.U.R.Z u r R.G.v.b.A.D.2XZXDXZXh._ R ` e.9.I K j i # ",
"w @XhXAXGXVXC.0..XfXFXCXCXU.- u *.B.u.@.U <.2.&.cXvX6.w.C.iXVXDXnX5Xb + ) -.-.;.U U %.s.j.zXC.5.0.|.cXuX@XE.; o , ^ @.1.>.<.<.@.'.aXcX*.,.d.kXjXxXkXt.5 ; G q.g.O.H ( T r.gXfX/._ ) |.CXVXuX!.- o 3 9.s.2.K U >.*.7XCXcX4.T E #XfXFXCXr.3 # d H ,.F ^ ] ,.B.JXfX'.i.D.NXMXcXkX.Xl ; @ ^ >.;.M.D.MXCXDXDXmXh.h.'.vXyX2.<.K 8 3 o ",
"b @XpXhXAXhXj.Q iXAXHXFXCX^.3 i >.,.d.%.:.%.s.N.wXXX( G h.fXDXDXDXcXb   L 3.3.3.I F v.Z.|.eXC.0.:.|.ZXuXpX$X3 @ 6 P 3.3.1.-.-.-.0XtXLX,.>.s.gXZXCXcXt.; = L >.=.-.-.*.5.V.9XJX'.8.W _.CXDXsX*X; @ 8 I ,.1.;.,.*.N.0XNXyX4.T ! +XsXDXgX` o   c I ,.@.D w.-.A.NXtX(.i.<XBXFXVXsXiXz - - T :.3.1.J.NXJXFXDXxXr._ {.yXLXn.>.V e 3 @ ",
"9 L.~.4XhXuXY y h.).6XnXCXwXV K U K :.@.9.^._._.^.l.u 7 Z ~.2X8XVXcXb . L 3.3.>.k.g.7X7X).C.H j u i.).).uX.Xt > 6 <.3.3.-.B.D.|.D.H.x.j j C V.:X2XlX` @ o v <.1.M.n.B.]._.:XS.6.l y 4.S.8XsX%X5 * < K >.2.f.G._.5XD.B.G.B a a I.2XFXdXE .   d :.#.%.q.qX0X1X<XB.e.B *.,X,XVXAXaXl * - ~ @.>.;.d.G.A.7XFXiXY k t.B.<X<XqXc.A z 4 ",
"4 +.N.3XZXuXn ; ( p.A.tXZX4X5.] >.<.1.-.p.5XdX9X8.z * * u d.N.2XsXuXb @ A 1.1.3.3.F.JXCX).8.h ; ; F p.a.5XeXt * 6 P :.>.%.p.'.xXA.-.U : @ 4 4.N.D.eXE + . d I @.%.1.*.%X'.A.n.V * o d Q sXGXaXy # < L %.-.f.].dXfXV.w.^ 3 - ; ( Z.FXfX..+   j >.,.z.u.JXmX9XB.H n 5 j %.N.8XhX+Xa @ = J 2.>.>.0.9.O.3XFXuXn t 0.o.B.dXiX(.W ^ d ",
", :.n.<XMXlXz ; P #.1.LXdX`.a.7.O.=.1.2.u.wX9X9Xy.Y , o 8 U +.].lX+Xn 3 D u.$.>.3.F.cXdX_.r.a @ o v :.s.eXXXt ; 7 ) Q ~ ( 5.(.kXN.u.' @   + x :.F.;XE - * z 5.W ( >.k.#X'.Z.-.j O   q x dXVXiXy = < ^ q.u.7.G.wXfXV.! n * X . L g.BXtXt.; - C =.%.k.O.vXgX9Xi.! b - 0 L G _.fX%Xk ; 3 +.=.P ] ^ I H 3XCXOXZ f z.o.p.jXOX(.~ ' 0 ",
", G =.-.*.0.' L >.1.1.2.g.*.n.D.tXkXe.e e H N.Z.MXXX3 O O ; 5 z 9.d.H e.tX9XeXt 3 r ! i.^.%XR $   & 8 t 5.F k.G t.%XkXe.e 3 z 8.5XdX;X*     + ; j ] P P +.wXiX&Xy t t ] j.MXtX{ #   X * T 8.+.:.P ] XX.Xj.h F d.a.`.+X#X1     & i $.s.w.H H _.MXXXl f 1.,.N.sXuXP.3 = & = F p.f.O.d.6.wX].; ; j P ;.n.Z.i.~ J 1.;.M.B.! b * = . ",
", G %.-.,.:.I J =.=.#.>.P 1.n.:X8XiXR - @ x +.v.NX X5 O O @ ; u I <.#.p.9XZXkX5 + % M e.|.%XR > O & = t l.k.k.O.V.uXiXr.3 @ d t.4X4XkX7 X     * u I P 1.&.9XuXoX9 ; : v e.CXgXt.; X O * x ] P 1.%.p.9XiXP.r d ' 9.'.uXoX9 o   . 6 k.=.=.*.p.7XZXoXs t } } g.hXhX(.e * o @ V 2.-.&.v.N.fX(.- = i >.3.M.n.+.Z 0.z.H.o.,.A 0 # : @ ",
"u >.1.M.M.-.*.f.i.j.l.L v ] i.2XFXdXR +   w b ! zX[.r * - 9 a D @.>.*.N.sXsX*X> .   0 Z j..X` 3 : 4 4 y W F +.6.).fXjXt.7 = 6 Z 5XgXwXg * - 7 g D O.s.c.h.4XpXoX1     0 l.KXBXC.5 o 4 l O.*.+.z.i.V.SXjXP.> 2 d A |.NXeXl 5 ; r l $.&.N.N.N._.+X*Xz 4 d v T 5X5Xj.f 5 4 p Z -.#.,.F.B.fX/.r 5 j I 2.m.M.*.r.r.4.a.7.] N 0 5 h 5 ",
"u #.#.*.2.z.qXNXmX5X}.3 : s XXJXFX5X! - + 1 > 7 _ ` Y Y P.*X%XG.k.k. XtXSXsXkX5 @ + 1 5 D e.^ A l.{.*XoXr.k.-XvXcXcXcXh.e ; 3 g 6.i.4.Z ) c.eXwX^.i.^..X(.dXbXoXb +   - l &.v.&.C M U.'.V.g.w.XXlXZXVXuXL.> @ > t o.n.*.D F e.(..Xs.f._.tXyXzXkX+Xn 4 * ; r 8.g.9.5.E.*X*Xj.@.x.-XLXyXJX4X4.Z F J %.1.1.g.{.kXlXxXXXt ; d =X&XE ",
"j z.g.T x A G.MXDXGXbXy 6 x [.wXtXwXj.Y z n s b s k l.h.).sXcX].F V G.rXMX2X5XD n s 9 s D F ] d.N.`.uXbX4.+. XyXwX3X5XV.D z s z D k.J c.u.S.mXCX'.! U.zXwXyXrX_.4.n b s z C 9.j.j.h.uXfX8.C A [.5XmXmX9X^.Z z z C F J F j.B.).4X'.D D h.wXrXrX|.'.r.Y s z z z T ^ t./.uXuX_ x A x. XrX9X2X).C.j.@.:.>.;.z.].XX.XtX0XB r d X.X.w ",
"M zX{.E > ; D N.nXGXsXh.G ] 9.O.6.i.C.wXwXbX%XW.9 r }.cXDXGXfXr.t t H f.N.N.a.5XbXoX#X$Xe.f k.yXCXAXhXiXh B O.*.f.y.N.).'.%X*X#Xl e t -XcXCXFXZX^.g l 4.p.&.n.A.7XiXaX*XT.4 5 ! 5XsXVXuXl ; 3 ) N.N.&.p.C.wXxXlXzXY 3 t {.9XZXhX'.e 5 l 8.N.N.p.N.).wX%XbXY.; ; z (.hXAXSXY @ 3 ^ 9.i.a.S.8X9X_.q.w.:.P #.d.%.O.Z.v.d.^ s ; - . ",
"b iX+XR * @ x ! dXAX8XV.&.s.q.Q W ) J.NXBXFXdX$X3 y .XCXDXVXdX` 5 3 A I J q.y.cXZXuXOX%XP.g t.uXAXAXsXlXh B %.>.I H Q ^.kXiXuX+Xl 3 5 $XjXVXsXiXU.e u H d.:.;.v.MXMXcXiXP.+ @ R jXGXVXiXs @ * T +.$.:.:.H.NXFXVXiXn o 4 *XsXAXuXY.; * p ~ O.$.&.N.yXvX4XsXoX@ # M %XsXDXCXY - * T Z ! / N.FXVX3Xa.u.@.:.%.*.,.z.A.v.-.H z ; @   ",
"b pXsXh.g d 0 0 E t.V.2X2X:X_.t.s k k.<X,XmXcX$X7 k kXZX9X).(.P.R E M d 0 s l (.7X8XZXuXP.y L.uXhX4X).(.e./ C x d d z ) ]._.4XiXz ; > #XuXuX/.^.j.^ T j x d d D |.0X3XgXY.@ @ E fXGX4X(.E m M u x c c i G |.9XAXpXb . 4 +XhXAX`.U.T N M x z z C B G._.fXhXoX@ # Y kX4X6X7Xg.E M d s d j Q CXDX9X2XS.g.:.2.-.$.G.:X>X=.:.F ) T 0 ",
"b pXVX2XO.] < & X # f 9XHXDXdXP.; 3 V g.Z.9XkX#Xa l iXdX'.7.4.^.iX%Xn o     > ! v.Z.CXfXP.p L.iXaXV.4.8.&X{.y > o O * z 9.u.7XgXn 1 1 oX@X+X_ ! j.PXe.3 # . + 4 ! s.N.xXU.; * E iXsX).6.{.%X#Xr ; # O = y ! `.hXOXb + 5 kXsXfXi.r.$X$X{ 3 ; @ ; t q.y.uXpXY.* ; W kX_.Z.b.3XkX$X9 , @ ; C gXFXVXCXZX_.@.=.-.y.kXZX5X%.:.q.eXwX^ ",
"b iXtXJ.q.A < & & # f 8XGXGXxXc.3 5 B u.V.5X+XQ.p l %XwX|.e.O.2XCXsX! > + O 4 ( &.,XBXxXX.y j.wX.Xj.q.7.eX%Xl 4 @ # ; l O.B.0XvXb + 1 #XkX'.5.7.D.tXh.r @     4 ! i.N.tX].3 * T %XdXD.p.tXfXuXZ 7 @ O * y ! ).uX%Xb . 3 XXxXtXn.N.jXiXt.7 - @ ; e 9.a.uXaXE.3 6 F XXG.-.n.7XfX+Xn 4 > 3 Z dXCXCXCXdXC.I P >.8.'.jX5Xs.O.C.lXkX` ",
"u j.C.9.C u d 8 c j D sXGX8XD.k.j A c.|.'.~.r...3 y R.j.g.q.p.2XDXDX`.L.x c K -XD.7X,XC.T t w.H.F.z.=.&.eXiXI.Y.X.x j e.0X0XD.R.1   - P.C.C.*.B.,XCX4XI. .w 0 z j.3X7XD.w.: = d T.C.p.v.MXFXDX`.Y...0 d ) (.).S.t.9 + 3 x.G.H.n.A.VXAX`.P...M x A ]._.).~.e.5 3 z c.x.>.=.3XsXsX/.L.P.Z 8.cX9X9X).C.D u i K G h.~.)._._.~.9.) 9 ",
"7 Q Q u 5 5 A ] P H 6.fXAX2Xg.>.P %.D.tXiXI._ E 3 e ~ D +.$.&.:XFXDXDXCXM.3.;.LXdX9X&.I x t S ,.<.>.2.-.yXcXuXaX.Xq.$.G.yXtXj.T $ . ; ] +.-.-.B.S.CXAXpX+Xt.] ( XXfXfXi.A : = 0 ) q.s.B.tXmXDXVXuX(.) / C.tX3Xp.k.0 + ; L :.2.1.>XDXAXfXiX.Xc.w.9.XXlXN.7.D e 3 r ' U P J '.jXVXZXhXaX6.i.tXxX5Xp.H h 3 : v L G e.V.tXtX^.r - + ",
"7 W W k e t D +.0.9.8.lX9X_.,.>.%.i.).iX%X` T T r 5 T ] G J w.].vXmXDXnX,Xm.F..X+X{.( L u h A G L P :.%.LXwXdXfX2Xv.B.|.5XkXT.N , ; e x P :.%.q.C.wXgXZXgXD.-.O. XxXbXQ l r 3 7 x G H 9.qXtXCXHXdXwX6.i.S.tX_.+.L u 4 d v ' P #.B.gXfXcXcXtXD.v.p.].&X8.A h l r s d v v A ].lXJXKXsX4XS.D.tXyX|.$.P z r e c } L A 4.tXKX^.3 o   ",
"n '.5X'._._.i.e.7 4 r l.C.g.0.j..X`.r.Y s , , 5 W.E.s 4 ; : 8 v { r.S.:X7X5X/.n p 4 , p E X.b , , 4 e f k.e.h.S.2XmXwXe.Z Y 9 @ l.].{.k 6 ; 4 3 d k.p.Z.Z.7X9X.XY a p > z U.{.` p , ; e e.C.g.G.$.B.tX9XV.D y ; 4 U.'.T.: % $ 7 l j.g.B.Z.S.3X3X|.Q n > @ 9 (.Y.E 4 6 5 e +.B.B.B.V.).9X3XB.B.B.+.( j.~.^.j.G i u h &.B.q.C M 2 ",
"n fXZXZXCXKXi.~ 4 4 e 9.*.O.Y t.kXkXr.5 @ O = t &X(.r ; ; * ; d M Y 9.p.9XuX@X9 ; = @ 3 ` $XE $ $ ; 5 t W T ! y.Z.MXvX) 5 4 - * XXmXdXg * o ; ; 9 ^ =.1.*.5XfX&X7 * = * z dXcXt.5 * ; 5 ! 8.Z [ V z.tXJXC.e = # 3 ).VX&X4 . + 4 g +.2.2.&.y._.zXzXZ 3 o # 7 +XiXT.3 3 3 t O.b.-.@./ ! vX0X*.n.v.u.8.).sXSXV.8.t e f $.z.P P A 0 ",
"Y sXZXZXZXxXj.W OXhXAXsXCX{.3 y 8.y.5.T N N T r.jX'.Q I j.iXfXlX%X#Xn 3 0.*.g.D z.w.5.8.C.kXj.W ) ^.jXfX4XE.5 t B M.%.G A G [ F MXFXgXh.T ) iXuXuXkXe.t e Z r.W ' L U q.N.JXxX].Q Q ^.aXiXkX!.7 3 t +.%.@.] ] :.-.2XSX%X~ ^ 4.jXCXBXyXc.t 5 z ~ q.s.x.P U z.xXjX+X_ P.{.iXVXDXxXl > * ] %.1.n.,XJXuXfXSXsX~.V.9X5XvXO.U c = * + ",
"Y jXZXsXfXdXj.9.sXGXGXVXVXU.3 u @.=.%.I ^ / 6.a.gXeXz.P j.VXVXVXVXiXb + P 3.m.1.F.p.y.y._.vX_.e.e.'.SXDXVX#X4 ; f <.3.>.k.,.>.*.mXFX5XD ] j.CXGXAXjX` ; * z ~ G I P #.N.S.tXeX].e.g.2XVXsXiXQ.> - 7 U <.P G H *.b.7XjXeX0.k.6.VXVXnXtXt.; * d ] J #.=.%.1.F.5XdX`.r.^.kXfXGXGXiXa + . ' P ;.n.,XCXhXsXZXiX~.y.9XCX9X6.G c < # . ",
"Z iX5XmXFXCXg.G '.uX4XfXSX`.f V 3.3.1.1.%.f.N.Z.0X-XU K k.9XVXDXGXjXb . L 3.3.1.%.u.V.N.G.[.e.A x G.tXnXKXE.- - 6 I >.;.o.O.O.C.3XtXXXT j H tXZXsXbXE @ o d I >.z.z.s.N.)._.XXc.G D _.8XFXZX%X> o : U <.>.F ) j.N.3XwX-X>.[ T %XaXhXaX..- * x F :.k.H 7.g.C._.wX^.6.C.0XtXVXsXkXs + + A P >.B.D.5X5XsXVXdXh.! }.zX_.~.h.D f i = ",
"y i.N.3XCXCXD t Q 6.N.wXZX'.D P ;.;.;.>.z.0XMXMXA.P 8 ; g i.V.6XVXsXb . L 3.>.,.J g.tXyXG.w.C 3 ; A g.N.5X$X- $ 4 ] ,.1.M.B.|.eXV.y.G 6 8 e y.N.V.%XE # # v I ,.=.$.6.wX5Xy.5.l e g ! a.nXmXkX3 o = K 3.%.9.R.XXtXS.a.2.f 6 ; Y r.pXpX` > * A :.F I w.eXkX'.y.u.+.f D s.f.`.iX$Xp - > ^ I P @.u.6.i.2XZXxXZ 5 x e.y.dXxX(.@.K q ",
"7 O.&.<XtXxXD t F #.2.qXgX5Xe.w.=.z.@.I w.0XJXMXN.V : @ 4 T 8.~.fXiXn o A @.0.( L e.KXKX<Xq.l * o c P f.yX}.> @ 4 ~ $.1.1.=.|.kXV.6.A = O > D 8.j.}.E * # A +.d.+.@.8.wX5Xa.8.z ; ; s W tXJXzX5 o - I z.f.O.R.yXJX).8.0.e = # M r.sXfXt.5 ; x J k.:.$.eXdX5XN.s.F t u A G ].kX$Xs > 4 D 0.P ] ( D 5._.CXtXD i K >.p.JXcX'.Q L 2 ",
"6 w.n.F._.(.W h :.2.3.H._.^.8.i.V.C.~ j x U.5X2XS.l.> + $ 0 s ` ]._.W r t.C.t.z d C 3X7X3XD.A * . 2 d D |.T.a y C U.C.%.V A t.^.).~.l.* . @ s A k.W.^ u u t.C.].Z l F |.D.D.j.Y * + 2 s |.3X].l 9 s t.C.g.D w.|.7X2X~.R.5 .   2 Y `.2Xs.B g ( c.G.S S ].5X2X>XA.0.5 6 0 d ) ^.R.z k Z I.j.V v x ] k.C.3XJ.o.j K 2.N.3X_.U.Y d 2 ",
"6 @.1.>.5.r.D +.$.=.;.1.O.i.7.V.gX%XE - @ Y 4.V.'.E.> + + o @ 8 ( s.$.O.lXiXoX4 = 8 g.N.2XeX^ ; + # ; t Q Q 9.9.g.eXeXt.e 3 A 8.'.lX}.3 @ @ * 5 h ] 0.k.H .XiX(.y 3 e ,.B.yXzX` - . + ; ( -.=.+.! _ kXlX^.h C O.N.7X9X&X3     O 3 4.p.-.$.q.|.wXeXD f D i.V.MXyXc.3 o o * C 8.Q W 5.a.dX{.f 5 u ' J $.p.B.#.>.>.&.v.v.*.Z 5 > + ",
"6 J :.P J +.u.B.p.i.F P G q.B.S.VXkXm o o d W 6.zXE.7 - - - * 8 G -.v.N.ZXhX@X4 # < G 5.^.&X^ 5 ; > 3 e W D g.B.A.tXlXt.> * x D wXlX{.e > - > 5 h k.%.f.p.4XfXoXp ; 3 J B.vXeX` 3 @ > 5 F 1.1.=.y.h.fXiXU.t z ~ 9.0XtXXX4 o . - 5 H %.*.f.N.5XfXkXz 5 x W 8.xXvX[.t * @ 4 Z s.q.9.&.N.fX'.f e u L P %.=.*.*.d.s.a.a.-.,.C 5 > + ",
"7 ( G P P #.<X>X2X`.l.j j F <X9XZXkXE * @ u C B R.L.n u x { [ ' J n.,X7XVXuX@X4 ; = i s Y T.~ l Y ` P.` ) ) ].0X7XNXcX .1 @ u C j.~.^.Z C Y  ...) 0.z.J.>X9XjX@Xa > 3 C O.C.j.) k z r.t.@.<.<.H.3X9XZXcXU.e p 9 u w.G.l.s s z ` ) P :.z.J.3XZXsX@Xn 4 9 s l I.^.g.Z T ` L.8.=.d.G.<X7XCX5XS V x L :.>.%.=.G.C.'.).^.S V x ' E w ",
"r ! ( L L P qXBXZXuX&X5 e C yXKXCX+X_ r 5 t f f Z Y _ 9.G.eXXXx.J d.rXMXcX+X+XZ e 5 3 > p M Y W 8.`.iXXX) ~ -XyXyXNXcXr.9 - 5 f Z ! e.O.6.h.@X@X^.5.c.LXyXJXgX'.l 7 4 a Z W / ( 9.8.`.dX9.U U -XyXMXMXtXj.h r - @ x ^ T Y 8.h.gX'.G P c.eXtXJXjX+XY 4 3 > 7 n _ 5.g._.iX+Xj.:.:.-XNXBXJX5Xy.Q ~ J >.:.J z.-XeXvX.X-Xt 3 d =X=XN ",
"s ^.].] i i d.D.sXuXkXZ A ( C.V.V.h.I.U.^.].[.l.l Y {.|.tXmXyXc.h C g.D.h.r.I.^.^.(.T.X.m 9 E .X5XVXZXwXB l l.j.C.A.V.I.L...T.c.x y C G.0X9XjXuX^.B ~ t.C.V.D.V.U.Y.Y.Y._ a y ^ ].3X8XSXD u 8 [ c.D.D.D.C.^.U...X.d 7 9 T._.6XHX8XC u x t.C.V.V.I.U.R.W.T.E 9 p D |.9XAXhX! u h c.A.A.C.^.'.~.C.$.2.,.I :.z.C.C.j.l.v 0 9 m d 0 ",
"n vXtX) ; * C 8.iXiXcXy.Q e.8.8.8.r.(.dXZXfXlX{.r k .X9XFXFXtXw.t r C ( T E 4.vXCXsXaX#X..4 ..kXVXDXFXrXf e n ! 8.O.7.(.oXoX%XXXk 3 t PXMXnXZXjX(.f z ~ ) +.q.7..X+X@X@XL.7 3 T eXmXVXbXz 3 * M T D +.-.D.yXlX+X#Xb ; 4 *XZXDXGX).e * 9 ] z.=.d.s.|.wXlX&XW.> > T zXfXSXaXY 3 5 ^ u.p.H r.jXjX5XN.-.,.I @.*.n.n.B.S U N w - ; * ",
"n 9X9Xe.4 , d T $X{.cXS.a.4.8.! W W ].tXVXZXjX#X7 l bXZXFXgXwXe.y 7 z ' N d D yXtXVXSXaXP.7 t.iXVXHXKXqXf y n E ` ^ ^ l.XXzXiXiXk 7 5 .XZXCXtX'.j.l k n T ' I I -XwXiXaXL.> * T kXVXgXwXY p 9 b M [ [ k.C.tXfXsXuXn - 4 oXsXDXFX'.r 4 4 x L A G k.eXtXJXlX{.3 ; n #XdXgX5X! r 7 z D t.T _ pXsX2XZ.Z.*.P ,.f.n.n.N.*.F x b 9 7 > ",
"Y CXFX_.Y s , ; ; 5 O.2XjXdXwXc.r e G B.S.4XpX#X7 g iXuX).8.h.(.oXQ.z 3 o , f z.B.:XVXuXL.y U.jXsXS.v.z.-XT.p 4 > 3 e L >.n.8XhXz 3 7 @XuXfXg.+.U.{.t.r ; 3 3 e ] &.N.cXU.4 - m @XhXV.g.'.iX/.p - o @ ; l h.4XDXZXY + - #XiXCXZ.V..XE.' 5 3 @ - 5 Q V.ZXgXwXt p R #X/.a.B._..XW.b 3 5 ; n pXAXFXFXBXH.K #.&.N.wX8XJXB.F.h.(.{.' ",
"n dXCX_.! ' 6 * # 3 B ZXVXfXwXl.; 3 V *.N.4XaX#X5 f %XjX'.Q 4./.pXpX! 5 @ @ t J #.B.9XfXP.r t.iXjX2Xy.q.-X;Xt 5 3 3 3 j <.H.8XuXk > 7 @XhXiX+.J ].XXe.e ; 3 ; 5 ( -.A.NX^.4 $ m @XsXD.#.5XhXpXk ; @ o @ p _ ).HXZXn + - E.'.vX&.A.lXkXl.5 - + + ; W i.JX9X.Xt 3 b Q.(.p.n.7XdXoX9 3 5 3 k pXAXDXnXmXc.U k.O.6.wXSXCXv.v.).kX&XE ",
"b .X.Xc.] L i 6 : 5 Z hXAXfXXX{ * 3 Z i.N.9XxX}.t h }.XX|.s.i.`.hXhX8.g 5 5 f / w.J.0X.X` 4 X..X7XS.y.8.&X.XD B f t t B =.A._.#X9 @ 3 #XiX_.H +.C.5Xh.h t 5 5 y W A.Z.cXP.+   w &XNXJ.-.5XpXpXW l e 3 4 a _ ^.9X5Xb + 3 }.eX|.d.i.fXfX^.B t 5 3 e 8.a._.vX}.t 4 b !.U.y.v.mXCXiXY l h f D jXsXVXsXkX` N L @.*.eXdXfXN.N.~.{.E.m ",
"1 r.r.Z t f V U ' T 8.SXVX`.e.A T Y [.zXlXV.4.t.t e ) e.9.O.s.V.4XSXdX.Xl.Z ! }.;X[.q.8.n > s ~ u.j.r._ E..XwXvXXX! D c.LXeXU.R > @ 5 ` 4.w.I k.G.vXdXeX-Xl.) _ #XXX.X4.z $ + 9 ) -.-.%..XpXjX4X.XXX) Y ..{.U.r.8.9 + 5 D 0.( ^ t.dXfXCXwXXXT.Y _ {.XXg.5.D t 5 9 E E Q u.5XCXfX'.zXXXh.i.vXdX4Xa.8.s ; t ,.+.g.4.h.wXvXj.h 7 $ ",
"1 r.V.8.Z Z S >.v s Z .X|.D.d.7.h.h.j.R.W.Y z p b z k z A G k.c..X5XwX].C.h.r.P.}.l.T Y z s d x A z z n W.-XqX0X_.h.t.R.W.T.` n z s Z f V K K V ( |.wXwX.XV.V.r.E.W.W.W Z z s p a A L U [.'.5XwX0XeXh.h.P.T.E z x s 9 x u c d d T eX0X7XwX(.U.r.L.L.E.^ V V D C z s 0 d C ].wXwXwX}.U.~.D.qXqX>Xv.=.A k C O./ A x G  XqXz.g 6 @ ",
"m xXZXsXaXkXG.>.5 - 5 ( d.-.-.D.gXiX8.r 3 * - 9 !.E.a 3 3 ; 5 B q.u.u.p.0XvX+Xp 3 3 3 e ) }.' 3 ; * > ; ^ <.1.&.V.+XoXE > $ - 3 E.%X&Xt 5 8 8 6 x 9.O.i.a.9XfX%Xa ; ; t D .X&XT.5 * : 6 F O.&.C.&.N.MXtXj.y ; * * T.#X-Xu = o $ 3 :.*.v.N.y._.lX+XY 7 ; 3 j XX.Xt.3 o + - ~ f.&.g.H e.5XwXA.n.b.n.M.G.%XeXg.W 5 : i ,.o.:.L N 2 ",
"Y CXDXVXsXdXF.P > $ 3 A %.1.n.>XgXbX` ; & & = 4 #XoXa 3 = # ; h H q.7.p.7XMX+X9 > - ; 5 e.LX0.e = @ @ 3 ^ <.3.*.V.iX*XE $   + 3 '.uXkXr ; * > ; u ^ %.%.$.wXfXzXy - # 6 D sXsXL.3 @ @ 3 Z 7.s.g.&.Z.BXMXC.t # O - Y.uXkXf = o - 4 P ,.=.s.7._.vXzXz * . o 7 +XaX^.5 + + $ A %.*.,.P ( wXwXb.n.n.M.n.).jXcXB.! r 3 u >.#.>.L v 2 ",
"n uXGXGXGXZXB.@.R | R P.U.g.S *._.]./ h j j C B &X{.Z k z T ! h.C.^.Y z J.<XC.C j j s k t.eXg.h u M ` 8.^.l.C Z ! (.^.] u 8 u B 9XsXbXk a z r.r.r.c.0.V x g._.[.j 0 0 j y.sXsX~.k p n _ h.~.c.C Z Q 3X3Xg.C 8 0 k /.hXlXD j a _ r.J.G.q.C C e.G.H.V d 0 9 n aXpX`.D Y R _ j.G.G.S j x ].D.v.&.B.D.3X8XhXcXA.6.t.Q q.d.k.A u 0 % ",
"b OXhXAXGXDXA.$.oXOX@XaXaXI.y h :.@.@.%.o.B.v.&.PX-X/ ( j.kXiXfXsX+Xb o F M.1.;.K.<.e._ I.zX^.( T |.cXVXsXQ.> - 7 9.=.3.>.I w.p.9X8X%X! ! h.fXZXdX%X{ ; ; A #.1.P ' T Q V.fXdX^.! W (.aXsXdX$X; - 3 Q u.%.G ' ( u.4XAXwXf.w.y.fXAXFXdXt.3 ; j U <.P I ( ! r.@XuX4XV.2X9XfXgXxXzXh 3 6 :.f.B.p.C.xXsXAXAX9XN.y.wXtX5Xf.0.z 5 - + ",
"b @XuXZXDXFXB.@.wXfXiXjXhX/.3 i P P <.k.O.B.N.a.eX-X/ Q j.wX5XfXAXpXb   G -.1.<.K.3.N.y.^.kX^._ T |.tXCXfXQ.$ $ 4 :.1.1.1.@.N.Z.7XtX;XT ^ r.iXsXsXaX` $ + v <.;.3.:.Q i.).5XwX].( 0.'.sXAXfX!.$ + - ] =.2.@.( 7.N.4XZXwXz.,.s.cXVXVXpX..- @ i P <.;.%.4.8.r.%XlX_.a._.tXfXVXhXOXa ; 8 U ,.s.5.c.kXfXhXhXfXV.4.eXCXmXN.O.Z t 3 + ",
"s U.^.7XFXFXQ j C.S.:XCXVX`.u L ,.P U P H ^._._.].l.l g D j.V.4XAXhXb   G d.:.U <.1.7X3X|._.8.k s ) C.2X5XE.$ @ i <.1.%.@.+.).6X2XC.x.i d a U.~.`.@X .$ . c <.;.M.=.u.'._.C.j.) j h g.).ZXjX#X- . = P ,.*.$.j._.7X2X2XC.B j C G.).AXpX .$ @ u ( ,.%.g.|._.^.^.j.e.B / C.).sXhXOXb * q K <.:.~ ` j.).uXhXjX4.l t.S.2X7X0XG.D C , ",
"9 5.N.>XFXsXn @ ~ p.N.MXFXtX( k.d.,.>.J 8.5XgXvX7.V 5 3 u / 6.).CXsXn . A #.F U K B.CXCXD.5.k > - x w.B..X!.$ @ i <.1.$.@.=.7XDXS.O.L 8 : 6 ~ u.S.iXR > - K 3.1.2.@.6.iX5Xp.5.l 3 3 F v.rXwX}.- o = L @.%.s.|.NXBXS.8.^ 3 = 6 G V.hXuX` ; @ d I +.f.v.NXBXtX&.w.A 5 i P *.8XAXOXb ; 8 K U ] ' T H &.'.jXbXZ 5 x +.B.NXNXqX*.:.i ",
", +.n.<XKXiXb $ A *.n.IXBXrX$.O.&.s.J H 8.5XgXrXO.] 6 * 7 T 9.D.JX9XR > e.f.k.] L 8.sXZX|.) 9 % o i I $.XXW.> ; h 1.*.O.I :.3XVXV.8.L 6 : i L %.D.eX~ 5 e P m.M.$.( t.zXwXp.8.k * # j o.LXeX;Xr ; 3 A 9.5.O.].yXMXV.! T #   # j j.gXxXt.5 ; j G q.u.&.IXIXNXv.q.M ; c K >.3XsX+Xz 5 i J ( A A T :.1.J.wX.XZ 3 d U z.rXrX Xz.<.i ",
"2 ] 1.n.N.h._ Z w.-.o.M.f.g.q.^.fX{.T 4 3 W h.V.|.=X3 @ o - 5 D B.C.8.D 3X5XU.r > 9 _ V.J.-X' @ . : 5 f x.{ A +.B.rXwX` 4 = Y V.5XkX}.3 @ # ; t F c.@.V >.J.rX|.l 3 6 k.C.3X.X` - % 6 h @.$.z.B +.j.kX.Xj.h C t.r..X.X}.>     = y q.g.@.V G G.eXXXZ f @.$.C.qX.X` - O & 8 O.N.j.F V k..XU.k r h >.K.1.g.d.D H k.3.2.C._ n 6 6 ; ",
"@ j >.M.-.s.j.i.O.&.F.z.] W 8.~.hX+Xm o O d ) 4.zX=X3 ; - > y B S O.p.S.nXFXvX3 + + w W H.LX] 5 * 7 5 t B S d.N.:XmXiXR O X d ! _.5X{.5 * - 3 e B +.=.=.g.wXgXiXa @ = v x.vXvXP.3 * * e Z $.F.A.Z.V.sXiXt.e u M T ].eX{.r @ + ; t ,.1.%.s.h.2X9X%Xa 9 N ' l.PXeXR.y * * 5 S -.O.+.*.V.4X~.t e B ;.3.3.@.$.g.p.&.&.*.! b w 1 3 ; ",
"1 ' ,.M.;.:.rXMXjXuX_.f ; z iXVXVXbXE o   # 5 t ) ] j ] j.iXdX^.e.] |.mXFXKXvXt +     @ S 1.@.F / {.+XiXV.C.yXmXDXGXdX` o   o 5 6.V.j.~ T ` {.(.^.h.D.wXuXhXuXoX1   + : j #.#.S G ` T.Q.L.i.n.NXMXVXhXOXP.7 = * ; F B.B.O._ r.%XeXM.M.C.wXuXAXGX@Xb $ o * 5 9.i.p.y.j.&X.Xj.*.g.eXgX8XHXdX! ^ >.3.m.1.d.s.0XtXJXCX5Xk > w W.-X' ",
", ^ $.2.:.J 0XFXAXpXiXy > n aXsXCXlXE - @ * 3 5 n ' ] q.V.VXSX~.Y x ].KXnXJXwXh -     @ B #.,.d.a.4XuXjX8.6.tXCXVXAXiX` > $ * t +.u.D 9.5.h.iXaX(.8._.gXhXhXOX*X9 + $ 3 j k.I >.k.Q /.@X .! S IXJXVXpXOX .3 ; ; ; V #.O.&.V.a.uXwX3.,.C.bXjXAXAXOXb $ + 6 e H q.&.N.).SXhXh.q.D lXKXnXVX9X4.0.>.3.m.-.+.u.0XwXbXsXiXr > M =XXX[ ",
"6 z.g.W T ) D.MXVXSXOXk p n oXiX9X.X` p p a a p n Z c.N.4XhXuXI.b b c.qXwXlX'.Z b 9 p a Z D 0.p.S.8XuXkXY W XXeX'.iX'.j.l k l B F G V e.V.V.iX@XY._ j.0X9XiX+XQ.n s s k n n x ) e.V.4XjX_ d N x.wXdXuX/.L.k g g u x x D h.S.S.VX.Xv v U.lX5XtXtX5XY s 9 l B G I k.g.~.AXAXh.G Y .X7XBXMX3XN.g.k.@.=.*.+.z.G.[.&X%X(.f y M =XW.d ",
"x LXeX` 4 5 D N.mXZXjX! ! ~ e.4.y.i.R..XiXaX+XY.a g XXxXsXhXaXt.> * I M.s.4.h./.+X+XkX%X` y t.xXFXVXfXzXl f q.5.7.7.i._.iXaXaX%Xl 3 5 }.gXVXsXiXL.t Z p.N.y.8.r.(.%XkX%XP.> > E .XcXHXHXz * = ' u.N.a.i.^.%X%XkX&Xd @ y ].cXCXVX/.* # z r.p.v.n.N./.#X*XxX'.y 5 x {.lXAXGX4.5 5 _ u.&.&.V.9XvX].q.n.f.$.+.w.e.8.O.y.w.] y 3 ; @ ",
"n kXkX` 5 5 Z 8.wX9XJXi.$.:.P ,.%.$. XNXFXHXsX%Xe t &XcXsXVXdXe.r e P ;.1.s.a.cXjXsXsXiX` 7 ..iXGXDXSXeXf B D 7.w.#.*.0XKXhXhX@X9 - 3 *XAXGXsXcX^.f C O.B.,.I 6.tXcXcXcXU.- - R iXsXVXCXZ 5 5 ( p.v.-.*.C.bXhXsXiXn @ 5 '.VXHXAX'.> - s ~ %.1.1.O.kXcXsXVX`.4 - M *XcXCXgXW ; > a ] ] ( h.fXfX0XN.v.B.=.O.u.&.p.Z.v.2.( s - - @ ",
"n +XiXU.k z a z l.t.j.C.D.A.A.g.F B z.0X2XSXsX%Xt k #XiXfX5X^.t.) _ F K L z Z (._.9XDXiX..9  .OXAXVX2X^./ ! l Y x j V w.|.).uXaX9 + 4 @XAXAX).|.B.H Z C A c c D J.|.3XCXU.$ $ R iXZXmX7X8.R Y l Z F P F e.`.sXAXuXn @ 4 *XsXVX2X_.Y E x h V v v C ].0X9XSXoX1 1 R %X5X3X0Xt.M E 7 d i d W SXVX9X:X:XB.2.%.d.&.A.>X>X&.7.Y M M 9 ",
"m pXuX^.! T 4 # # * 5 {.JXFXFX_.r 5 x 9.a.xXdX%Xg z @XuX'.B.$.j.%XiXY 5 - - 4 W O.S.FXdXX.3 ` iXhX).y.i.{.!.9 > * @ : i I *.'.%X9 + 4 +XAX5Xq.,.F.XXt.r * O O t O.d.N.fXI.$ + E iXZX2XN.'.oXQ.9 3 3 : 3 l 4.2XCXfXY * > #XuXgXA.A.cXkXk.t 3 +   ; V &.yXbXY.$ - W zXC.*.f.(.%X#X9 ; = : l hXAXFXFXmXD.k.>.>.-.rXNXNXy.y.I.%X#XE ",
"n aXiX^.5.A 6 # o @ 7 %XhXGXVX~.4 3 g Q a.wXlXXXf l oXiX|.M.*.^.dXfXW 5 - @ 4 T +.Z.FXtXl.5 l.kXdXS.p.i.&X#X9 4 > @ * d F n.wX{.9 @ r kXZX3Xd.%.J.vXj.7 $ . # t 5.O.i.gXU.* ; ) wXtX>Xv.wXOXOXa 7 > = ; l 6.3XMXyXA * - !.iXcXn.N.CXdXj.f 5 +   - A &.NXwXW.@ > W zX0Xn.*.5XjXOXk 5 3 5 Z sXAXVXCXgXC.I K U z.yXcXgX&.i.U.&X#XE ",
"s ~.~.q.B g j i 0 p n @XpXhX2Xh.k k ) ].|.C.C.c.t a L.U.C.-.f._.gXCX].] M p s T.].|.>XD.^ t ( c.G.B.f.*.XX.XP.P.R z s T c.0X_.P.9 - r ^.S.D.d.$.C.lX/.P.X.b s l ].^.^.^.8.e e Z j.J.F.=.qXdXpXI. .E s a ) ].D.D.H.j * @ X.h.^.=.B.ZXfX].e.t.n w a R.0XD.^.{ * > Z C.C.-.&.4XhXuXL.t.e.D 6.jXVX9X).~.5.j j U @.C.).2XD.|.t.` E p ",
"r r.a.D B f V L L z ` #X+X5Xf.u.Q 8.^.XXXXl.( Z a 9 n R ~ F 0.^.wXyXLX-Xt.! ! $X&X.X8.W x 7 z ~ ] I J @.LXLXeXkX'.r._ Y.'.kXL.n 4 > 7 ! / 0.J H t..XlXkX&Xt.8.8.XX&X&XW Z t t l A L L U -XyXcXfXiX{.! ! j.XXR.) ' u 3 4 b R W T t.lXdXzXeX0XV.h.8.{..X6.t.z 4 4 a Z ( P H (.iXiX.XzXeXa.V.dXwX_.g.5.B f t L ] / 7.B.LXPXt.y 5 * ",
"s '.5X|.C.j.k.<.j t k t.L.j.1.H.|._.h.W A i 8 s X.E 9 9 6 6 u ) G.B.G.G._.wX(.! T z p 9 m R n 9 6 8 u h x.H.H.A._.`.`.I._ R p >  ... .p 6 6 u i x t.C.V.C.3X5X_.! T M 7 z P.P.E 9 , < 8 k.H.Z.:XS.V..X(.j.W s 4 , { T.` p 9 4 , s U.V.C.D.,X7X7X`.I.Y a p p X.X.E 7 8 : 4 ) j.j.^.C.S.6X2X^.j.c.@.0.j.^.j.( A u h B z.c.~ C A 8 ",
"n iXZXcXdXiXF.<.h u 5 T ! H 1.H.yXiXr.7 # & & > !.!.4 * @ @ ; l Q O.D 8.'.cXvXf 3 - @ @ m !.| - o @ ; t 9.o.1.-.A.cXbXt.t > & * $XaXoX> O O * ; 6 ^ 7.O.s.tXJXXXy r > . b *X%XX.$   + - Y u.&.n.&.i.kX%Xc.e * X + P.dX'.a ; @ $ 4 0.*.&.y.Z.7XMXvXD 4 + . > $X$XX.- o . @ A #.H e.O.N.HX9Xq.J J F O._.fX9Xj.' : 5 t J +.g.5.G 0 ",
"b aXVXsXsXfXC.1.B f t W _ 9.>.F.eXkXr.7 # & O 4 $X$Xr ; * ; 5 Z 4.j.! _ %XwX.Xt 3 @ o * T #XR ; - 4 5 B i.d.>.>.d..X.Xe.t : < : ^.sX+X3 O O 3 5 a 9.q.@.:.0X5XXXe 5 * o p `.iXt.- + $ 4 Y i.B.%.@.e.&XzXR.f : o $ I.AXgXD 5 ; 4 r @.z.q.5.q.|.eXLXB 3 % & 7 kXlXT.3 * > 5 F -.0.^ H &.cX_.>.<.:.g.j.).VXZXV.l ; 5 f H +.w.+.H d ",
"b iXVXhXhXpXV.f.9X4XfXdX+XP.5 j ( 8.4.D T [ ] W eX-XZ I c..XxXfXCXtXY 5 5.&.G.D A x A 0.H.LXC.H ] R.(.5X9X].f f C z.z.2.#.>.K >.rXKXcX! M ) `.uX5XwXg.f t O.B.G.( Q T N c.CXFX'.! Y Y.OXgXtX XB t f 9.d.#.P K L ( '.ZXMXN.O.e..XkXvXXX` 7 ; j P 1.F P x A Q CXCXwX8.j.'.'.mXMX.Xk t f g.g.U >.F.|.5XsXGXCXN.t.$X(.'.g.J j 5 3 # ",
"b lXVXsXhXuXi.O.fXsXGXVXpXY.; 8 [ %.f.B.s.q.O.y.yXLX+.@.g.5XmXVXDXCXY - ] F.o.,.P ] e.&.<XLXJ.,.:..XJXHXsX.X5 ; u P ;.-.1.%.%.g.7XnXtX7./ h.HXHXHXdX5.5 6 G #.#.@.+.e.G g.mXnX3X7.8.`.AXHXgXXXt 3 e k.=.o.F.,.#.&.'.dXtXB.*.p.9XZX5X'._ - o c U ;.3.x.H 9.V.nXnX3Xy._.KXKXGXGXkXp ; 5 F :.<.#.J.NXcXAXAXCXV.D kXdXcX*.I x 6 ; O ",
"b xXVXDXAXjXj.I .XuXCXFXSX'.y j L >.3.M.o.u.y.S.2XeX7.e.j.zXwX9XVXZXb   v ;.m.K.U F i.V.3XqXx.G Z ].9XVXfXQ.- . < v H *.z.H Q a.mXMXLXF L ) wX9XCXbX` $ o d G >.1.#.k.w.G.vXyX X( D ~.sXZXiX$X; @ 4 ~ $.*.2.z.f.y.~.'.XXz.] e.5XgXCXcXU.r * d P 3.1.F e.8.).FXBX<X$.I.{.+XsXhX*Xp > > T ( k.n.<XNXwXiXuXkXh.y.PXrXrXB.q.Z t e = ",
"4 y.Z.6XVXfXZ 3 C i.Z.6XVX4X! W I 3.3.m.-.eXcXJXZ.u.f 5 g 5.i.~.fXjXb   c 3.3.3.U e.xXCXV.8.h r e @.&.S.uXQ.1   % v k.%.S 0..XlXS.v.#.e 3 y i.V.).kX` - + d G 2.1.#.w.zX^.a.4.B 5 3 Z V.4XiX&X; o = T 0.=.*.J.yXgX~.r.) t ; 5 5.S.VXsXh.5 * x ( ,.#.%.PX.X4X:Xb.#.f k Y _ `.hX*Xp $ @ ^ ( H &.b.Z.i._.dXwXZ B *.&.D.wXxX.X7.] d ",
"< %.v.,XCXaXb - L ,.v.JXZX4Xr.5.9.2.1.1.*.wXcXJX&.H 3 * 6 P ( U.xXlXb O K <.-.d.~ e.MXMX^._ s ; ; K ;.&.iXQ.$ + , N I >.:.@..XwXA.#.U : ; 5 9.i.C.vXt.3 * x J =.z.F 9.xX`.r._ n #   d Q tXCXkXr @ & v P #.n.<XJXZXV.D ] ; o : G C.ZXfXt.5 * z ! / ( +.PX9XmXZ.f.L 3 0 M ) '.iX&X7 - * ~ @.J $.&.f.s._.tXzXC t A H V.9XVX8Xp.:.q ",
"q >.M.<X0X(.n 7 U 3.-.qX_._.5.y.C.J.=.J A R.'._.V.l.; $ , d C t.'.|.Y r k.G.j.D s T qXrX).L.b $ O q V +.^.E.r y z j.j.w.A A U.^.3XB.x.3 @ - x Z ) [.k.g p ) j.C.D x T |._.~.I.n = O 2 z U._.|.B g a l.t.s.*.C.3X5XD.C.T.3 o % d W '.'.) y y 9.V.8.( H G.rX7XS.C.^ ; , d A j.].R.a p g j.g.V F +.0.0.D.wX|.C h K @.f.0XwX^.D x < ",
"8 U 3.M.=.w./ 0.,.M.M.-.%.k.%.A.JXtXq.e ; b Y 4..X}.3 o o ; e Z &.f.6.r.'.cX%Xr o < P d.).oXm + . @ ; f +.z.%.u.D.JXcXj.r - n _ 9XJX.X7 $ o ; ; u L :./ _ /.dX%Xt 3 : U c.xXlXr.t 6 ; > Z $.F.&.p.a.iXiXU.f B @.$.0XtX.Xr * @ > r ~ / W / s.0XMXcXD t <.$.N.gXkXX.; * 5 t D 9.) W D a.9X|.h u h F H 7.p.u.7.F 3.=.=.2.P j 3 *   ",
"< U 3.3.,.%.B.D.D.D.|.S C G G.3XgXkX) ; + 2 0 Z U.R.k d d E e.f.-.&.V.4XsXhX+X5 o & q i 8.U.T u i M ! r.O.o.J.3X6XVXfXj.4 $ , a ^.2XU.k d z ) ! Y D z.^.~.sXZX%X7 ; < c G _._.i.Z C ~ ) H #.m.<X6X6XAXpXY.3 6 d x j._.{.h j u R W J H t.^._.mXCXcXD 3 d i Z (.(.t.g Z g.i.d.@.~ c.D.6XFX5Xh c V P ^ 9.u.&.J.D.3XV.^.V L x T m 1 ",
", ' I >.>.d.rXFXSXpXkXt r C wXcXiX%X` 1 + + @ 5 ! 8.D ] j.iXcX<Xn.f.2XAXAXAXbXe *   & O a 0.2.>.%._.fXgXa.f.PXfXsXZXdXe.3 @ O = F u.e.F H C.CXfX(.8.C.lXsXDXVX%X7 - # = u O.p.7.O.p.0XtXF.3.M.NXFXGXAXOX .$ . . o s ! ) A :.q.iX'.,.%.^.wX9XCXfXiXY $   + > W ! / O.D.CXFXD.#.H eXBXFXDX9XG L U K I 9.s.f.0X8XAXpX@Xt t T &X$Xm ",
"4 / w.k.L ^ 0XnXAXhXiXf r z .XcXxX'._ p > > ; t ! 8.5.O.S.sXgX].H / '.hXAXVXcXB t > % @ k G #.=.B.4XsXfXa.g.XXiXuXjX%X) 7 > = 8 F *.+.q.s.Z.VXsX'.8.^.cXCXFXCX'.z 4 > ; u H H H s.N.mXmXg.P P LXCXDXAX+X..4 - - @ d ' A I 2.N.sXiX%.w.~.xXgXdXiX+XY > $ - 3 T ~ ~ j.).VXFXD.@.H XXMXFXFX5X) ] P P :.+.7.f.qXmXSXaXoXe 5 n }.$XE ",
"k |.|.) s u c.S.sXAXfXO.C A j.C.V.S.~.I.P.P.l.l.Z D ^.0X8XVXaX` p a ! ~.).).D.C.].U. .X.^ h ) |.).sXhXiXD C j.I.I.I.U.P.P.P.{ l.B B D ].0X2XFXfX(.Z 5.C.S.>X:XV.I.L.P...E y u ^ ].2XFXZXW u 6 T.~.).).C.C.U.U.P...M d f c.qX7XhXOXC C 8.~.S.~.I.I.U.P.t.R.] z u Y E.4XZXsX8.l h j.S.S.2X_.^.[.c.+.z.$.s.=.F.>XS.).h.x d s n T s ",
"Y xXlXt.r 5 A 9.5XdXvX&.#.,.w.$.-.&.~.iX+X+X%XXXS S qXJXZXhX@Xm - 3 x J g.i.p.eXcXuXpX@XP.g t.aXsXsXfXwXB f d.*.u.6.8.U.+XaX+X{.s 5 t %XaXuXhXdX^.f j P @.d.&.a.'.iXiX%XT.- $ E &X9XVXpXb @ o N ~ O.s.B.>XMXCXfX+Xn > e }.NX9XsXoXr 5 C q.u.5./ q.0XtX9XvXE.3 ; n %XsXSXiXn ; 5 ) ! ! 8.h.wXxX_.a.f.*.-.1.1.1.o.d.H U v s 4 5 ; ",
"Y jXjXr.t t j L }..X&Xh.B.n.*.,.<.@.^.%XiXaXiX.XB S NXZXsXhX@Xm 3 t K } U A H XXlXjXAXpXL.k L.pXhXSXcX.Xf B +.#.,.z.9.U.iXsXaX#Xb $ 4 oXpXUXjX5XC.B c v N v G i.xXcXfXfXY.$ + m #XfXhXOXb - @ 0 ' x.:.*.S.nXDXVXjXn 1 4 {.JXCXgX{.5 3 g F J L v ] qXBXFXsX(.> @ n iXsXfXzXY 4 r Y b m ' ! dXVX4XN.N.B.2.1.<.3.3.@.F K [ z e 5 * ",
"b +XaX/.6.+.j 5 u p b Y.5X7XtXc.e 5 Z e.a.lX'.%Xg B cXsX4XV.h.I.wXwXD u : i e k.8.~.sXpXY.r P.aXhX).a.h.E. .p r 6 8 4 x t.V.5X/.w + > oXOX`.8.N.>X|.) 4 , # 6 h a.N.:XVX~.- + m +XsX2XV.(.{.$Xr 5 6 : e D ~.8XVXiXb + - {.fX8XS.N.(.E.{ f t : # $ Y S.BX9X{.1 $ m %X2XZ.B.V./.(.k @ o @ l CXGXVX8X9XD.1.>.k.%.XX%X%X$.d.j. X{.M ",
"b %XiX~.p.d.j ; * > 1 @XSXVXsXU.3 4 Z w.O.yXkX#X9 a aXpX5X-.&.).ZXsX! 4 # = 8 [ 5.V.VXiX..4 T.iXsXS.N.8.#X*X9 * # O * k O.N.5X+Xw + 4 #XlXyXs.f.A.5XL.1   O = f O.N.S.KX_.; @ m +XSX:Xv.0X9XlXg 5 ; # : a _ `.sXiXb   * $XbXCXZ.N.iX%Xl.t 3 @ . + b y.BXtX{.- $ m zX0XM.n.9XSXaXk @ O , z SXDXDXHXCXB.>.P H u.wXuXdXN.&.A.eX.XE ",
"T eXeXj.D F i 6 * 4 r OXAXAXuXU.5 e D B.v.qX&XX.1 1 !.(.R.] 9._.HXhXR - @ 8 e F O.3XMX0Xl.7 ` %XwXN.&.&.zXoXy 3 4 ; u S Z.,XmXzX9 . 3 PXIX<Xo.-.D.kX .1 1 > 5 t w.8.y.tX].5 3 T %X4XA.M.NXKXsXZ 7 * @ * p _ ^.gXvXT & ; [.'.5Xf.C.aXOXI.l k 4 ; > R V.tXPXW.o @ M XX<XM.n.4XuXiXB e ; ; C CXFXCXgXgX|.x.k.w.&.rXKX7XZ.v.G.;X$Xm ",
"y i.N.D f t u v v ' ! cXsX4Xh.8.e.8.].yXyXB.W E $ 1 R r.G A ~ ^.4XsXOX!.{ A ( ;XzX_.B.$.x 5 z W O.$.z.z.eXvX'.&XW.C Q J.BXMXN./ 4 - 5 D o.2.z.z.g.%X*X#X$X) 9.B ;X}.}.4.Q t e z _ r.,.1.rXCXhXuX#XW.E T { }.R.6.4.r * 5 W r.r.H g.iXuX%X%X#XU./ ! {.'.4.Y M @ > y 0.2.-.*.'.iXlX'.PX}.` r.cXCX3XN.a.Z t t D s.B.N.v.NXPXt.t e - ",
"p h.a.D y k Z ] v v k.LXrX0X&.O.7.h.U.(.XXk.L 9 p Z B #.P L ' R.qXyXeXeXD.i.8.(.Q.E.H ] s y l A ] ' x A -XrXtXlX(.r.r.^.(.E.T.v 6 7 z Z J C T Y t.XX.XwX0XS.).h.W.T.=Xx C Z l a y x L P .X5XiX5XXX|.a.h.U.W.{ T T s 9 z Z ! Y P k.eXwXwX'./.~.B.C.].XXt.T s 9 9 a z I k.9.c..XwXwX9X).j.C.3XwXG.u.7.C y C 9.0.F 0./ XX&XU.B f > ",
"n iXhXiXkX%Xj.J 8 : f #.&.B.#.G.vXzX` y 5 3 ; 4 W.}.B f e : * x s.v.&.B.0XJXiXn 4 9 ; 3 T }.) r * @ * e w.p.N.y.h.%X%Xt.r > @ * W.}.&Xt 3 * - - a 9.p.N.N.mXCX%Xr - * 3 C .X.X{ 3 * * ; ! y.N.p.f.N.NXwXj.g 3 ; ; X.#XoXk 3 ; : t O.y.a.i.y.3XvXeXC t e 5 k !.!...7 3 5 t Z 0.$.&.N.S.wXwXN.p.$.D q.U.&XXXq.] 5 5 t Z H q.q.G 6 ",
"n hXGXGXDXCXA.>.5 ; e @.&.d.:.c.kX%X) 3 @ @ @ > !.}.t 5 * . % d 9.N.%.%.tXdX+Xp - o # 3 ) &X) >     * t 5.9.9.q.h.wX%X` 3 > @ * E.kXzXt @   + $ p ^ ,.=.&.rXJX.Xr @ @ 5 Z zXkX` > @ + * ~ *.-.-.=.g.yXwX^.e ; # = P.iX+Xr @   @ 7 8.p.-.2.,._.dX%Xs ; : 5 l OXOX..> @ ; 5 Z ( >.;.:.e.iXdXf.#.$.$.7.).CXNXg.T 3 r t P <.;.>.P 8 ",
"n hXAXVXDXFXA.:.T Y 8.V.S.j.x ( _.^.( y 7 9 p k }.-XB h z n n ` ~.).+.V ]._.^.k 6 8 8 a t.kXj.s 1 d T 5.C.t.z C Q |.].) u s u y (.dXcXB r 6 M E ) c.0.V C C.|.^.Z 6 9 h Q zXlXP.a p n Y j.A.C.S C ~ ].^.h.l r 8 i U.iXiXZ u 6 E ! V.C.q.V V j.'.^.Z u i h D uXaXR.k z ~ Q h.h.c.V j z ~._.2.2.s.G.^.4XGXMXB.Q W Q D P U P V u % ",
"n iXsXZXAXsXB.@.#X@XZXHXDXU.; j n.n.%.H ~ Q 8.u.qXLX-.&.C.iXiXdXZXZXY 3 A q.w.@.L L A ~ U.lX~.W T [.zX7XcX{.4 4 u k.+.0.G P G Q .XtXJX&.O.d.eXtX9XwX9.3 ; A 9.O.9.^ ^ 9.h.lXiX(.Q Q ].lXgXfX%Xp @ ; T e.8.4.W ^ G (.iXlXi.0.Q kXiXCXwXt.5 3 C 8.u.9.J ] %.B.fXxX|.u.G.yXtXfXuXoXa 3 5 7.s.3.2.C.eXlXsXGXfXV.6..XtXwX) T s > @ . ",
"M %XdXgXhXsXg.( oXpXDXDXGX/.; j 2.-.%.w.7.y.N.A.qXLX=.O.).fXVXAXDXVXY @ x @.;.1.I k.%.7._.lX~.) G  XNX9XJX#X4 > u I :.@.I P @.g..XwXxXN.f.B.LXMXCXcX` @ O d J +.z.0.+.y.~.dXiX^.5.q.|.CXVXAX@X-   O L @.O.i.q.s.p.'.iXwXg.%.O.JXVXZXiX..- * z H $.=.+.q.f.A.9XtX|.s.|.yXMXsXpX@Xw - 3 k.#.;.=.C.kXkXuXAXfXi.W PXMXtX8.! n 3 * o ",
"d c.C.3XsXsX5.C L./.6XnXGX`.k V ,.#.@.w.s.D.>X>XD.c.C B 8.~.).8XVXsXn + x :.;.1.J d.J.>X3X~.8.z h z.D.:XxXE.> ; u P >.@.P P c._._.^.~.D Z D c.D.8XiXE @ O c I #.z.%.O._.).`.~.r.C B g.).sXAXoX-   & L ,.*.s.g.<X1X3X).~.D B B 2X6XgXiX..- * x H @.w.5.G.J.3X2X_.j.Z 9.C._.uXOXOXw * 3 >.>.<.%.i.^.^.`.sXiX4.l R.A.>XD.].U.z s < ",
"u @.f._.dXiXD f Y 8.A.NXMX3X( H 5.) A ~ q.rXNXtXV.Z 4 > 7 T e._.JXxXn - C w.%.k.^ q.NXBX7Xa.Z 3 ; x H i.XXW.3 3 j k.+.0.L ]  XwXV.h._ 7 > > M t.^.{.E 3 ; A @.k.F ] l.vX3XV.a.W 5 ; z 8.5XjX{.9 O < P 2.f.7.G.LXBX>XV.r.5 : 6 Q h.vX.XE 3 3 C q.w.( Q ;XyX3XS.i.Y 3 p E e.(.%XQ.s ; 3 :.k.P @.6.8.Q ^.xXwXD t G &.>XNXLX[.Y d 2 ",
"j ,.-.B.V.~.D G ( 9.;.H.A.B.s.j.(.E.T y h C.D.S.'.X.$ . O 8 u H C.B.Y n R.|.|.B r C J.,X>X|.M * @ : 6 k l.[ L K >. X].) u u 9.).2XwXP.-     % u W t.) Z Z ]. X[.h u z B.3X6X5X_ -   % 7 t.V.e.A c L  X0XB.B H F.>X7X3XE.- & & 6 l c.j.! C A c.|.].W g l.C.).2X(. .$ + 1 u ) l.l.C x A [.c.h h D J P z.C.C.O.S >.n.n.<XF.( 7 1 % ",
"f -.n.2.q.9./ H +.$.;.>.,.d.*.S.uX%XT 3 5 H f.y.%X!.@ . O < : j :.2.Q ! lXxXkXt @ 5 %.N._.XX' * o o @ 3 T P <.o.B.cXlX) 3 3 Z N.tXtX}.@     @ 3 h 9.$.u.i.0XcXXXr @ = G D.MX5X` # X   * A %.#.>.J g.JXtXj.t i L $.rXNX{.-   & # u :.w.8.5.s.3XxXkXZ e L +.V.gXkXT.- + * 5 V 1.1.>.H 8.zX].t t B P U >.z.*.&.o.M.&.*.1.:.A ; +   ",
"u F.m.3.P G 8.a.N.B.x.P L H i.).AXkX` 3 : A H j.XXT.4 ; ; 5 t j P >.q.h.9X8XlXr + # L ( t.=X' 3 * - 4 r ] F z.N.S.sXuXr.3 * k u.NXyX=X@ o @ r f B #.f.N.V.8XfX+X7 o & L z.yXtXt.:   O ; A 2.1.z.&.N.DXVX^.r 0 N ' J.rXR.4 O O ; e J +.y.a.Z.7X9XiXZ 5 v L g.vXkXT.5 ; 5 f S 3.m.n.p.V.dX^.t t B U K K 1.&.B.A.Z.&.g.G A k 4 - + ",
"6 ;.;.P U k._.VXCXtXR.5 3 z '.ZXsXiXE * o : 5 t ^ T C ) j.eX.Xj.k.z.].5XKXgXvXt o O : > w { P F / E.oXY.! q. XdXVXAXjXt.> o ; t O.O.[ N ' l.wX|.G.g.G..X`.sXSX+Xr o O : h O.y.Q x v T.^.g.#.,. XiXhXAXsXI.4 o O = D A.j.C A ) {.].w.d.^.5X9XFXKXbXZ 3 < : r e.q.q.D j..X'.B.-.A.rX9X8XKX'.Y C F P U P %.n.0X5X5XkX$X9 3 T }.}.M ",
", :.<.<.>.d.4XDXDXCX&X4 > n iXZXCXlXY ; @ - ; 3 [ ] ( O.V.VXsX~.H I [.wXJXxXvXt * o * @ 1 M I =.p.iXhXaXh.h..XfXhXhXjX8.7 $ * 3 ~ k.L j D N.mXJX].8.].%XkXjXSXiXa > @ ; g 9.t.e.0.w.wXfXC.O.@.XXaXhXAXhXI.4 @ + @ Z 7.+.O.y.V.fXlX+.H U.lXfXCXgXdXZ 3 # @ > ' I %.&._.CXZXC.d.a.9XKXZXcX'.W D %.@.] I %.B.tXJXuXuXQ.$ - A XX;XE ",
"1 ^ k.I F 6.4XGXGXCX{.3 ; z 5XgXxX.X_ a 4 4 4 7 x l t.a.4XGXAX`.W L [.wXyXyXwXZ a 4 4 9 b Y q.A.Z.8XsXjX6.i..XdXiXiXlXj.a > > p M ' v k.N.:XDXSX{.Y T.$X%XwX5X`.Z a r r l z Y W u.N.6XVXV./ ) $X+XuXiX'.U.l p 9 4 z A D C.:X:XVX4XQ A t.%X9XtXwX.XW y > 1 1 d ' ( B.2X8XsXr.Y ! '.dX9XtX|.U.j.B.O.@.>.,.p.3X5X5XJX%X> > M }.W.M ",
"b &X.X0.f t Q V.8XCXzXW M W N.y.i.h.^..XoX*X*X!.l h XXwXsXAXhXI.7 ; Z p.p.p.a.'.bX#X*X$X) f j.tXmXHXAXjXB B q.g.a.y.h.j.{.*X*XQ.p ; 5 -XMXDXDXfXI.r a W O.&.p.C.'.+X@X#X` 4 3 E eXKXVXsXZ e e ! h.V.O.7.j.(.+XaX&XM ; y .XnXDXGX4Xt 5 k 8.a.N.i.i.^.%X*X@XQ.; 3 Y .XCXGXAXY - 5 W 6.y.N.C.(.'.3Xv.,.<.<.*.N.N.p.&.y.z M r 3 4 > ",
"n pXiXe.5 ; M 8.9XFXwXy.W 9.f.-.s.p._.JXsXhXpXaXh B eXvXfXAXhXL.> O V *.*.u.h.jXpXOXuXlXG.B U.iXfXZXuXiXf f >.3.2.O.7.[.zXuXuXuXz 3 e XXFXDXAXjXU.r j k.=.F.o.7.wXuXhXjXP.> @ m kXVXsXaXk 3 e / O.=.<.>.c.xXAXVXdXn o > %XCXVXAX/.3 ; u J =.s.7.s.eXfXuXpXOX3 4 n kXFXDXsXn o * x G w.-.C.kXcX7XZ.1.<.<.,.*.#.1.n.M.,.P d * o o ",
"n pXjXj.g 7 d z t.^.C.C.h.V.C.d.A Z j.5X`.uXpXbXB D vXwXtX2X`.h.Y d x A x x Z (.`.uXjXlXC.B U.lXcX5X3X_.~ G j j L A z ] |.2XZXjXz ; 5 XXJXnX4X`.U.T x V V L j C }./.uXiXU.4 ; E kXZX4X(.T z A A C A c c ^ .XsXVXfXn . ; &XxXCX4X~.A x x x V A C B ].5XsXhX@X5 ; n %XgX8X4Xt.d d d x A S 7..XgX9X:XF.3.<.>.$.*.H.,X>X-.H A M d , ",
"n dXgX_.5.^ 6 * ; 5 f .XcXfXdXU.; ; s W ! {.%X%XB S yXqX0Xp.N.3XeX-Xx ; $ . - M Q j.eX.Xt.g j.wXyXA.Z.p.-X=X; - @ * ; s W 8.0XeXs > 4 XXyXrXN.i.C.XX^ 5 ; @ @ 3 ^ Y e.eXR.r r ) zXxXC.6.XXXX}.r ; o . # 8 ~ ^.xXkXn $ 5 XXwXvXa.V.eX;X{ 3 * * * ; n 5.eXvX{.t 3 M $X_.N.N.|.XX=X7 ; ; 3 z {.lXcXJXtXJ.@.>.#.&.MXBXBXu.5.j.XX-XM ",
"p ^._.B.$.:.j i u j B ]._.).)._ * @ , s k l.R.].D O.G.G.G.f.B.>X<XG.A 9 +   o d j D G.G.t.B t.].|.B.B.&.G.l.u 0 , o o , s l j.[.z p k ].J.J.u.s.g.[.) u 0 # o @ d d x G.c.C C 9.].|.g.*.G.|.].l 9 1 . # : x e.^.^.W s l [.C.J.N.A.0X|.) y 6 , # * p x W.c.c.C z Y R.j.i.N.D.|.[.z u d ; 4 E P.U._._.A.*.>.P 9._.3XD.*.*.f.|.].m ",
": @.=.%.:.>.P >.>.>.J z.q.7.7.Z = o @ - 3 Z q.s.O.5./ ( w.%.*.v.&.q.G N - . . : 3 g 9.s.s.O.9.5.7.s.*.*.d.k.A ' d @ o o * 3 A ( T T C w.=.d.$.9.+.e.( A v < o o @ > 3 G ( / 9.q.g.O.*.-.$.q.D Z Y N * = = 3 h 7.p.9.G F k.s.&.v.B.&.s.H A v 8 # * ; 3 A A k.H 0.( ) ~ / O.&.B.q.F P [ ; @ @ > k 4.a.B.1.>.U L ^ / $.1.1.*.$.Q 0 ",
"8 P P L L P >.1.>.>.I L A P I x * @ @ ; 5 C 0.H 0.0.J ] J :.k.%.H A M N - # = 6 5 u A G ^ ( 0.9.+.=.%.,.J P ' v d : : * ; 3 d x ' ' A @.%.2.=.z.J G A v v 8 : ; * 6 ; N M A A H %.=.2.2.J ( Z ) T x ; = # = u ~ 9.0.G G ^ J +.=.=.J G P ' v 8 o @ ; 3 ' L ] :.:.k.( ^ ^ H +.$.0.] L L 3 ; * > p W Q w.>.K U U U >.>.<.P I G T p "
};
