/* XPM */
static char *f33dfa1dd91d4347f0e07c9545f61993x3eSWW1yMjR0td0R[] = {
/* columns rows colors chars-per-pixel */
"900 600 30 1 ",
"  c #E6E6E7",
". c #020289",
"X c #0505B6",
"o c #00007B",
"O c #010196",
"+ c #0303A5",
"@ c #D6D6EA",
"# c white",
"$ c #00003F",
"% c #00006F",
"& c #000061",
"* c #CACADD",
"= c #000052",
"- c #A9A9EF",
"; c #5F5FE8",
": c #0000C9",
"> c #7878EF",
", c #2A2AC4",
"< c #4545DB",
"1 c #BFBFF0",
"2 c #B9B9D5",
"3 c #9292ED",
"4 c #8484C9",
"5 c #A0A0CF",
"6 c #6C6CC3",
"7 c #252597",
"8 c #40409E",
"9 c #4A4AC0",
"0 c #5D5DA9",
"q c #EEEEF4",
/* pixels */
"###############               ###############               ###############               ###############               ###############               ###############               ###############               ###############               ###############               ###############               ###############               ###############               ###############               ###############            q###########@1-369999,8,7,7++++++++++X7,,,,999999645-* #######################               ###############               ###############               ###############               ###############               ###############               ###############               ###############               ###############               ###############               ###############               ###############               ###############               ###############               ",
"###############               ###############               ###############               ###############               ###############               ###############               ###############               ###############               ###############               ###############               ###############               ###############               ###############               ###############    q######q1469,X+O..o.....OOOOOOOOOOO++O+OOO+O++O+OOOOO+O++O+OOOOOOO++X,96-@############               ###############               ###############               ###############               ###############               ###############               ###############               ###############               ###############               ###############               ###############               ###############               ###############               ###############               ",
"###############               ###############               ###############               ###############               ###############               ###############               ###############               ###############               ###############               ###############               ###############               ###############               ###############               ###################*56,+O........OOOOOOOOOOOOOOOO++O++OO+O+++O+O+++++++++++++++++++++++++++OOOO+,9>-q######q            ###############               ###############               ###############               ###############               ###############               ###############               ###############               ###############               ###############               ###############               ###############               ###############               ###############               ",
"###############               ###############               ###############               ###############               ###############               ###############               ###############               ###############               ###############               ###############               ###############               ###############               ###############               ############@49+O.o.....OOOOOOOOOOOOOOOO+O+O+O+O+O+O+O++O+O+O+++++O+O++O++++++++++++++++++++++++++OOOOO+,941####qq      ###############               ###############               ###############               ###############               ###############               ###############               ###############               ###############               ###############               ###############               ###############               ###############               ###############               ",
"###############               ###############               ###############               ###############               ###############               ###############               ###############               ###############               ###############               ###############               ###############               ###############               ###############               ######q39+.oo...OOOOOOOOOOOOOOOOOOOO+O+OO+OOO+O+OO+O+O+O++O++O+O+O+++++++++++++++++++++++++++++++++X++X++++OO+,95 ####q ###############               ###############               ###############               ###############               ###############               ###############               ###############               ###############               ###############               ###############               ###############               ###############               ###############               ",
"###############               ###############               ###############               ###############               ###############               ###############               ###############               ###############               ###############               ###############               ###############               ###############               ###############           q####16,Oooo...OOOOO.OOOOOOOOOOOOOO+OO+OOOO+OOO+O+OO+O+O+O+O+O++O++++++++O+++++++++++++++++++++++X++X+++X+++++X+X++++++X,62q###############               ###############               ###############               ###############               ###############               ###############               ###############               ###############               ###############               ###############               ###############               ###############               ###############               ",
"###############               ###############               ###############               ###############               ###############               ###############               ###############               ###############               ###############               ###############               ###############               ###############               ###############       q###26+.oo....O.OOOO.O.OOOOOOOOOOOOOOOOOOOOO+OOO+O+OO+O+O+O+O+O+++O+++O+O++O+++++O+++++++++++++++X+++++++X+++X+X+X++X+X++++++++++,>@###########               ###############               ###############               ###############               ###############               ###############               ###############               ###############               ###############               ###############               ###############               ###############               ###############               ",
"###############               ###############               ###############               ###############               ###############               ###############               ###############               ###############               ###############               ###############               ###############               ###############               ###############   ####59Oooo......OO.OO.O.OOOOOOOOOOOOOOOOO+OOOO+OO+O+OOO+O+O+O+O+O++O+O+++O+++++++++++++++++++++++++X+++X+X+X+++X+X++X++X+X++XXX+XX+X+++++X;1#######               ###############               ###############               ###############               ###############               ###############               ###############               ###############               ###############               ###############               ###############               ###############               ###############               ",
"###############               ###############               ###############               ###############               ###############               ###############               ###############               ###############               ###############               ###############               ###############               ###############               ################# 4,Oooo..O.O.OO.O.OO.OOOO.OO.OOOOOOOOOOOOOOO+OOOO+OOO+O+O+O+O+O++O+O++++O+++O++++++++++++++++++++X+++++++++++X++X+++X+X+X+X+X++X+X+X+XX+X+++++X<3####              ###############               ###############               ###############               ###############               ###############               ###############               ###############               ###############               ###############               ###############               ###############               ###############               ",
"###############               ###############               ###############               ###############               ###############               ###############               ###############               ###############               ###############               ###############               ###############               ###############               ##############4+.ooo....O..O.O..O.O.OO.O.OOOOOOOOOOOOOOOOOOOOO+O+OO+O+OO+O+O+O+O+O++++O+O++O+++O+++++++++++++++++++++++X+X+X+X++X++XX++X+X+X+X+X+X+X+X+XX+XXX+X+++++,4 ##q          ###############               ###############               ###############               ###############               ###############               ###############               ###############               ###############               ###############               ###############               ###############               ###############               ",
"###############               ###############               ###############               ###############               ###############               ###############               ###############               ###############               ###############               ###############               ###############               ###############               ##########-9.%o.......O..O.O.O.OO.OO.OOOO.OOOOOOOOOOOOOO+OO+OOOO+OOO+O+O+O+O+O++O++O+++++++++++++++++++++++++++X+++X+X++++++++X++X+++X+X+X+X+X+X+XX+XXX+XX+X+XXXX+X+X++X9-###       ###############               ###############               ###############               ###############               ###############               ###############               ###############               ###############               ###############               ###############               ###############               ###############               ",
"###############               ###############               ###############               ###############               ###############               ###############               ###############               ###############               ###############               ###############               ###############               ###############               #######6+%%o.......O.O..O.O.O.O.OO.OO.O.OOOOOOOOOOOOOOOOOOOOO+O+OO+O+OO+O+O+O++O++O++O+O++O++++++++++++++++++++++X+++++X+X+X+X++X+XX++X+X+X+X+XXX+XX+X+XX+XXX+X+XXXXXXXXX++,4 ##q   ###############               ###############               ###############               ###############               ###############               ###############               ###############               ###############               ###############               ###############               ###############               ###############               ",
"###############               ###############               ###############               ###############               ###############               ###############               ###############               ###############               ###############               ###############               ###############               ###############              q###-9.%oo........O....O.O.O.O.O.O.OOOOOOOOOOOOOOOOOOOO+OO+OOOOOO+OO+O+O+O+O++O++O+++O+++++++++++++++++++++++X++++++X+X++++X++X+X+X+X+X+X+X+XX+X+XX+XX+X+XX+XXXXX+XXX+XX+XXX+X+X9-##################               ###############               ###############               ###############               ###############               ###############               ###############               ###############               ###############               ###############               ###############               ###############               ",
"###############               ###############               ###############               ###############               ###############               ###############               ###############               ###############               ###############               ###############               ###############               ###############            ###4+%%o..........O....O.O..O..O.OO.OOO.O.OO.OO.OOOOOOOOOOOOOO+O+O+OO+O+O+O+O+O+O+O++O+++O++O+++O++++++++++++++++++X+X++++X+X++X++X+X+X+X+X+X+X+XX+X+XX+XXX+XXX+X+XXX+XXXXXXXXXXXXX++,4###############               ###############               ###############               ###############               ###############               ###############               ###############               ###############               ###############               ###############               ###############               ###############               ",
"###############               ###############               ###############               ###############               ###############               ###############               ###############               ###############               ###############               ###############               ###############               ###############        q###6O%oo...............O.O...O.O.O.O.OOO.OOOOOOOOOOOOOOOOOOO+OO+OO+OOO+O+OO+O+O++O+++++O++O++++++++++++++++++++X++X+X+++++X+++X+X+X++X+X+X+X+XX+X+X+XX+X+XX+XXXX+XXXXXXXXX+XX+XXXXXXXXXXXX+:3############               ###############               ###############               ###############               ###############               ###############               ###############               ###############               ###############               ###############               ###############               ###############               ",
"               ###############               ###############               ###############               ###############               ###############               ###############               ###############               ###############               ###############               ###############               ###############               #########4O%%o.............O..O....O.O.O.OO.OOO.O.OO.OOOOOOOOOOOOOO+OOOOOO+OO+O+O+O++O+O+O+O+O+O++++++++++++++++++++++++++++++++X+X++X+X++X++X+X+X+X+X+X+XXXXX+XXX+XXXX+XXXXX+XX+XXXXXXX+XXXXXXXXXXX+X+X4###      ###############               ###############               ###############               ###############               ###############               ###############               ###############               ###############               ###############               ###############               ###############               ###############",
"               ###############               ###############               ###############               ###############               ###############               ###############               ###############               ###############               ###############               ###############               ###############               ######3+%%o....o.............O..O.O.O.O.O.O.O.OOOOO.OOOOOOOOOOOOOOOOO+O+O+OO+OO+O+O+O+O++++++++++O+++O+++++++++++++++X+++X++X+X+++X+X+X+X+X+X+X+X+XX+XX+XX++X+XX+XXX+X+XXX+XXXXXXXXXXXXXXXXXXXXXXXXXXXXXX+,3##q   ###############               ###############               ###############               ###############               ###############               ###############               ###############               ###############               ###############               ###############               ###############               ###############",
"               ###############               ###############               ###############               ###############               ###############               ###############               ###############               ###############               ###############               ###############               ###############               ###3+%%o....o..............O.......O..O.O.O.OOO.O.OOOOOOOOOOOOOOOOO+OOOOOO+OO+O+O+O+O++O+O+O+O+O+++++++++++++++++++++++X+++X+++X+X++X++X++X+X+X+X+X+XX+XX+XXXX+XXX+XXXXXXXXXXX+XXXXXXXXXXXXXXXXXXXXXXXXXXXX++,3##q###############               ###############               ###############               ###############               ###############               ###############               ###############               ###############               ###############               ###############               ###############               ###############",
"               ###############               ###############               ###############               ###############               ###############               ###############               ###############               ###############               ###############               ###############               ###############            q##17%%oo.o.o....o..............O.O.O.O.O.O.OOO.O.OOOOOOOOOOOOOOOO+OOOOO+O+O+OO+O+O+O+O+O++O++++++++O++++++++++++++++++X++++X+++X++++X++X+X+X+X+X+XX+XX+XX+XX+X+XXX+XXXXX+XX+XXXXXXXX+XXXXXXXXXXXXXXXXXXXXXXXXXXX++,2###############               ###############               ###############               ###############               ###############               ###############               ###############               ###############               ###############               ###############               ###############               ###############",
"               ###############               ###############               ###############               ###############               ###############               ###############               ###############               ###############               ###############               ###############               ###############          q#q9o%oo...o.....o............O.O....O.O.O.O.O.O.OOOOOO.OOOOOOOOOOOOOO+O+OOO+OOO+O+O+O+O++O+O+++O+O+O++++++++++++++++++X+++++X+++X++X+X+X+X+X+X+X+X+X+XX+XX+XX+XXXX+XXXXX+XXXXXXXXXXXXXXXXXXXXXXXXXXXXXXXXXXXXXXXXXXXXXX>#############               ###############               ###############               ###############               ###############               ###############               ###############               ###############               ###############               ###############               ###############               ###############",
"               ###############               ###############               ###############               ###############               ###############               ###############               ###############               ###############               ###############               ###############               ###############       q##5O%ooo..o.o..o..o.................O.O..O.O.OO.OOO.O.OOOOOOO.OOOOOOOOOOOOO+O+OO+O+O+O+O+O+O+++O+O++++++++++++++++++++++++++X+X++X++X+X++X+X+X+X+X+XX+XX+XX+XX+XXX+XXXXX+XXXXXXXXXXXXXXXXXXXXXXXXXXXXXXXXXX:XX:XX:XX:XXXXX++,1##########               ###############               ###############               ###############               ###############               ###############               ###############               ###############               ###############               ###############               ###############               ###############",
"               ###############               ###############               ###############               ###############               ###############               ###############               ###############               ###############               ###############               ###############               ###############     ## 9o%oooo.o.o..o...............O..O.O..O..O.O.O.OO.O.OOOO.OOOOOOOOOOOOO+OO+O+OOO+O+O+O+O+O++O++O+++++++++++++++++++++++++X++X++++X+++X++X+X+X+X+X+X+XX+XX+XX+X+XXX+XXXXX+XXXXXXX+XXXXXXXXXXXXXXXXXXXXXXXXXX:XXXXXXXXXXXXX:XX:XX+X;########               ###############               ###############               ###############               ###############               ###############               ###############               ###############               ###############               ###############               ###############               ###############",
"               ###############               ###############               ###############               ###############               ###############               ###############               ###############               ###############               ###############               ###############               ###############  q##4O%%ooo.o..o..o...o.o.................O..O.O.O.O.O.OOOO.OOOOOOOOOOOOOO+OOOOOOO+O+OO+O+O+O+O+O++O++O+O++O+++++O+++++++++X++++++X+X++X+X+X+X+X+X+X+XX+X+XX+XX+XXXX+XXXX+XXXXXXX+XXXXXXXXXXXXXXXXXXXXXXXX:XX:XXXXX:XX:XX:XX:XXXXXX:XXX+:-#####               ###############               ###############               ###############               ###############               ###############               ###############               ###############               ###############               ###############               ###############               ###############",
"               ###############               ###############               ###############               ###############               ###############               ###############               ###############               ###############               ###############               ###############               ###############q# 8%%ooo.o.o.o.o.o..o.................O.O..O.O.O.O.O.OOOO.OOOOOOOOOOOOOOOOOOO+O+O+OOO+O+O+O+O+O++O++O++++++++++++++++++++++++X++X++++X+++X++X+X+X+X+X+X+XXX+X+XX+X+XXX+XXXXX+XXXXXXXXXXXXXXXXXXXXXXX:XXX:XXXXXXXX:XXXXXXXXXXXXX:X:XXXXXXXXX<###               ###############               ###############               ###############               ###############               ###############               ###############               ###############               ###############               ###############               ###############               ###############",
"               ###############               ###############               ###############               ###############               ###############               ###############               ###############               ###############               ###############               ###############               ###############2+%%ooo.o.o.o..o...o...o............O.....O..O.O.O.OOO.O.OOO.OOOOOOOOOOO+OOOO+OOO+OO+O+O+O+O++O+O+O+O+OOOOOOOOOOOOOOOOOOOOOOOOO++O++++++++++X+++X+X+X+XXX+X+XXX+XXXXXXXXX+XXXXXXXXXXXXXXXXXXXXXXXXXXXXX:XXXX:XX:XXXX:X:X:X:X:X:XXXX:X:X:XXXXXX,q#q             ###############               ###############               ###############               ###############               ###############               ###############               ###############               ###############               ###############               ###############               ###############",
"               ###############               ###############               ###############               ###############               ###############               ###############               ###############               ###############               ###############               ###############               #############-.%%o.o.oo.o.o..o.o.o......o.............O.O..O.O.O.O.O.OOOO.OOOOOOOOOOOOOOOO+OOOO+OO+O+OO+OOOOOO.OO+++7,99966445--1@@qq####qq@@1--34466999,,XX++++++++++X+X+XX+XXX+XX+X+XXXX+XXXXXXXXXXXXXXXXXXXX:XXX:XXXXXXXXXXXX:XXXXXXXXXXXXXX:X:XX:XXX:X:XXXXX-##           ###############               ###############               ###############               ###############               ###############               ###############               ###############               ###############               ###############               ###############               ###############",
"               ###############               ###############               ###############               ###############               ###############               ###############               ###############               ###############               ###############               ###############               ###########4o&%ooooo.o.oo.o.o..o...o.o...........O.O....O.O.O.O.OO.OO.O.OOOOOOOOOOOOOOOOOOOO+O+OOOOO...O+,64-@#############q#qqqqqqq@q@q@qqqqqqqq#q#############@-46,X+++++++X+XXXXXXXXXXXXXXXXXXXXXXXXXXXXXXXXXX:XXXXX:XX:X:XXXXX:X:X:X:X:X:X:XXX:XX:X:XXX:X:XXXX4##         ###############               ###############               ###############               ###############               ###############               ###############               ###############               ###############               ###############               ###############               ###############",
"               ###############               ###############               ###############               ###############               ###############               ###############               ###############               ###############               ###############               ###############               #########9%%oo.oo.o.ooo.o.o.o.o..o....................O.O..O.O.O.OO.OOOOOOOOOOOOOOOOO+OOOOO....O79651 #####qqq  @q@ @q@ @@@q@@q@q@@@q@q@q@@@@@q@q@q@@@@q@ @q@q@qqqq#####@1369,X++++++X+XXXXXXXXXXXXXXXXXXXX:XX:XXXXX:XXX:XXXXXX:X:XXX:XXX:XX:XXXX:XX:XXX:X:XXXXX:XXX6##q      ###############               ###############               ###############               ###############               ###############               ###############               ###############               ###############               ###############               ###############               ###############",
"               ###############               ###############               ###############               ###############               ###############               ###############               ###############               ###############               ###############               ###############               #######,&%oooooo.oo.o.o.o..o..o....o.............O..O....O.O.O.OO.OO.O.OOOOOOOOOOOOOO...+945*q#####qqq@@ @@q@@@@q@@q@@q@q@q@@q@@@q@q@@@@q@q@q@@@@q@@q@q@@q@@@@q@@@q@@@q@qqq#####q1-49X+++X+XXXXXXXXXXXXXXXXXXXXXXXXXXX:XXX:X:X:XXX:XXX:X:XX:XX:X:XX:X:X:XXX:X::XX:X:XX9 #q    ###############               ###############               ###############               ###############               ###############               ###############               ###############               ###############               ###############               ###############               ###############",
"               ###############               ###############               ###############               ###############               ###############               ###############               ###############               ###############               ###############               ###############               ####@O&%oooooo.ooo.ooo.o.o.o.o...o...o.........O.....O.OO.O.O.OO.O.OOOOOO.OOOOO....+94@###qqqq@@@@@@@@q@@q@@q@q@@q@@@q@@@@@@q@@@q@@@@q@q@@@@@q@q@@q@@q@@q@@q@q@@q@@q@q@@@@@@@@@@qqqq###@39X+++XXXXXXX:XX:X:XX:XX:X:X:XXX:XXXX:XX:XX:X:XXXX:XX:X:XX:XXX:XX:X:X:XX:X:XX:XX,@#q  ###############               ###############               ###############               ###############               ###############               ###############               ###############               ###############               ###############               ###############               ###############",
"###############               ###############               ###############               ###############               ###############               ###############               ###############               ###############               ###############               ###############               ###############q#@O&%ooooooooo.o.o.o.o.o.o...o..................O.O..O..O.O.O.OOOO.OOOOOO....+94@###qq@@@ @@@q@q@q@q@@q@@q@@@@q@@q@q@@q@q@q@@q@@q@q@@@@q@q@q@@q@q1q@@q@@q@@q@@q@@q@@@q@q@q@qq@q@@@q@@qqq###@39X++XXXXXXXXXXXXX:XXXXXX:XX:X:XXX:XX:XXX:X:XX:XX:X:X:X:X:X:X:X:X:X:XX:X:X:XX,q##               ###############               ###############               ###############               ###############               ###############               ###############               ###############               ###############               ###############               ###############               ",
"###############               ###############               ###############               ###############               ###############               ###############               ###############               ###############               ###############               ###############               ###############@7&%oooooooo.o.oooo.o.o.o..o.o...o.o...........O....O..O.O.O.OO.O.OO.....O94@###qq@@@@@q@q@@q@@@@@@@@@@@q@@@@q@@q@@@@@q@@@q1q@@q@@@@@q@q@@@@@@@@@@q@q@@@q1q@@@q1q@@@@q@@@@q@@@@@@q@@q@@@@@@@qq###@3<XX+XXXXX:XXXX:X:X:XX:XXXX:XX:XX:X:XX:X:X:X:XX:X:X:X:X:X:XX:X:X:X:X:XX:XX,##q             ###############               ###############               ###############               ###############               ###############               ###############               ###############               ###############               ###############               ###############               ",
"###############               ###############               ###############               ###############               ###############               ###############               ###############               ###############               ###############               ###############               ##############7&%ooooooo.ooooo.o.oo.o.o.o..o..o.................O...O.O.O.O.O.O...oO94@###qq@@@@@@q@@@@@@@@@@q@q@q@q@@@@@q@@@@@@@q@@@@@q1q@@@@@@q@@@@@@@q@q@@q@@@@@@@q@@@@@q1q@@@q@@@@q@@@@q@@q@@@@@@q@q@q@@@@@@qq###@39XXXXX:XXXXXXX:XX:X:XX:XX:XX:X:X:X:X:X:X:X:X:X:X:X:X:X:X:X:X:X:X:X:XXX, #q           ###############               ###############               ###############               ###############               ###############               ###############               ###############               ###############               ###############               ###############               ",
"###############               ###############               ###############               ###############               ###############               ###############               ###############               ###############               ###############               ###############               ############7&%oooooooooooo.o.oo.o.o.o..o.o................O..O..O.O.O.O.O.O..o.95###qq@@@@@@q@@q@@@q@q@@q@q@@@@@@@@@q@q@@@q@q@q@@@q@q@@q@@@q@q@@@@q@q@q1q1q@@@@q@@q@@@q@q@@q@@q@@@@q@@@q@q1q@@@@q@q@@@@@@@q@q@q@@@@@qq###-<X+XX:X:X:XX:XX:X:X:X:X:X:X:X:X:X:X:X:X:X:X:X:X:X:X:X:X:X:X:X:X:X:XX<q#q         ###############               ###############               ###############               ###############               ###############               ###############               ###############               ###############               ###############               ###############               ",
"###############               ###############               ###############               ###############               ###############               ###############               ###############               ###############               ###############               ###############               ##########8&%ooooooooo.ooo.ooo.oo.o.o.o..o..o.o..o................O..O.....o74@##q @@@@@@@q@@@@@@@@@@@@@@@@@@q@@q@@@@@@@@@@@@@@@@@@@@@@@@@@@@@@@@q@@@@@@@@@@@q@@@@@@@@@@@@@@@@@@@q@@@@@@@@@@@@@q1@@@@q@@@@@@@@@@@q@@@@@@@@q##@>,XXXXX:XX:XX:X:X:X:X:X:X:X:X:X:X:X:X:X:X:X:X:X:X:X:X:X:X:X:X:X:XXX<q#q       ###############               ###############               ###############               ###############               ###############               ###############               ###############               ###############               ###############               ###############               ",
"###############               ###############               ###############               ###############               ###############               ###############               ###############               ###############               ###############               ###############               ########8&%%oooooooooooo.oooo.oo.o.o.o.o..o..................O.O.O.O...o.95##q @@@@@@@@@@@@@@@@@@@q@@@@@@@@@@@@@@@@q@@@@@@@@@@@@@@@@@@@@@@q@@@@@@@@@@@@@@q@@@@@@@@@@@@@@@@@@@@@@@@@@@@q@@@@@@@@@@q@@@@@@@q@@@@@@@@@@q@@@q@@@@qq##-<XXXXX:X:X:XX:XX:X:X:X:X:X:X:X:X:X:X:X:X:X:X:X:X:X:X:X:X:X:X::XXX9q#q     ###############               ###############               ###############               ###############               ###############               ###############               ###############               ###############               ###############               ###############               ",
"###############               ###############               ###############               ###############               ###############               ###############               ###############               ###############               ###############               ###############               ######9&%%oooooooooooooooo.o.o.o.o.o..o.o...o..o..........O........oo74@#qq@@@@@@@@@q@@q@@@@q@@q@@@@q@@q@@q@@@@@@@@@@@q@@q@@q@@q@@q@@q@@@@@@@q@@@@@@q@@@@@@@q1q@@q@@q@@q@@q@@q@@@@@q@@@@@q@@q@@@@@@@@@@q1@@q@@q@@@@@@@@@@@@@@@@@@q##@>,XXXX:X:X:X:X:X:X:X:X:X:X:X:X:X:X:X:X::X::X:X:X::X::X:X:X:X::XX;##    ###############               ###############               ###############               ###############               ###############               ###############               ###############               ###############               ###############               ###############               ",
"###############               ###############               ###############               ###############               ###############               ###############               ###############               ###############               ###############               ###############               ####4%&%oooooooooooooo.oo.oo.oooo.o.o.o...o.................O...o.95##q @@@@@@@@@@@@@@@@@@@@@@@@@@@@@@@@@@@@@@@@@@@@@@@@@@1q1@@@@@@@@@@@@@@@@@@@@@@@@@@@@@@@@@@@@@@@@@@@@@@@@@@@@@@@@@@@@@@@@@@@@@@@@@q1q@@@@@@@@@@@@@@@@@@q@@@@@@@@qq##-<XXXXX:X:X:X:X:X:X:X:X:X::X::X::X::X:X:X::X::X:X:X::X:X::X:XXX5#q  ###############               ###############               ###############               ###############               ###############               ###############               ###############               ###############               ###############               ###############               ",
"###############               ###############               ###############               ###############               ###############               ###############               ###############               ###############               ###############               ###############               ##@.&%oooo%ooooooooo.ooo.oo.oo..o.o.o..o....o...........O...oo74@#qq@@@@@@@@@@@q@@@@@@@@@q@@@@@@@@@@@@@@@@@@@q@@@q@@@@@@@@q1q@@@@@@@@@@@q@@@@@@@q@@@@@@q@@@@@@@@@@@@@@@@@@@@@@@@q@@@@@@@@@@@@@@q@@@q@@@@@@@@@@@@@q@@@q@@@@@@@@q@@@@@@@@@qq#@>,XXX:X:X:X:X::X:X::X:X:X:X:X:X::X:::X::X::X:::X:::X:X::::XX:*#q###############               ###############               ###############               ###############               ###############               ###############               ###############               ###############               ###############               ###############               ",
"###############               ###############               ###############               ###############               ###############               ###############               ###############               ###############               ###############               ###############              ##7&%%o%o%ooooooooooooooooo.oo.o.o.o..o..o.o...o...........o.6q#q @@@@@@@@@@@@@@@@@@@@@@@@@@@@@@@@@@@@@@@@@@@@1@@@1@@@@@@@@@@@@@@@@@@@@@@@@1q1q1q1@@@@@@1@@@@@@@@@@@@@@@@@@@@@@@@1@@@@@@@q1q1q1q1@@@@@1q1q1q1q1q1q1@@@1@@@@@@@@@@@@@@@@@@@@@qq#q>:XXX:X::X:X:X::X::X::X:::::X::X:X::X:X::X:X::X::X::X:X:::X,q###############               ###############               ###############               ###############               ###############               ###############               ###############               ###############               ###############               ###############               ",
"###############               ###############               ###############               ###############               ###############               ###############               ###############               ###############               ###############               ###############            ##9&&%oooooooooooooooooo.o.o.oo.oo.o.o.o.o................oo9*#q@@@@@@@@@@@@@@@@@@@@@@@@@@@@@@@@@@@@@@@@@@@@@@@@q@@@@@@@@@@@@@@@@@@@@@@@@@@@@@@@@@@@@@@@@@q1q1q1q1q1q1q1q1q1q1q1q1q@@@@@@@@1q1q1q1q1q1@@@@@@@@@@@@@@@@@@@@@@@@@@@@@@@@@@@@@@@@@@@@q#1<XXX:X:::X::X:X::X::X:X:X:X::X:X:::X:X::X:X:X::X:X::X:X:XX>##############               ###############               ###############               ###############               ###############               ###############               ###############               ###############               ###############               ###############               ",
"###############               ###############               ###############               ###############               ###############               ###############               ###############               ###############               ###############               ###############          q#4%&%%o%o%o%oooooooooo.oooooooo.oo.o.o.o....o..o........oo75#q @@@@@@@@@@@@@@@@@@@@@@@@@@@@@@@@@@@@@@@@@@@@@@@@@@1@@@@@@@@@@@@@@@@@@@@@@@@@@@@@@@@@@@@@@@@@@@@@@@@@@@@@@@@@@@@@@@@@@@@@@@@@@@@@@@@@@@@@@@@@@@@@@@@@@@@@@@@@@@@@@@@@@@@@@@@@@@@@@@@@@@qq#3,XXX:X::X:::X::X::X:X::::X:::X:X:::X::X:::X::X::X::X:::XX-############               ###############               ###############               ###############               ###############               ###############               ###############               ###############               ###############               ###############               ",
"###############               ###############               ###############               ###############               ###############               ###############               ###############               ###############               ###############               ###############        q#*.&%%oooo%ooooooooooooooo.o.o.o.o.o.o..o.o.o..........oo.6q#q@@@@@@@@@@@@@@@@@@@@@@@@@@@@@@@@@@@@@@@@@@@@@@@@@@@@@@@@@@@@@@@@@@@@@@@@@@@@@@@@@@@@@@@@@@@@@@@@@@@@@@@@@@@@@@@@@@@@@@@@@@@@@@@@@@@@@@@@@@@@@@@@@@@@@@@@@@@@@@@@@@@@@@@@@@@@@@@@@@@@@@@@@@@@q#q>:XX:X:X:X::X::X:::X:X:::X::::X:::X::X:X::X::X:X::X:X::X:q##########               ###############               ###############               ###############               ###############               ###############               ###############               ###############               ###############               ###############               ",
"###############               ###############               ###############               ###############               ###############               ###############               ###############               ###############               ###############               ###############       ##7&%%%oo%o%ooooo%ooooooooooooooo.oo.o.o.o..o.....o...ooo01#q@@@@@@@@@@@@@@@@@@@@@@@@@@@@1@@@1@@1@@1@@1@@1@@1@@1@@1@@@@1@@@1@@1@@1@@1@@1@@1@@1@@1@@1@@1@@1@@1@@1@@1@@1@@1@@1@@1@@1@@1@@1@@1@@1@@@1@@1@@1@@1@@@1@@1@@1@@1@@1@@@@1@@@1@@1@@1@@1@@@1@@1@@1@@1@@@@@q#1<XXX:::X::X:::X::::::X:::X:::X::::::::X::X::::X:::X:X:X<#########               ###############               ###############               ###############               ###############               ###############               ###############               ###############               ###############               ###############               ",
"###############               ###############               ###############               ###############               ###############               ###############               ###############               ###############               ###############               ###############     q#4%&%%o%o%oooo%ooooooooooo.ooo.o.oo.oo.o.o.o..o.o...oo%75#q @@@@@@@@@@1@@1@@1@@@1@@@1@@1@@@@@@@@@@@@@@@@@@@@@@@@@@@@@@@@@@@@@@@@@@@@@@@@@@@@@@@@@@@@@@@@@@@@@@@@@@@@@@@@@@@@@@@@@@@@@@@@@@@@@@@@@@@@@@@@@@@@@@@@@@@@@@@@@@@@@@@@@@@@@@@@@@@@@@@@@@@@@@@@@@@@@1@@@@qq#3,XX:::::X::::X:X:X::X:::X:::X:X:X::::X::X:::X:X::::XXX-#######               ###############               ###############               ###############               ###############               ###############               ###############               ###############               ###############               ###############               ",
"               ###############               ###############               ###############               ###############               ###############               ###############               ###############               ###############               ###############               ######O&%o%o%ooo%o%ooo%ooooooooooo.oo.oo.oo.o..o..o....ooo.6qq @@@@@@@@1@@1@@@@@@@@@1@@@1@@@@@@@@@@1@@@@1@@@1@@@@@1@@@@@1@@@1@@@1@@@1@@@@1@@@1@@@@1@@@1@@@@@1@@@@1@@@@@1@@@1@@@@1@@@1@@@@1@@@1@@@@1@@@1@@1@@@1@@@@@1@@@1@@@@@1@@@@1@@1@@1@@1@@@1@@@@@1@@1@@@1@@@@1@@@1@@1@@q#q>:X:X::::X::::::::::X:::X::::::::X::::::X:::::X:X::::,q#    ###############               ###############               ###############               ###############               ###############               ###############               ###############               ###############               ###############               ###############",
"               ###############               ###############               ###############               ###############               ###############               ###############               ###############               ###############               ###############               ####4&&%%%o%o%o%ooo%oooooooooooooooooo.oo.o.o.o.o..o.oo%72#q@@@@@1@1@1@@@@@@1@@1@@@@@@@@@@1@@1@1@1@@@1@@@@1@@@1@1@@@1@1@@@1@@@1@@@1@@@1@@@@1@@@1@@@@1@@@1@1@@@1@@@@1@1@@@1@@@1@@@@1@@@1@@@@1@@@1@@@@1@@@@@@1@@@1@1@@@1@@@1@1@@@1@@@@1q1@@@@@@1@@@1@1@@@@@@1@@@1@@@@1@@@1@@1@1@q#1,X:X::::X::X::X::::X:::X::X:::::X::X:::X:::::::X:X:X4#q  ###############               ###############               ###############               ###############               ###############               ###############               ###############               ###############               ###############               ###############",
"               ###############               ###############               ###############               ###############               ###############               ###############               ###############               ###############               ###############               ##q.&%%o%o%%oo%oo%oooooooooooooo.oo.o.oo.o.o.o.o.o..o%8*q @@@@1@@@@@@@@@@@1@@@@@@@1@@1@@1@@@@@@@@@@@@@@@1@@@@@@@@@@@@@@@@@@@1@@@@@@@@@@@@1@@@@@@@@1@@@@@@@@@@@@@@1@@@@@@@@@@@@@@1@@@@@@@@1@@@@@@@@1@@@1@@1@@@@@@@@@1@@@@@@@@@@@@@@1@@1@@1@@1@@@@@@@@@1@@1@@@1@@@@1@@@@@@@@@@@@1@qq1,X::X::::::::::X::::::::::X:X::::::::::X:X:X::::::X: # ###############               ###############               ###############               ###############               ###############               ###############               ###############               ###############               ###############               ###############",
"               ###############               ###############               ###############               ###############               ###############               ###############               ###############               ###############               ###############              ##9&&%%%o%%o%o%oo%ooo%ooooooooo.ooo.oo.o.o.o.o....oo%8@q@@@@1@@@*@1@@1@*1@@@@1@1@1@@@1@@1@@1@1@@1@1@1@1@@@@1@1@1@1@1@1@1@1@1@@@1@1@1@1@1@1q1@1@1@1@@@1@1@1@1@1@1@1q1@1@1@1@1@1@1@@@1@1@1@1q1@1@1@1@@@1@@@1q1@1@1@1@@@@1@1@1@1@1@1@1q1@@@1q1@@@1@1@1@1@@@1@@1@@@1@1q1@1@1@1@1@1@@@1@qq@<X::X::::X:::::::X::::::::::X:X:X:X::::::::X:X::::X;################               ###############               ###############               ###############               ###############               ###############               ###############               ###############               ###############               ###############",
"               ###############               ###############               ###############               ###############               ###############               ###############               ###############               ###############               ###############            q#1o&%%%o%o%o%o%oo%oo%ooooooooooooooooo.oooo.o.o.oooo0 q@@@1@*@@*@1@@*@*@@@@1@1@@@@@@@1@@@@1@@@@@1@@@@@@@1@1@@1@@@@@@@@@@@@@@@@1@@1@@@1@@@@1@1@@1@@@1@1@@@1@@@@@1@@@1@1@@@1@@@1@@@1@1@@1@@@1@1@@1@@@1@1@@1@1@1@@1@@@1@1@@1@@@1@@@1@@@1@@1@@1@1@1@@@1@@@@1@@1@@1@1@@1@1@@1@@@1@@@1@1@@1@@qq;X:::X:::::::::::X::X:::::::::::::::X::X::::::X::X:q##############               ###############               ###############               ###############               ###############               ###############               ###############               ###############               ###############               ###############",
"               ###############               ###############               ###############               ###############               ###############               ###############               ###############               ###############               ###############           ##8&&%%%o%%o%%ooo%ooo%ooooooooooooo.o.o.oo..o.o.oooo6qq@@@@*@@1@1@@@*@1@@1@1@@@@@1@1@1@@@1@@@@1@1@@@1@1@1@@@@1@@@1@1@1@1@1@1@1@@@1@@@1@@@1@@@@@@1q1@@@@@1@@@1@1@@@1@1@@@@1@@@1@@@1@@@@@1q1@1q1@@1q1@1q1@@1q1@@@1@@@1@@@@1@@@1@@@1@@@1@@1@@1@@@@@@1@1q1@1@@1@@@1q1@@1q1@@1q1@1q1@@@@@1@@@1@@qq;:X:::::X::::::::::::::::::::::X:::::::X::X:::X::X;#############               ###############               ###############               ###############               ###############               ###############               ###############               ###############               ###############               ###############",
"               ###############               ###############               ###############               ###############               ###############               ###############               ###############               ###############               ###############         q#2%&%%%%o%%o%%o%o%oo%oooooooooooo.oooooooo.oo.o.o%o4qq@@@1*@1@*@@*@1@1@@1@*@@1@*1@*@@*@@1@@1@1@@1@@1@@1@@@1@1@@1@1@@1@@1@@1@@1@@1@@1@1@@1@1@1@1@1@1@1@1@1@1@1@@@1@1@@@@1@1@1@1@1@1@1@1@1@1@1@1@@1@1@1@1@1@1@1@1@@1@1@@1@1@1@1@1@1@@1@1@1@@1@1@11@1@@1@1@1@1@@1@1@1@1@1@1@1@1@1@1@11@1@1@1@1@1@qq>:X:::::::::::::::::X:::::::::::::X:::::::::::::X:@###########               ###############               ###############               ###############               ###############               ###############               ###############               ###############               ###############               ###############",
"               ###############               ###############               ###############               ###############               ###############               ###############               ###############               ###############               ###############        q#9&&%%%o%%o%o%o%o%oo%oo%oooooooooooo.o.o.o.o.ooo%o4# @@*@*@@*@@1@*@@*@@*@@*@1@@*@@1@1@1@1@@1@@@1@@@1@@1@@1@@@1@@@@@1@@@1@@1@@1@@1@@1@@@1@@@@1@@1@@@@1@@1@@@@1@@1@@1@@1@1@@@@@1@@@@@@@1@@@1@@@1@1@@@1@@@@1@@@1@@@1@@1@@1@@@@@1@@@1@1@@1@@@1@@@@1@@1@@1@@@@@1@@1@@@1@@@1@@@1@@@1@@@1@@@@@@1@@@1@@1@q#3:X:::::::::::::::::::::X:::::::::::X::X:X::X::XX;##########               ###############               ###############               ###############               ###############               ###############               ###############               ###############               ###############               ###############",
"               ###############               ###############               ###############               ###############               ###############               ###############               ###############               ###############               ###############       # o&%%%%%%%%%o%o%o%oo%ooooooooooooooooooooo.oooo%.5q @***@1@*1@1*@1@*1@1@1@1@1@*@1@1@@*@@1@@*@1@1@1@1@@1@@1@1@1@@11@1@1@1@@1@@1@1@1@1@1@1@1@11@@1@1@11@@1@@1@1@1@1@1@@1@1@@11@1@1@11@11@@11@@1@1@@1@1@@1@1@1@1@@1@1@1@1@1@1@11@1@1@@1@1@1@1@1@11@@1@@1@1@11@1@1@1@1@1@1@@11@@11@@11@@11@11@1@1@@1@@1@@#-:X::::::::::::::::::::::::X:::::::::::::::::::X:#########               ###############               ###############               ###############               ###############               ###############               ###############               ###############               ###############               ###############",
"               ###############               ###############               ###############               ###############               ###############               ###############               ###############               ###############               ###############     q#6&&%%%%o%o%o%%o%ooo%oo%o%oooooooooooo.o.o.oo.o%72q@@**@1@1*@1@*@*@*1@*@**@*@*@1@1@*@1*1@1@*1@*@1@*@1@1@1@1@@1@1@1@@1@1@1@1@1@1@@1@@1@@1@1@1@@@1@1@@1@@1@1@1@1@1@1@1@1@1@1@1@@1@1@1@@1@@1@1@1@1@1@1@1@11@1@1@1@11@1@1@1@1@1@1@@1@1@1@1@1@1@1@1@1@1@1@1@1@1@@1@1@1@1@1@1@11@@11@@11@@11@@1@@1@1@11@11@1@1@q-,:X::::::::::::::::::::::::::::::::::X::X:::::X-#######               ###############               ###############               ###############               ###############               ###############               ###############               ###############               ###############               ###############",
"               ###############               ###############               ###############               ###############               ###############               ###############               ###############               ###############               ###############    ##O=%%%%%%%%%%%o%o%%o%o%oooooooooooooo.oooooo.o%o2q@@**@1@*@*@*@*@*@1@@*@*@1@1@1@*@*@1@*@@*@1@@1@*@1@1@@*@1@@1@1@@1@@1@1@@1@@1@@1@1@@1@@1@1@@@1@1@1@1@1@1@1@1@1@1@@1@@1@1@1@@1@1@@1@@1@1@1@1@@1@1@@1@1@1@@1@@1@@1@@@1@@1@@1@@1@1@1@@1@1@@1@@1@1@@1@@1@1@1@1@1@1@@1@1@1@1@1@@@1@@@1@@@1@@1@1@1@1@1@@1@@1@1@@@@q-::::::::::::::::::::::::::::::::::::::::::X:::,######               ###############               ###############               ###############               ###############               ###############               ###############               ###############               ###############               ###############",
"               ###############               ###############               ###############               ###############               ###############               ###############               ###############               ###############               ###############  q#5&&%%%%%o%%o%o%o%%oo%ooo%oooo%ooooooooooo.o.oo%6q@@*@1@1**1@1*1*1@1**1*1@1@*1@**1@1*1@1@11@1*@1@1@1@1@1*1@*1@1@1@1@1@1@@1@1@1@1@1@1@1@11@1@11@1@1@1@1@1@1@1@1@1@1@1@1@1@1@1@1@1@11@1@1@1@1@1@1@1@1@1@1@1@1@1@1@1@11@1@1@11@1@1@1@1@1@1@11@11@1@11@11@1@1@1@1@1@11@1@1@1@1@111@111@111@11@1@1@1@1@1@1@1@1@11@1@@q>::::::::::::::::::::::::::::::::::::::X:::X:X:@####               ###############               ###############               ###############               ###############               ###############               ###############               ###############               ###############               ###############",
"               ###############               ###############               ###############               ###############               ###############               ###############               ###############               ###############               ############### q#8=&%%%%%%%%%%%%o%%o%%oo%ooo%oooooooooooo.oooo%8  @**1***@1@***@*@**@1*@1@**1@**1@1*@1@**1*@1*@1*1@*1*@*1@1@1@1@1@1@1@1@1@1@1@1@1@1@1*@1@@1@1@1@1@1@1@1@1@1@1@1@1@1@1@1@1@1@1@1@1@1@1@1@1@1@1@1@1@1@1@1@1@1@1@1@1@1@1@1@1@1@1@1@1@1@1@1@1@1@1@1@1@1@1@1@1@1@1@1@1@1@1@1@1@1@1@1@1@1@1@1@1@1@1@1@1@1@1@1@1@1@1@1@1@qq<::::::::::::::::::::::::::::::::::::::::::::X;###               ###############               ###############               ###############               ###############               ###############               ###############               ###############               ###############               ###############",
"               ###############               ###############               ###############               ###############               ###############               ###############               ###############               ###############               ################@o&%%%%%%%%%o%o%o%o%o%oo%o%oooooooooooo.ooooo%.*q@**1@*@1**@1@1@1*1@1*@*1@*1@*1@1@*@1*@1@1@**@1@*@1*@1@1@*@1@1@**@1*@1*@1@1@1@1@1@1@1@*1@1@1@1@1@1@1@1@1@1@1@1@1@1@1@1@1@1@1@1@1@1@1@1@1@1@1@1@1@1@1@1@1@1@1@1@1@1@1@1@1@1@1@1@1@1@1@1@1@1@1@1@1@1@1@1@1@1@1@1@1@1@1@1@1@1@1@1@1@1@1@1@1@1@1@1@1@1@1@11@1@1@1@1@1@11@q1::::::::::::::::::::::::::::::::::::::::::::X:##               ###############               ###############               ###############               ###############               ###############               ###############               ###############               ###############               ###############",
"               ###############               ###############               ###############               ###############               ###############               ###############               ###############               ###############               ###############6&&%%%%%%%%o%%%%o%%%o%oo%oooo%oooooooooooooo%o4q@**1@***1**1****1*@1***1@*1**1@1**1*1@1**1*1@1*1*11@*1@1*1@1*1*1@11@*1@1@1*1@1*@1@1@1@1@1@11@1@1@1@1@1@1@1@1@1@1@1@1@1@11@1@1@1@11@1@1@1@1@11@11@11@11@1@11@11@11@11@11@11@11@11@11@11@11@11@1@1@11@11@1@11@11@11@11@11@11@11@11@11@11@1@11@11@111@111@1@11@11@11@11@11@q3::::::::::::::::::::::::::::::::::::::::::::X3#q             ###############               ###############               ###############               ###############               ###############               ###############               ###############               ###############               ###############",
"###############               ###############               ###############               ###############               ###############               ###############               ###############               ###############               ###############            q#7=&%%%%%%%%%%%%o%%o%o%o%ooo%oooooooooooooooo%0q@**1**1*1**@1**1*1**1*1@1*1**1@*1*@1**1**1@*1@1*@1@**11@*1@1*1@*1@1*1*1@*1*1@1*1@11*1*1*11@1@11@11@11@11@11@11@11@11@11@1@11@111@1@111@1111@1@11@11@11@111@1@1@11@11@11@11@11@11@11@11@11@11@1111@11@1@1111@11@11@11@11@11@11@11@11@11@1111@11@11@1@11@11@11@11@11@11@1@1@1@q;::::::::::::::::::::::::::::::::::::X::::::X<##############               ###############               ###############               ###############               ###############               ###############               ###############               ###############               ###############               ",
"###############               ###############               ###############               ###############               ###############               ###############               ###############               ###############               ###############           # %&%%%%%%%%%o%%%%%o%o%o%o%o%o%oo%ooooooooooo%7@ @*1*@1***@**1@*1@*@1**@*1*@*1@**1**1*@1*@1@*1****1*1@1@*1*1*1@1*1@1*1@1@1@1@*1@1@1@1@1@1@1@1@1*@1@1@1@1@1@1@11@1@1@1@11@11@1@1@1@1@11@@11@@1@11@1@1@1@1@1@@11@11@1@1@1@1@1@1@1@1@1@1@1@1@1@1@1@1@@11@1@11@@1@1@11@1@1@1@1@1@1@11@11@1@1@1@1@11@1@1@11@1@1@11@11@11@1@1@11@11@1q@,::::::::::::::::::::::::::::::::::::::::::X:#############               ###############               ###############               ###############               ###############               ###############               ###############               ###############               ###############               ",
"###############               ###############               ###############               ###############               ###############               ###############               ###############               ###############               ###############         q#5&&%%%%%%%%%%%%o%%o%%o%%oooo%oooooooooooooo%o5q@*1***1**1*1*1**1**1**1*1**1*1*1*1*@1*1*1*1*1*1@11@1*1*1*1@1*@1*1@*1*1@1*1*11*1@1*1*1*1*1@1*1*1*11*111@111@11@1@111@11@1@11@1111@1111@111@111@11@111@111@1111@11@1111@111@1111@111@11111111@1111@111@1111@111111@1@1111111111111@11@1111111@11@111111@111111@11@11@111111@11@1111@q-:::::::::::::::::::::::::::::::::::::::::::X1###########               ###############               ###############               ###############               ###############               ###############               ###############               ###############               ###############               ",
"###############               ###############               ###############               ###############               ###############               ###############               ###############               ###############               ###############        q#9=&%&%%%%%%%%%%%%o%%%o%%o%%o%oo%o%oooooooo%%6q@*1***1***1**1**1**1**1*@1**1**1**1@1*1@*1*@1*1@*1***1@*1@1**1*1*1*1*1@*1*1@1*@1*1*1*1@1@1@11@1@1@1@1@1@1@1@1@1@11@1@1@11@11@11@1@11@1@1@1@1@1@11@1@1@1@1@11@1@11@11@@11@1@11@1@11@11@1@@1@@11@1@11@1@11@1@11@1@1@1111@1@1@@1@1@1@1@11@1@1@1@11@11@1@1@11@1@1@11@11@11@1@1@11@11@1@11@q>::::::::::::::::::::::::::::::::::::::::::X>##########               ###############               ###############               ###############               ###############               ###############               ###############               ###############               ###############               ",
"###############               ###############               ###############               ###############               ###############               ###############               ###############               ###############               ###############       ##.=&%%%%%%%%%%%%o%%%o%o%o%ooo%oo%oooooooooo%8@@****1*1**1**1**1**1**1**1**1*1*1*1**1*1*1**1**1*1*1*11*1*1*1*1*1*1@1*1*11@1*1*11*1@1@1*1*11*1*111*11*11*111*11111@111111@11@11@11@11@11111@11111@11111111@11@111@11@111@1111@1111@11@11111111@1111@1111@1111@1111@11@1@1111111@111111@111111111@11@111111@111111@11@11@111111@11@111@11@@@<:::::::::::::::::::::::::::::::::::::::::X,#########               ###############               ###############               ###############               ###############               ###############               ###############               ###############               ###############               ",
"###############               ###############               ###############               ###############               ###############               ###############               ###############               ###############               ###############      #@%&&%%&%%%%%%%%%%%%o%%%%o%o%%oo%oooooooooo%o2 ***1*1***1*1*1**1**1**1*1*1*1*1**1**1*1**1*1*1*1*1*1*1*1**1*1*1*1*1*1*1*1*1*1*11@1*11*111*11*1@1*1@11@11@1*1@1*1@1*11@1@1@1111@11@11@111@1@111@1@1111@1@1@111111@11@111@1111@1111@11@1111@1@1@1111@1111@1111@1111@11111111@1@1@1111@1@111@1@1@1@1111111@1@1111@1@1111111111@1@111111@11111@1q-:::::::::::::::::::::::::::::::::::::::::::########               ###############               ###############               ###############               ###############               ###############               ###############               ###############               ###############               ",
"###############               ###############               ###############               ###############               ###############               ###############               ###############               ###############               ###############    q#4=&%%%%%%%%%%%%%%o%%%%o%o%o%oo%oo%o%oooo%o&8 @*1*1**1*1****1*1**1**1**1*1**1**1*1*1*1*1*1*1*1*1*1*1*1*1*1*1*1*1*1*1*1*1*1*1*1*1*11*1*1*1@1*111*1*11*1*11*11*111*11@11*111*1@11111111@11111@11111@1@111111@1@1@111111@111@1@11@1@11111@11111111@1111@1111@1@11@1@11@1@11@1111111@111111@111111111@11@111111@111111@1@11@11@1111@11@111@111111@q<::::::::::::::::::::::::::::::::::::::::X:-######               ###############               ###############               ###############               ###############               ###############               ###############               ###############               ###############               ",
"###############               ###############               ###############               ###############               ###############               ###############               ###############               ###############               ###############   q#8=&%%&%&%%%%%%%%%%%%%o%%o%o%%o%o%oooooooo%%4q*1**1**1**1*1*1***1*1*1*1*1**1*1*1*1*1*1*1*1*1*1*1*1*1*1*1*1*1*1*1*11*11*11*11*11*11*1*11*1*111*1*111*1*111@11*11@11*11*11*1@11111@1@1@111@1@11@11@111111@1@1111111@11@1111111111111111@111@1@11@1111@1111@1111111111111111111111@111@11@111111@11@11111111@111111@111111111111111111111111@11@111q3:::::::::::::::::::::::::::::::::::::::::X;#####               ###############               ###############               ###############               ###############               ###############               ###############               ###############               ###############               ",
"###############               ###############               ###############               ###############               ###############               ###############               ###############               ###############               ###############  ##o=&%%&%%%%%%%%%%%%%%%o%%o%%%o%oooo%ooo%o%%.@@*1*2**21*21*2*12*12*1*21*21*1*1*1*1**1*1*1*1*1*1*1*1*1*1*1*1*1*1*11*1*1*1*1*1*11*11*11*11*111*1*11*1*1111*1*11*11*11*1111111111*1*1111111111111111111@11@111111@1111111111@11@111@111@11111111111111@1111@111111@1111@1111@111@11111111111111@11111111@111@11111@11111111@111@111@111@11111111111111@@:::::::::::::::::::::::::::::::::::::::::X:####               ###############               ###############               ###############               ###############               ###############               ###############               ###############               ###############               ",
"###############               ###############               ###############               ###############               ###############               ###############               ###############               ###############               ############### #@%&&%&%%%%%%&%%%%%%%o%%%o%%o%o%o%o%oo%oooo&6q@**2**1*1*1**2*1**1*12*1*1*1**1*21*2*11*1*1*1*1*1*1*1*1*1*11*1*11*11*11*1*1*11*11*1*1*1*11*11*1*11*1111*1*11*1111111*111*1*1@1*1*111*11*11*1@111@111@111111111111111@11@11@1111111111@1111111@111111@11111111111@111@1111@111111111@11111@111111111111111111111111111111@1111111111111111@11@1111111@111q;::::::::::::::::::::::::::::::::::::::::::###               ###############               ###############               ###############               ###############               ###############               ###############               ###############               ###############               ",
"###############               ###############               ###############               ###############               ###############               ###############               ###############               ###############               ################2&&&%%%&%&%%%%%%%%%%%%%%%%o%o%o%oo%ooooo%%o2@*121*12*2*2*121*212*1*1*2*12*121*1*1*12*1*21*21*21*21*121*1*11*1*1*1*1*11*111*11*11*111*1*11*1111*11*1*111*111*1*1*1111*11111111111*11111111111*1111111111@111@11@1111111111111@1111111111@111111@1111111@11111@11111111111111111111111@11111@1111@11@11111111111@1111111111111111111111111111111@1111111@@1::::::::::::::::::::::::::::::::::::::::X:q#               ###############               ###############               ###############               ###############               ###############               ###############               ###############               ###############               ",
"###############               ###############               ###############               ###############               ###############               ###############               ###############               ###############               ###############4=&&%%&%%%%&%%%%%%%%%%%%%o%%o%%o%o%oo%o%o&8 @**2*2*21*121*21*21*12*2*21**121*21*2121*121*1*1211*1121*1*112*1212121*121*11*1*1*1*11*1*1111*11*1*11*1111*111*111111*1*1111*1*1*11*11111*1*11*111111*111@11111111111111111111111111@11111111111111111111111111111111111111111111@111111111111111111111111111111111111111111111111111111111111111111111111111@@<:::::::::::::::::::::::::::::::::::::::::1#              ###############               ###############               ###############               ###############               ###############               ###############               ###############               ###############               ",
"###############               ###############               ###############               ###############               ###############               ###############               ###############               ###############               ##############9=&%&%&%%&%%%%%%%%%%%%o%o%%o%%o%oo%oo%oo%%5 *121*121*212*12**21*21*1121*12*1*1*21*1*12*12121*1*212*1*2121*11*1*1*1121*121*1211211*11211*1*11*1111*11*1*11*111*1*111111*111111111111*111111111111*11111111111111111111111111111111111111111111111111111111111111111111111111111111111111111111111111111111111111111111111111111111111111111111111111111111111q3::::::::::::::::::::::::::::::::::::::::X>#q            ###############               ###############               ###############               ###############               ###############               ###############               ###############               ###############               ",
"###############               ###############               ###############               ###############               ###############               ###############               ###############               ###############               #############7=&&%&%%%&%%%%%%%%%%%%%%%%%o%%o%o%%o%ooo&7@@*2*2*2*2*2*2*2*121*21*212**12*21*2121*212*12*1*1*2121*1*1211*2121212121*1*11*1211*1*1212*1*121121121*11*1111*111*111111*1*111*11*11*11*111*111*111*111111*11111111111111111111111111111111111111111111111111111111111111111111111111111111111111111111111111111111111111111111111111111111111111111111111111111111@@,::::::::::::::::::::::::::::::::::::::::9#q           ###############               ###############               ###############               ###############               ###############               ###############               ###############               ###############               ",
"###############               ###############               ###############               ###############               ###############               ###############               ###############               ###############               ############.=&&%&%&%&%%&%%%%%%%%%%%%%o%%o%o%o%ooo%%&6 **212*1*1*12121*21*21*21*212121*1212*121*21211212121*1*12121*211*1*1*1*121121211*121111*1111211*11*11*12111211121111*1*111111*11111111111111111111111111111111*111*11111111@1111@1111111111111111111111111111111111111111111111111111111111111111111111111111111111111111111111111111111111111111111111111111111111111q>::::::::::::::::::::::::::::::::::::::::,#q          ###############               ###############               ###############               ###############               ###############               ###############               ###############               ###############               ",
"               ###############               ###############               ###############               ###############               ###############               ###############               ###############               ###############         #q%=&&%&%%%%%%%%%%&%%%%%%%%o%%o%%o%o%o%o%%o2@*212*2122222*2*12*212121221*21*21212*12*121*1*2*12*1212121*1211*121212121*121*12121*12121121*11211211211121*11211*121211121121111*11211*11*1111*1111*1111111111111111111111111111111111111111111111111111111111111111111111111111111111111111111111111111111111111111111111111111111111111111111111111111111111111111111@1:::::::::::::::::::::::::::::::::::::::::###########               ###############               ###############               ###############               ###############               ###############               ###############               ###############               ###############",
"               ###############               ###############               ###############               ###############               ###############               ###############               ###############               ###############        #*&&&%&%%&%&%&%%&%%%%%%%%%%%%%%%o%%o%ooo%&8 *212*212*21*1212121212*2*21*212*212*2121212122121212121*212121*212121*121121211211*12121*1211211211211211211121111211111121112112111211111211112111111111*111111111111111111111111111111111111111111111111111111111111111111111111111111111111111111111111111111111111111111111111111111111111111111111111111111111111111111q<::::::::::::::::::::::::::::::::::::::X:q#########               ###############               ###############               ###############               ###############               ###############               ###############               ###############               ###############",
"               ###############               ###############               ###############               ###############               ###############               ###############               ###############               ###############       #5=&&%&%&&%&%%%&%%%%%%%%%%%o%%%o%%o%o%%o%&6 *2*212*21212212*2*22*212121221212121212121212*1212121*12121*1212121*1212121211121121211111211211211*11211111211212111121211211111112111112111121111112112111111121111111111111111111111111111111111111111111111111111111111111111111111111111111111111111111111111111111111111111111111111111111111111111111111111111111111111@>::::::::::::::::::::::::::::::::::::::::1########               ###############               ###############               ###############               ###############               ###############               ###############               ###############               ###############",
"               ###############               ###############               ###############               ###############               ###############               ###############               ###############               ###############     q#4=&&&%&%&%%%&%%%%%%%%%%%%%%%%o%%o%o%%oo%&5@*21222122*22*22121212122*212*12*2121212*21212121212121221212121212121211211212*2121121212121211211212121121211121112121111111121121111211111121111121111111211211111211111111111111111111111111111111111111111111111111111111111111111111111111111111111111111111111111111111111111111111111111111111111111111111111111111111111@3:::::::::::::::::::::::::::::::::::::::X-#######               ###############               ###############               ###############               ###############               ###############               ###############               ###############               ###############",
"               ###############               ###############               ###############               ###############               ###############               ###############               ###############               ###############     #6=&%&%&%&%%&%%&%&%%&%%%%%%%%%%%o%%%o%o%%%2@2122212212212121222122212122122212122*21212*2121212*212112121212121212121212121121121211212121121211211121211212111211111212121121111211112121111121111112111111111111112112111211111111111111111111111111111111111111111111111111111111111111111111111111111111111111111111111111111111111111111111111111111111111111111111111111@-:::::::::::::::::::::::::::::::::::::::X-######               ###############               ###############               ###############               ###############               ###############               ###############               ###############               ###############",
"               ###############               ###############               ###############               ###############               ###############               ###############               ###############               ###############   q#6=&&&%&%&%&%&%%%%%%%%%%%%%%%%o%%%o%o%%%%o**222*212*2221222221212121222122121222121212212121212121212121212121211212121212121212121211211121121211211111211211211212121111121112111121211111211112112111-1211121111111111111111-111-11111111111111111111111111111111111111111111111111111111111111111111111111111111111111111111111111111111111111111111111111111111111111111111@1:::::::::::::::::::::::::::::::::::::::X3#####               ###############               ###############               ###############               ###############               ###############               ###############               ###############               ###############",
"               ###############               ###############               ###############               ###############               ###############               ###############               ###############               ###############  q#9=&&%&&%&%&%&%%%&%&%%%%%%%%%%%%%o%%%o%o&7@*22121222212122212122222221212122122121221221212221221212212212122121212121212112112121211212121212121121212211211211121112112121112112121-111-121-121-11-11-1111121-11-21-11-11-11-111-1111-1-11-1-11-11-11-11-11-11-11-11-11-11-11-11-11-11-11-11-11-11-11-11-11-11-11-11-11-11-11-11-11-11-11-11-11-11-11-11-11-11-11-11-1-1-11-11111@,::::::::::::::::::::::::::::::::::::::X>####               ###############               ###############               ###############               ###############               ###############               ###############               ###############               ###############",
"               ###############               ###############               ###############               ###############               ###############               ###############               ###############               ############### q#8=&&&&%&%&%&%%&%&%%%%%%%%%%%%%o%%%o%o%%&8@*2222222122222212222212121222222122122122122122212122122121212122121212212122121212212121212121212112121-1211-21121-2121-21-121-1-21-121-1121-1211111-1121112112-1-1111211112112111-1121112111111-1111-11111-11111111111111111111111111111111111-11111111111111111111111111111111111111111111111111111111111111111111111-111111111-11-1111@<::::::::::::::::::::::::::::::::::::::X;###               ###############               ###############               ###############               ###############               ###############               ###############               ###############               ###############",
"               ###############               ###############               ###############               ###############               ###############               ###############               ###############               ###############q#7=&&&%&%&%&%&%&%%%&%%%&%%%%%%%%%%%%%o%%&6@*2221221222212212212122122222121221222122122122121212122121212121212121212121121212121-121-2121-121-211-121212112-1211-1211121-11211121-112-11211-1-2121-112-11-11111-1-11-1-11-11-111111-11-1-1-1111-11111-11111-1-1-1-1-1-1-1-1-1-1-1-1-1-1-1-11111-1-1-1-1-1-1-1-1-1-1-1-1-1-1-1-1-1-1-1-1-1-1-1-1-1-1-1-1-1-1-1-1-1-1111-1-11-1111111111@>::::::::::::::::::::::::::::::::::::::X;##               ###############               ###############               ###############               ###############               ###############               ###############               ###############               ###############",
"               ###############               ###############               ###############               ###############               ###############               ###############               ###############               ################7=&&%&&&%&&%&%&%%&%%%&%%%%%%%%%o%%o%o%%&4@2221222222122221222222222212122221221212212212122122212122-222-212-212-212-212212121212121212-12121212-21212-1212121-12121-2112121-12-112121121-121211-1112-111211-1211211-1111-11-121-1-111-111111-1111-1-111-1-111111111111111111111111111111111-1-111111111111111111111111111111111111111111111111111111111111111111111-111111-11-1-1-1-111@3::::::::::::::::::::::::::::::::::::::X<#q              ###############               ###############               ###############               ###############               ###############               ###############               ###############               ###############",
"               ###############               ###############               ###############               ###############               ###############               ###############               ###############               ###############.=&&&&%&%&%&%&%%&%%%&%%%%%%%%%%%%%%%%%%%2*22222222122221222222122121222222122-22222-222-2212-212-22-212121221212212-212-2-2-212-2-212-2122-212-211212-121-2-1-12121-121-2-1-12-12121-1-1-121-11-2112-11-1-1-121-1-1-121-1-11211-1211-1-11-1-1-11-1-111-1-111-1-1-1-1-1-1-1-1-1-1-1-1-1-1-1-1-111-1-1-1-1-1-1-1-1-1-1-1-1-1-1-1-1-1-1-1-1-1-1-1-1-1-1-1-1-1-1-1-1-1-1-11-1-1-11-111111111-1@-::::::::::::::::::::::::::::::::::::::X<#q             ###############               ###############               ###############               ###############               ###############               ###############               ###############               ###############",
"               ###############               ###############               ###############               ###############               ###############               ###############               ###############               ##############.=&&&%&&&%&%&%%&%%%&%%%%%%%%%%%%%%o%o%%%**2221222222222222-221222-222-212-222122-212212122-2222-2212122-212-2-22-21221212121212-1212-212-2121-211-21-2121-212121-2-121-2112121121-1-1212121-112-11-211-121211-111-111-11211-1-1-11-1-111-112111-11-11-1111-1-111-111-111-111-111-111-111-111-11-1111-111-111-111-111-11111-11111-11111-11111-11111-11111-11111-11111-11-111-11-11-1-1-1-111-11:::::::::::::::::::::::::::::::::::::::,#q            ###############               ###############               ###############               ###############               ###############               ###############               ###############               ###############",
"               ###############               ###############               ###############               ###############               ###############               ###############               ###############               #############o=&&&&&%&%&%&%&&%&%&%%%&%%%%%%%%o%%%%%&7@*222222222-22-22-222222-222-2222222-2221222-222-2122-2122-22-2122-2221212-212-22-212-2122-2121-2112-221-22-21-21-2121-2-2112-121-21-1-1-1212-1-1-1-12-112-11-121-1-1-21-121-21-1-1-11-11-1-11-1-11-1-1-1-11-1-1-1-1-11-11-1-1-1-1-1-1-1-1-1-11-11-1-11-1-1-11-1-11-11-1-11-11-1-1-11-1-11-1-1-11-1-11-1-1-11-1-11-1-1-11-1-11-11-1-11-11-1-1-11-1-1111@,::::::::::::::::::::::::::::::::::::::,#q           ###############               ###############               ###############               ###############               ###############               ###############               ###############               ###############",
"               ###############               ###############               ###############               ###############               ###############               ###############               ###############               ############o=&&&%&&&&&%&%&%%&%%%%&%%%%%%%%%%%%%o%&8@*2222-22-22222222222-22222222212-21222-22-2122-2222-2212-2122212-21212-221212-21212-212-2121-21212-1121212121212-21-121121-212-121-21212-1-12121-2121-1-1-12-1-1-121-11-21-11-121-121-12-111-211-1-11-111-1-111-11-11-1-1-11111-111-111-111-1-1-1-11-1-111-1-11-11-1-11-11-1-11-1-11-1-1-11-1-11-1-1-11-1-11-1-1-11-1-11-1-1-11-11-11-11-111-1-11-1-1111@<::::::::::::::::::::::::::::::::::::::,#q          ###############               ###############               ###############               ###############               ###############               ###############               ###############               ###############",
"               ###############               ###############               ###############               ###############               ###############               ###############               ###############               ###########.=&&&&&&%&%&%&%&%&%%&%&%%%%%%%%%%%%%%%&8@2222222222222-22-22-222-22-212-222222-22-222221222-2212-22222-2-21222-212-2-2-212-212-2-212-22-2-2-2-21-2-2-1-2-121212-2-2-12-121-21-2-1-212-1-1-21-1-12121-1-1212-1-12-1-1-1-1-1-1-1-1-11-2-1-1-121-1-1-1-11-1-11-1-1-11-11--1-1-1-1-1-1-1-1-11-11-1-11-1-11-1-11-1-11-1-1-11-1-11-1-11-11-1-11-11-11-1-11-1-11-11-1-11-11-11-1-1-11-11-1-1-1-11-1-11--11@<::::::::::::::::::::::::::::::::::::::,#q         ###############               ###############               ###############               ###############               ###############               ###############               ###############               ###############",
"###############               ###############               ###############               ###############               ###############               ###############               ###############               ###############        q#.=&&&&%&&&%&%&&%&%%&%%%%%&%%%%%%%%%%o%&8@222-22-222-2222222222222222222222-2-2222222-2-22-2-22-222-2-2-2222-2-22-2212222-2-2-2-212-2-21-212-212-2-21-22-212--2-1-12-2-12--21-21-2-1-2-12-21-12-2-1--21-21--11-21-121-21-12-12-1-1-1-11-11-1-1-1-1-1-1-1-1-1-1-11-1-1-1-1-1-1-1-1-1-1-11-1-1-1-11-1-1-1-1-1-1-1-1-1-1-1-1-11-1-1-1-1-1-11-1-1-1-1-11-1-1-1-1-1-11-1-1-1-1-11-1-1-1-1-1-11-1-1-1-1-1-11@<::::::::::::::::::::::::::::::::::::::<##########               ###############               ###############               ###############               ###############               ###############               ###############               ###############               ",
"###############               ###############               ###############               ###############               ###############               ###############               ###############               ###############       q#7=&&&&&&&%&&&&%&%&%&%%&%&%%%%%%%%%%%%%&7@222222222-222-222-22-22-22-2-2-2-222222-2-2-222-2222-222-2122122-2-222-22-2-2-1-222122122-212-222-12-2-212-12-12-2-1212-22-1212-21-2-1-2112-12-1-1-2-1-11-211-11-21-21-1-1-1-1-1-1-1-1-121-1-1-1-1-1-1-1-21-1-1-1-1-1-1-1-1-1-1-1-1-1-11-11-1-1-1-1-1-1-1-1-1-1-1-1-1-1-1-1-11-1-1-1-1-1-1-1-1-1-1-1-1-1-1-1-1-1-1-1-1-1-1-1-1-1-1-1-1-1-1-1-1-1-1-11-1-11-1-1@,:::::::::::::::::::::::::::::::::::::X<#########               ###############               ###############               ###############               ###############               ###############               ###############               ###############               ",
"###############               ###############               ###############               ###############               ###############               ###############               ###############               ###############      q#7=&&&&&%&&&%&%&%&%&%%&%%%%%%&%%%%%%%%%&7@2222522522222222-222222-22222222222-2-2-222222-22-2-222-22-2-2-2-222-2-2122-22-22-2-2-2-2-2-2-2-1-22-212-2-22-2-21-2-2--2-12-2-1-12-12-2--2-12-12-21-2-2-2-1-2-2-1-1-1-2-1-1-2-1-2-1-1-1--1-2-1-2-1-1-1-1-1-1-1-1-1-1-1-1-1-1-1-1-1-1-1-1-1-1-1-1-1--1-1-1-1-1-1-1-1-1-1-1-1-1-1-1-1-1-1-1-1-1-1-1-1-1-1-1-1-1-1-1-1-1-1-1-1-1-1-1-1-1-1-1-1-1-1-1-1-1-1-1-1-1-1@,::::::::::::::::::::::::::::::::::::::;########               ###############               ###############               ###############               ###############               ###############               ###############               ###############               ",
"###############               ###############               ###############               ###############               ###############               ###############               ###############               ###############      #8=&&&&&&&%&%&&&%&%&%&%%&%&%&%%%%%%%%%%%o@222522-2222525252252-252222-2-252-252222222-2-22-222222-22-2222222-2-2-22-2-2-22-2-2-2-2-2-22-212-22-2-2-2-2-2-12-22-2-212-2-1-2-2-2-2-1-21-2--2-1-2-1-1-1-1-2-1-2-1-2-1-1-2-1-1-1-1-2-1-21-1-1-1-1-2-1-1-1-1-1-1-1-1-1-1-1-1-1-1-1-1-1-1-1-1-1-1-1-11-1-1-1-1-1-1-1-1-1-1-1-1-1-1-1-1-1-1-1-1-1-1-1-1-1-1-1-1-1-1-1-1-1-1-1-1-1-1-1-1-1-1-1-1-1-1-1-1-1-1-1-1-1-1@,:::::::::::::::::::::::::::::::::::::X;#######               ###############               ###############               ###############               ###############               ###############               ###############               ###############               ",
"###############               ###############               ###############               ###############               ###############               ###############               ###############               ###############    q#9=&&&&&&&&&&&%&%&%&%%&%&%%%%%%%%%%%%%%&o@22222-2252-2222-2222222-25252222-222-2-2-2-2222-22-2-2-22-22-2-2-2-222-22-2-22-2-222-22-22-2-22-2-2-2-2-2-21-2-2-2-2-12-2-2-12-2-2-1-2-2-2-1-121-2-2-12-2-2-2-1-2-1-2-1-2-2-1-2-12-1-1-1-1--2-1-1-1-1-1-1-1-1-1-1-1-1-1-1-1-1-1-1-1-1-1-1--1--1-1-1-1--1-1-1-1-1-1-1-1-1-1-1-1-1--1-1-1-1-1-1-1-1--1-1-1-1-1-1-1-1-1-1-1-1-1-1-1-1-1-1-1-1-1-1-1-1-1-1--1--1-1-1-1-1@::::::::::::::::::::::::::::::::::::::X>######               ###############               ###############               ###############               ###############               ###############               ###############               ###############               ",
"###############               ###############               ###############               ###############               ###############               ###############               ###############               ###############    #0$&&&&&&&&%&%&&&&%&%&&%%%%&%&%%%%%%%%%%o*2222522522225252252-252522222-2522-25222252252-522522-22-22-2-22-2-22-22-2-22-2-22-2-22-2-2-22--2-2-2-12-2-2-2-2-2-2-2-2-1-2-2-2-21-2-1-2-1-2-2--2-1-2--2-1-1-2-1-2-1-1-1-1-2-1-1--1-2-1-2--1-1--1--1--1--2---1---1---1---1---1--1--1--1--1-1-1--1--1--1-1---1--1--1--1--1--1--1--1-1--1--1--1--1--1--1--1--1--1--1--1--1--1--1--1--1--1--1--1--1--1---1-1-1-1--1--1-1@::::::::::::::::::::::::::::::::::::::X3#####               ###############               ###############               ###############               ###############               ###############               ###############               ###############               ",
"###############               ###############               ###############               ###############               ###############               ###############               ###############               ###############   #6$&&&&&&&%&&&&%&%&%&%&%%&%%%%%%%%%%%%%&%*225252252252522-222522-2252-2522-2522-25-22-22-22-2-25252-252252-22-2-2-22-2-22-2-2-2-2-2-2-2-2-2-22-2-2-2-2-2-2-2-2-2-2-2-2-2--2--2-2-2-1-2-2--2-1-2-1-2-1-2--1--1--2-2--2--1-2--2---1--1-1--1-2--2--1--1-1-1--1-1-1-1-1-1--1--1--1--1--1--1--1-1--1--1---1-1--1--1--1--1--1--1--1---1--1--1--1--1-1-1--1--1--1--1--1--1--1--1--1--1--1--1--1--1--1-1-1---1---1--1--1-11::::::::::::::::::::::::::::::::::::::X-####               ###############               ###############               ###############               ###############               ###############               ###############               ###############               ",
"###############               ###############               ###############               ###############               ###############               ###############               ###############               ###############  #4$&&&&&&&&&&&%&&&&%&%&%%&%%&%&%%&%%%%%&%*2222222522522225225225252-22522-2522252-225252-2522522-2-22-2-2-22-252-252-22-2-22-2-2-2-22-22-2-22-2-2-2-2-2-2-2-2-2-2-2-2-2-2-2-2-2-2-2-2-2--21-2-2--2-1-2--2-2-2-2-1---1-1-2---1-1-2-1-2--12---1-1-1-1-2--1--1-2---1-----1-1-1--1--1--1--1--1----1--1-1-1-1--1--1--1--1--1--1--1-1-1--1--1--1--1-1----1--1--1--1--1--1--1--1--1--1--1--1--1--1--1---1--1--1-1-1--1--1-11::::::::::::::::::::::::::::::::::::::X-###               ###############               ###############               ###############               ###############               ###############               ###############               ###############               ",
"###############               ###############               ###############               ###############               ###############               ###############               ###############               ############### #5$=&&&&&&&&&%&&&%&%&%&%&%&%&%%%%%%%%%%&%22252525225225252252-2522252522-5222-522252-22-252-2-2-2252-52252-252-2-2-2-25-252-252-22-2-2-2-22-2-2-2-2-2-2-2-2-2-2--2--2-2--2-2-1--2--2--2-2---2---2--2---2-1--1---2-2-2---2-1-2---1---2--2--1-1-----2--1---1---1-1--1-1-1-----1--1--1--1--1--1-1--1----1---1--1--1--1--1--1--1----1--1--1--1--1---1-1--1--1--1--1--1--1--1--1--1--1--1--1--1--1--1-1--1-1------1--1--1-11::::::::::::::::::::::::::::::::::::::X1##               ###############               ###############               ###############               ###############               ###############               ###############               ###############               ",
"###############               ###############               ###############               ###############               ###############               ###############               ###############               ################*==&&&&&&&&%&&&%&&%&%&%&%&%%%&%%&%%%%%&%22252252-2522522-2522522-2522-25222-52225-252-252225225252-22-25152-2-2252252-22-2-2-2-25-2-252-2-22-2-2-2-2-2-2-2-2-2-2-2-2-2--2-2--2-2--2-2-1--2-2--2-1-2--2-1--2-2-21---1--2-1----1-2--2--1--1--2--21-1--1--1--1-1---1---1---1-1--1--1--1--1--1--1--1--1-1---1--1--1--1--1--1--1--1-1--1--1--1--1--1--1--1--1--1--1--1--1--1--1--1--1--1--1--1--1--1----1---1-1-1--1--1--1-11:::::::::::::::::::::::::::::::::::::::q#               ###############               ###############               ###############               ###############               ###############               ###############               ###############               ",
"###############               ###############               ###############               ###############               ###############               ###############               ###############               ###############q==&&&&&&&&&&&&%&&%&&%&%&%%&%%%%&%%%%%&&22222525252252-5252252525252-5252525225-22252252-2-52-2-2-25252-2-252-25-2-2-25-252-25-2-225-2-2-2--2-2-2-2-2-2-2--2--2-2-2--2-2-2--2-2-2-2---2-2--2-2--2-2--2-2-2-------2-2--2---2-2---1-1--1--1--1--1-----1--1--2----1---1---1----1---1-----1-----1--1--1----1---1--1--1--1--1--1--1----1-----1-----1-----1-----1-----1-----1-----1-----1-----1-----1--1----1------1---1-----111:::::::::::::::::::::::::::::::::::::::#q              ###############               ###############               ###############               ###############               ###############               ###############               ###############               ",
"###############               ###############               ###############               ###############               ###############               ###############               ###############               ###############&=&&&&&&&&&&&%&&&%&&%&%&%&%%&%&%%%%%%&&2*5255252525252522525252525252252-252-52255-25-25252-2525252-2-25252-252-252-52-2-2-2-252-22-2-2-5-25-25-52-5-2-5-2-2-2-2--2-2--2--2-2--2---2-2-2--2----2----2------2-2-2----2---2--1---2---2---2--------2-1----------1---1---1----1---1---1-1---1-1----------1---1----------------------1---1-1---1-1---1-1-----1-----1-----1---1-1---1-1---1-1---1-1-------1----1-1---1---1-1---1-:::::::::::::::::::::::::::::::::::::::#q             ###############               ###############               ###############               ###############               ###############               ###############               ###############               ",
"###############               ###############               ###############               ###############               ###############               ###############               ###############               ##############o=&&&&&&&&&&&&&&%&&%&%&%&%&%&%%%%%%%%&&5225222522525252525252-2522-2525252525225-2252-252-2525-2-2-5252-2-252-252-2-22-525-252-2-52-52-52-2-2-2-2--2-2-2-2-5-2-5-2-5-2-2-2--2--2-2-2-----2--2-2--2-2--2-2-2----2--2---1------2-1------2---2-1-2------2-1-2-1----1---1---1----1---------1-----1-1--1--1--1---1--1--1--1--1--1--1----------------------1-1---1-1---1-1---------------------------1-1-1---1------1------------1-:::::::::::::::::::::::::::::::::::::X,#q            ###############               ###############               ###############               ###############               ###############               ###############               ###############               ",
"###############               ###############               ###############               ###############               ###############               ###############               ###############               #############7$&&&&&&&&&&&&&%&&&%&&%&%&%&%%%%&%&%%%=6*2252552525252525252525252525252-252-252525-252525252-252525252-5252-52-5-2525-52-252-5-2-2--2-2-2-25-2-5-2-52-5-2--25-2-2--2-2-5--2-5-2-----2-2-2--2---2--2----2-----2--2---2--2-2-2------2-1-----------1--1----------1------------1-----1--1-----1--------------------------------------1--1---1--1---1--1---------------------1--1--1---1--1---1--1--------------1------1--1--1-1-1>::::::::::::::::::::::::::::::::::::::9#            ###############               ###############               ###############               ###############               ###############               ###############               ###############               ",
"###############               ###############               ###############               ###############               ###############               ###############               ###############               ############9$=&&=&&&&&&&%&&&&%&&%&%&%&%%&%&%%%%%%&8*25252525252525252525252525252525252552525252525-25-25252-52-2-525-252-52-25-52-2-5-2-52-525-525-5-5-25-2-25-2-52-52--2-5-25--2--2-5-2-2-52-2-5--2--2--2---2--2----2-2------2----------2--2-----2--2--2-------------1-------2---1--------1----------------1--1-----1---1---1---1---1-------------------------------1-----1-----1------------------------------1---1-------1------------1<::::::::::::::::::::::::::::::::::::::6#           ###############               ###############               ###############               ###############               ###############               ###############               ###############               ",
"               ###############               ###############               ###############               ###############               ###############               ###############               ###############          #4$=&&&&&&&&&&&&&&%&&&%&&%&%&%&%%%%&%%%&%*2525252525252525252525252525252525252252525252-25252525-52-52552-25-2-525252-2-252-252-52-2-52-2-22-25-2-5-25-2--2--25-2-2--2-5-5-2-2---2---5--25--5--5--2--2---2-2-----2-2----2--2--2--------2---------2---2--2-1-----2------------1-------------1----1---------1--------------------1--1------1------1--------1--------------------------------1---------1-----------1---------------11::::::::::::::::::::::::::::::::::::::X1###########               ###############               ###############               ###############               ###############               ###############               ###############               ###############",
"               ###############               ###############               ###############               ###############               ###############               ###############               ###############         #2$=&&&&&&&&&&&&&&&&%&&&%&%&%%&%&%&%%%%&&225252552525525252525252525-525-525-525-525-25-5525-25-5252525-2-5252552-5-5-5255-5-52-52-525-2-55-5-5-2-52-2--5-52-52--5-5-52-5-2-2-5-5-5-2-2-2---2-2-2--5--5--2-----2-2-----2----------2--2-------2-----------------------1-----------------1---1------------------------------------------------------------------------------------------1-----------1---------------------1---1------11:::::::::::::::::::::::::::::::::::::::q##########               ###############               ###############               ###############               ###############               ###############               ###############               ###############",
"               ###############               ###############               ###############               ###############               ###############               ###############               ###############        #@==&&&=&&&&&&&&&&&%&&%&%&%&%&&%%%%%&%%&&425525525255252552552552555252525252525525-5255252-52552-52-5-25525-5-5-25-252-5-52-25-52-5-5-5-52-52-25-5-5-5-52-2-5-5-5-2-2--5-2--5-2--2--5-5-5-2-5--5--2--2----5-5-5---5--5---2--2--2-------2--2-----2-----------------------------------------------------------------------------------------------------------------------------------------------------------------------------------13:::::::::::::::::::::::::::::::::::::::##########               ###############               ###############               ###############               ###############               ###############               ###############               ###############",
"               ###############               ###############               ###############               ###############               ###############               ###############               ###############       q#&=&&=&&&&&&&&&&&%&&&&&&&%&%&%%&%&%%%%&&0*2525255255255252552525525255255255255252525252525525-255255255-25252525525-25252-525-25-5-2-252-5-25-5-2-2-52-2-5-5-2-2-5-5-5-2-5-5--5-5--2---2--5--2---5--5--5-2---2-----2------5------5---------------------2-------2---------------------------------------------------------------------------------------------------------------------------------------------------------------------1;:::::::::::::::::::::::::::::::::::::X:#########               ###############               ###############               ###############               ###############               ###############               ###############               ###############",
"               ###############               ###############               ###############               ###############               ###############               ###############               ###############      q#%=&=&&&&&&&&&&&&&&&&&%&%&%&&%&%&%%&%&%&7*2525555255255255525255525255255255-52525-55255-525-52552-52-52525-5-5-5-5-255-5-525-25-5-5255-5-52-5-5-25-525-5-5-52-5-5-2-5-2-5-2--25--2-5-5-5-5---5--5--2--5-2---5---5-5----2-5---5--5-----5---5----------2---------------------------------------------------------------------------------------------------------------------------------------------------------------------------------1,:::::::::::::::::::::::::::::::::::::::########               ###############               ###############               ###############               ###############               ###############               ###############               ###############",
"               ###############               ###############               ###############               ###############               ###############               ###############               ###############      #7$=&&&=&&=&&&&&&&&&%&%&&&%&%&%&%%&%%%%&%225552525525525525255525255525525525255-52525-52525525-52552552-55-2525252-55-25-25-55-5252-5--5-25-52-25-5-5--25-2-5-5-2-5-5-2-5-5-5-5-25-5-2--2--52--5-2-5--2---5---2---2--5-5--------2---2--------5--2------------2--------------------------------------------------------------------------------------------------------------------------------------------------------------------------11::::::::::::::::::::::::::::::::::::::X;#######               ###############               ###############               ###############               ###############               ###############               ###############               ###############",
"               ###############               ###############               ###############               ###############               ###############               ###############               ###############     #4$=&&=&&&&&&&&&&&&%&&&&&&%&&%&%&%&%%&%&&5255255255255255255552552552552552552552525552552555-525-525-5-55-52555-5-5252-5255-5-25-5-5-52525-5-5-5-5-5-5-5-5-5-5-2-5-5-2-5-5--2-5----5---5-5-5---5---5--5--5--5-5--5--5-----5--5--5------5--5--------5--5-------------------------------------------------------------------------------------------------------------------------------------------------------------------------------------::::::::::::::::::::::::::::::::::::::X-######               ###############               ###############               ###############               ###############               ###############               ###############               ###############",
"               ###############               ###############               ###############               ###############               ###############               ###############               ###############    #@$=&=&&&&&&&&&&&&&&&&&%&%&&%&%&%%&%%&%&&62552555552552552552525525525525525525525555255255-25525555-552525255-25255-55-55-525255-525-5-5-5-525-525-525-5-5-5-5-5-5-5-5-5-5-5-5--55-5-25--5---5-5-25--5--5--5----5---5--5--------5--5-5-------5---5-------5---5------------------------------------------------------------------------------------------------------------------------------------------------------------------------------1>:::::::::::::::::::::::::::::::::::::::######               ###############               ###############               ###############               ###############               ###############               ###############               ###############",
"               ###############               ###############               ###############               ###############               ###############               ###############               ###############   q#&=&=&&&=&&=&&&&&&&&&%&&&&&%&%&%&&%&%%%&8*5255552525555555255552555555552555-5555525255-552555-55252525-555-525-55-25525525-5-5-525-52525-525-5-5-5-5-5-5-5-25-2-5-52-5-5-2-5-5-5--5--5--5--5-5--5--5--5--5---5-5---5------5-5-5--------5--5----------------------5---------------------------------------------------------------------------------------------------------------------------------------------------------------------------1<:::::::::::::::::::::::::::::::::::::X:#####               ###############               ###############               ###############               ###############               ###############               ###############               ###############",
"               ###############               ###############               ###############               ###############               ###############               ###############               ###############  q#o==&&=&=&&&&&&&&&&&&&&&%&%&&%&%&%%%%&%&%*555525555552525555525555252525555255252555555255-55255255-5555525-555552555-5-5-55-55-5-5-5-5-5-5-5-525-5-52-5-525-5-55-5-5-5-5-5-5-5-5-25-5--5-5-5--5-5--5--5--5--5-----5---5-5-5------5--5--------5--5--5--5----5---------5--5----------------------------------------------------------------------------------------------------------------------------------------------------------------------1:::::::::::::::::::::::::::::::::::::::,####               ###############               ###############               ###############               ###############               ###############               ###############               ###############",
"               ###############               ###############               ###############               ###############               ###############               ###############               ###############  #8$=&&=&&&&&&&&&&&&&&%&&&&&&%&&%&%&%&%%&&225525555252555552525555255555555255255555-525-5525555255-555-525-55525-5-5-55-5255-525525552555-55-55-5-525-55-5-5-5-5--5-5-5-5-5-5-5-5--5--5-5-5--5-5----5--5--5--5--5-5--5-5------5-5---5---5--5-5-------------5------3--3---------3---3----3----3---3---3-------------------------------------------------------------------------------------------------------------------------------------3------1::::::::::::::::::::::::::::::::::::::X>###               ###############               ###############               ###############               ###############               ###############               ###############               ###############",
"               ###############               ###############               ###############               ###############               ###############               ###############               ############### #5$=&=&&=&&=&&&&&&&&&&&&%&%&&&%&%&%&%&%&&425555525555555255555525555255255255555255255555555525555552555555525-55525552555-5-55-5-5-5-5-5-525-5-55-5-5-5-5-5-5-5-55-5-5-5-5-5--5-5-5-5-5-5--5--5-5-5-5-5--5--5--5--5-----5-5------5----5--------5--5-3--3--3--3-3-5-----3--3-3----3---3----3----3-------3-3--3--3--3--3--3--3--3--3--3--3--3---3---3--3--3--3---3------3-----3------3---3--3--3--3--3---3--3--3--3--3--3--3--3--3-3-3-3--3----3-----3::::::::::::::::::::::::::::::::::::::X1##               ###############               ###############               ###############               ###############               ###############               ###############               ###############",
"               ###############               ###############               ###############               ###############               ###############               ###############               ################@===&&=&&=&&&&=&&&&&&&&&&&&&%&%&%&%&%%&&82555255555555555555555555555555555555555555555525525555-52555525-5-55555-555-55-5555255-555-555-55-55-55-55-55-5-55-55-55-5-5-5-5-5-55-5-5-5-5-5-5-5-5--5-5--5--5--5--5-5--5-5-5---5-5-5--3-5--3-53-5-3--3---5--5-----------3---3------3-------3----3------3-3-------3-----3------------------------3---3----------------3--3-----3----3-3---3-----3---------3------------------------------------3----3---1<:::::::::::::::::::::::::::::::::::::::##               ###############               ###############               ###############               ###############               ###############               ###############               ###############",
"               ###############               ###############               ###############               ###############               ###############               ###############               ################&==&=&&=&&&&&&&&&&&&&&&&%&%&&%&&%&%&%&&&25555555525525525525525552555255525525525525525555555-555555-55555555-52555-55-55-5-55-555-55-5-55-55-55-5-55-55-5-55-5-5-5-5-5-5-5-5--5-5-5-5--5-5-5-5-5-5-5--5-5-5-5----5--5-3--5-3--3-5-5--3------3--5---3---3--3-5-3-5-3---3---3--3---3-3-----3----3--3-----3--3----3-----3-3--3-3--3--3--3--3----------3--3--3--3----------3-----3------------------3-------3--3--3--3--3--3-3-3-3--3--3--3-----3----3--1::::::::::::::::::::::::::::::::::::::X:#q              ###############               ###############               ###############               ###############               ###############               ###############               ###############",
"               ###############               ###############               ###############               ###############               ###############               ###############               ###############.$=&&&=&&&=&&=&&&&&&&&&%&&&&%&&%&%&%&%%=425555555555555555555555555555555555555555555555555-5555255-5555-5-525555-5-5555-5555555-5-55-5555-55-55-5-55-55-5-55-5-5-5-555-5-5-5-55-5-5-5-5-5--5-5-5-5--5-53-5-3--35-53-3-5-5-3--5-5-3---5--5-35--5--3-5--3---5--3---3----5-----3---3-----3-3----3---3----3--3----3---3-3----3-------3-----3---3--3-3-3--3---------3-3--3-3--3--3---3-----------1--------3-3--3-----3-----3--------3-----3---3-3----3-----3::::::::::::::::::::::::::::::::::::::X<#              ###############               ###############               ###############               ###############               ###############               ###############               ###############",
"###############               ###############               ###############               ###############               ###############               ###############               ###############             #6$=&==&&=&&&&&&&&&&&&&&&&&&%&&&%&%&%&%&&825555555555555555555555555555555555555555555555555555555555555555555555-55555-5555-5-5-55555-55-555-55-5555-55-5555-5-555-55-5-55-55-5-5-5-5-5-5-535-5-3-5-53-5--5-5-55--5--5-5-3-5-5-3---5-3-3-5-3--3--3-5-3-5-3-3--3--3--3-3-3-3-3---3---3-3----3-3--3---3-3-----3-3---3----3-3---3-3-3---3-3---3---3---------3-3-3-3-----3-------3--3------1111111-111-1------3---3-3---3-3---3-3-3----3-3---3----3-3--3-3--1<:::::::::::::::::::::::::::::::::::::::3##############               ###############               ###############               ###############               ###############               ###############               ###############               ",
"###############               ###############               ###############               ###############               ###############               ###############               ###############            q@$===&&&=&&=&=&&&&&&&&&&&&%&&&&%&&%&%&%&&25555555555555555555555555555555555555555555555-5525555-5555555-555555-5555555555-5555555-55-55555-55-55-5-55-5-5-5-5-55-5-5-5-5-5-5-535-5-535-535-5-3-5-53-5-5-35-3-5--35-3-5-3-5-5-3-5-5-3-5-5-3--5-53-5-3---3--5--3-5--5---3---5---3--3-3----3-3---3--3-3---3-3-3----3--3-3------3-------3-----3---3---3-3-3-3--------3-3---3-3-3-------1-11-111111111111111------3-----3-----3------3-3-----3--3-3---3----3--1:::::::::::::::::::::::::::::::::::::::X##############               ###############               ###############               ###############               ###############               ###############               ###############               ",
"###############               ###############               ###############               ###############               ###############               ###############               ###############           q#&==&&==&&=&&&&&&=&&&&&&&&&&&%&%&&%&%&%&&42555555555555555555555555555555555555555555555555555555555-5555555-555555-5-55-5555-55-5555-55-5-555-555555-5555-555-55-5535535-535-5-5-535-5-5--5-5-5-5-5-53-5-5-5-53-5--5-53-5-3-3-5-3-3-5-3-3-5-3-3---3--53--3-3-3--3-3-3-3--3-3-3--3---3-3-3---3-3--3---3-3---3--3-3--3--3-3-3-3--3-3-3--3-3-3--3--3-3---3---3-3-3-3----3-3---3--3----1-111111111111111111111-----3-3-3--3-3--3-3-3----3-3-3--3---3-3--3-3--3-3::::::::::::::::::::::::::::::::::::::::#############               ###############               ###############               ###############               ###############               ###############               ###############               ",
"###############               ###############               ###############               ###############               ###############               ###############               ###############           #7$=&==&&=&&=&&=&&&&&&&&&&&&%&&&&%&%&%&%&8255555555555555555555555555555555555555555555555555555555555555555555-55555555555555555555-55555555-5555-5-5535-5535-53535-5-5-535-553535-535-5353535-5353-55-535-353-5-535353-5-3-5-5-35-5-3-5-5-3-3-5-35-3-3-3-5-3-5-3-3-3-3--3-3-3-3-3-3-3--3-3-3-3--3--3-3--3-3--3-3--3-3--3--3--3-3-3-3-3-3-3--3-3--3--3--3-3--3--3--3-3---3-3--3---1-111111111@1@1@11111111111-----3--3-3-3-3-3--3-3-3-3-3--3-3-3-3--3-3--3--1<:::::::::::::::::::::::::::::::::::X::X;############               ###############               ###############               ###############               ###############               ###############               ###############               ",
"###############               ###############               ###############               ###############               ###############               ###############               ###############          #5$=&=&&=&&=&&&=&&&&&&&&&&&%&&&%&%&&%&%&&&255555555555555555555555555555555555555555555555555555555555555-555555555555555-55-55-5-55555-5-535-5535-5535-5535-55355-55355355-553-5-5-5-5-535-5-5-535-535-3-5-35--53-3----5-35-53-3-5-3-35-3-3-5-5-3-5-3-5-35-3--3-3--5--5-3-5--3--3--3-3-3--3-3--3-3-3-3--3--3-3--3-3--3-3--3--3--3---3---3---3--3-3--3-3-3--3-3-3--3-3--3-3---3-----1111111@@@@@@@@@@@@@111111111----3--3---3---3--3-3---3-3--3--3--3--3-3--3---:::::::::::::::::::::::::::::::::::::::X@###########               ###############               ###############               ###############               ###############               ###############               ###############               ",
"###############               ###############               ###############               ###############               ###############               ###############               ###############         q#===&==&=&=&&=&&&&&&&&&&&&&&&&%&&&&%&&%&&02555555555555555555555555555555555555555555555555555555555555555555555555-55-555555555553553555555555-5555-5555-555-55-5535-5-5-553-555535353535-5-53535-5-5-355-35-3535-55353-35-3-35-53-35-3-3-53-3-3-3-3-3-3-3-3-35-3-3-3-3-3-3-3-3-3-3-3--3-3-3--3--3--3-3-3-3--3-3--3-3--3-3-3-3-3-3-3-3-3--3-3-3--3-3--3--3-3--3--3-3-3-3-3-3-3----111111@@1@@@@@q@q@q@@@@@@1111111----3--3-3-3-3-3--3-3-3--3-3-3--3-3-3--3-3-31;::::::::::::::::::::::::::::::::::::::::###########               ###############               ###############               ###############               ###############               ###############               ###############               ",
"###############               ###############               ###############               ###############               ###############               ###############               ###############         #.$=&=&&=&=&&=&&=&&=&&&&&&&&&%&&&%&%&%&%&%2555555555555555555555555555555555555555555555555555555555555555555555553555555355535555555-553535-5355353553535535355355-553553535-53-5-5-5-5-5-5353-5-5353535-35-535--353-5-35-35-5-3-3-5-35-53-3-53-53-5-5-3-5-3-5-3-53-3-3-3-3-3-3-3-3--3-3-3--3-3-3-3-3--3-3-3-3-3-3-3-3-3-3-3-3-3--3-3--3-3-3--3-3--3-3--3-3--3--3-3--3--3--3-3----11111@1@@@q@qq@q@q@q@q@q@@@@111111----3-3--3-3-3-3-3-3--3-3--3-3-3-3--3-3-3-3-1:::::::::::::::::::::::::::::::::::::X:X,##########               ###############               ###############               ###############               ###############               ###############               ###############               ",
"###############               ###############               ###############               ###############               ###############               ###############               ###############        #6$=&=&==&=&&=&&&&&&&&&&&&&&&&&&&%&&&%&%&=45555555555555555555555555555555555555555555555555555555555555555555553555555355555555553535555555555555555355-55-55535-5535-5535-553555353535353535-53535-3-5-35-53-5-535-5-35-53-53-35353-3-3-3-5-3-53-3-3-33-3-35-3-3-3-3-3-3-3-3-3-3--3-3-3-3-3-3-3-3-3-3-3-3-3-3-3-3-3-3-3-3-3-3-3-3-3-3-3-3-3-3-3-3-3-3-3-3-3-3-33-3-3-3-3-3-3-3----11111@@@q@q@qqqqqqqqqqqqq@q@@@@11111---3-3-3-3-3-3-3-3-3-3-3-3-3-3-3-3-3-3-3-3-3::::::::::::::::::::::::::::::::::::::::-#########               ###############               ###############               ###############               ###############               ###############               ###############               ",
"###############               ###############               ###############               ###############               ###############               ###############               ###############       q@$===&=&&=&&=&&=&&&&&&&&&&&&%&&%&&&%&&%&&7255555555555555555555555555555555555555555555555555555555555555555555555555555555355355555553553553535353555535535535553535535-5535-53535-5535-535-535-53535353553535335-3533533-53-35-3-53535-353353-3-5353-5-353-33-3-3-353-35-35-3-3-33-3-3-3-3-3-3-3-3-3-3-3-3-3-3-3-3-3-3-3-3-3-3-3-3-3-3-3-3-3-3-3-3-3-3-3-3-3-3--3-3-3-3-3-3-3---11111@@@@q@qqqqqqqqqqqqqqqqq@q@@@111111---3-3-3-3-3-3-3-3-3-3-3-3-3-3-3-3-3-3-3--1,:::::::::::::::::::::::::::::::::::::X:X#########               ###############               ###############               ###############               ###############               ###############               ###############               ",
"###############               ###############               ###############               ###############               ###############               ###############               ###############      q#%==&=&==&=&=&&=&&=&&=&&&&&&&&&&&&&%&%&%&=555555455455545555455554555455555555555555555555555555555555553555355355535535553555555535535555535555555555355355355-53555535535355355-5353-535-535353535-5-5-53-35-35-353-53-5-5353535-53-3-353-5-3-3533-3-333-3-35-3-353-3-3-3-3-3-3-35-3-3-3-3-3-3-3-3-3-3-3-3-3-3-3-3-3-3-3-3-3-3-3-3-3-3-3-3-3-3-3-3-3-3-3-3-3-3-3-3-3-3-3-3-3-3----111@1@@q@qqqqq#q#######qqqqqqqq@q@@11111--3-3-3-3-3-3-3-3-3-3-3-3-3-3-3-3-3-3-33--:::::::::::::::::::::::::::::::::::::::::########               ###############               ###############               ###############               ###############               ###############               ###############               ",
"###############               ###############               ###############               ###############               ###############               ###############               ###############      #8$==&==&=&=&&=&&&&&&&&&&&&&&&&&%&%&&&%&%&0255455555554555545555455555554554554554554554554554554554555555555555555555555555553553555555355555353535353555535535535535355355353535355355353535-535-53535535355353535-53-53353-3-3-333-535-3-33-53-3-53-53-53-3-3353-3-3-353-33-33-3-33-33-33-3-33-33-3-33-3-3-3-3-3-3-3-3-3-3-3-3-3-3-3-3-3-3-3-3-3-3-3-3-3-3-3-3-33-3-3-3-3-3-3---11111@@q@qqqqq##############qqqqqq@@@11111----3-3-3-3-3-33-3-33-3-3-3-33-3-3-3-3-3--<:::::::::::::::::::::::::::::::::::::X:X;#######               ###############               ###############               ###############               ###############               ###############               ###############               ",
"###############               ###############               ###############               ###############               ###############               ###############               ###############     #2$==&==&=&=&=&&=&=&=&&&&&&&&&&%&&&&&%&%&&&25555554554555545555455555545554555555555555555555555555555554545545545545554554553555555355355535355555555555535535553553535535535553553535353553535353535353-35353-35-35335335-35353535-5353-335353335-33533-33-353-3-3-3533-3-33-33-3-33-33-33-3-33-3-3-33-3-33-333-333-333-333-33-33-333-333-333-333-333-333-33-33-33-33-33-33-33-3---1111@@@qqqq#q#################qqqqq@q@1111----3-33-33-33-3-33-3-333-33-3-333-33-33-1::::::::::::::::::::::::::::::::::X:::::X@######               ###############               ###############               ###############               ###############               ###############               ###############               ",
"###############               ###############               ###############               ###############               ###############               ###############               ###############    q#=====&=&=&=&&=&&&&&&&&&&&&&&&&&&%&%&&%&&&055545545555545555545554554555555545455455455455455455455455455555555555553555355355545355553555355553535353535355355355355553553535355355355355353535353535353535-355353535-3535353-353-353-3-5353-3-53335-3-53533-3353-33-3-33-3-353-333-3-3-3-33-33-33-33-33-33-3-3-3-3-3-3-3-3-3-33-33-3-3-3-3-3-3-3-3-3-3-3-3-33-33-3-3-3-33-33-33---111@@@qqqqq######################qqqq@@@1111---33-33-33-3-33-33-3-3-3-33-3-3-33-3-33-;:::::::::::::::::::::::::::::::::::::X:::######               ###############               ###############               ###############               ###############               ###############               ###############               ",
"###############               ###############               ###############               ###############               ###############               ###############               ###############    #7$==&=&=&=&=&=&&=&=&&&=&&&&&&&&&&&&&%&&%&&2555545554545554545554554555554545555555455555455555555555555545554554554555455555545555455455545535355555553555535553535535353535535353535353535353535353535353535353-3535335353-335-353533353533-3533-53-3333-3-353-3-335333-53333-33-3-3-333-33-33-33-33-33-33-333-333-333-333-3333-33-3-333-333-333-333-333-3333-33-333-3333-33-33----1111@@q@qq#q#######################qqqqq@@111----33-3-33-33-33-333-3333-333-33-333-3-1::::::::::::::::::::::::::::::::::::::::X;#####               ###############               ###############               ###############               ###############               ###############               ###############               ",
"###############               ###############               ###############               ###############               ###############               ###############               ###############   #1$======&==&=&&=&&&&&=&&&&&&&&&&%&&%&&&%&&05545555455554545554555545545455555454545554545554545454545455555455545535545554545553545535553555455453535355353553535553535535535355355355353535355353535353535353535353-35353-5353353353-53333-53335333-353533533-33353-3-3333-3533-335333-333-333-33-33-33-33-33-33-3-33-33-3-33-3-33-333-3-33-33-3-33-33-3-33-3-33-33-33-3-33-33-33--1111@@@qqqq##########################qqq@@@1111---3-333-333-33-33-33-3-33-333-33-33333->:::::::::::::::::::::::::::::::::::X::X:Xq####               ###############               ###############               ###############               ###############               ###############               ###############               ",
"               ###############               ###############               ###############               ###############               ###############               ###############               ####&====&=&=&=&=&=&&=&=&&&&&&&&&&&&&&&&&&%&&&2555454555454555545545455545555545455555554555545555555555555454554535555455553555354555355535453535535545455455453545535355355355355353535353535353535353535353535353353535353353353535-3533353533353-3535333-3-335335-333335-3-33-3-33-33-33-3-33-33-33-33-33-33-33-3333-33-33333-333-333-3333-33-3333-33-33333-333-33-33-3333-33-333----111@@@qqq############################qqq@q@@111---33-33-3-33-33-33-3333-33-33-33-3-3-31::::::::::::::::::::::::::::::::::::::::::#   ###############               ###############               ###############               ###############               ###############               ###############               ###############",
"               ###############               ###############               ###############               ###############               ###############               ###############               ###9$==&==&==&=&&=&&=&&&&&&&=&&&&&&&&%&%&%&&&05545555454555454554554545455454555545454545545554545454545454555545545454554545455455545545455545545355355353535355353545535435535535353535355355353535353535353353535353353353533533333353353-35353-3533-33533533-33-333-5333333533333533-3333333-33333333333333333-33-3333-33-3-333-333-333-3333-33-3333333-3-333-333333-33-3333333-3---111@@@qqq###############################qq@@@1111--333333333-33333-33-3-33-33333-333333->::::::::::::::::::::::::::::::::::::X::XX;#  ###############               ###############               ###############               ###############               ###############               ###############               ###############",
"               ###############               ###############               ###############               ###############               ###############               ###############               ##q$====&==&=&=&=&&=&&=&&=&&&&&&&&&%&&&&&&&&&2545545455545455454545545554545545455455455545545545554555455554545545555545545555455453545355435535554545455455455454535354535534353545355353535353535353533535353533533535353533535355353353535333353353353353353353335333-353-333-33-333333-33-33333-3-3-3-3-3-3-3333333-33333333-333-333-3333-33333-33-3-333333333-33-33333333-3-3333--1111@@qqqq###############################qqq@@111----33-33-33333-33333333333-3-33333-3-3-:::::::::::::::::::::::::::::::::::::::::X q ###############               ###############               ###############               ###############               ###############               ###############               ###############",
"               ###############               ###############               ###############               ###############               ###############               ###############               ##%$==&==&=&=&=&=&=&&=&&&&&&&&&&&&&&&&%&%&%=05554554545455545545554554545554554545545545455454554545545545455554554545553554545354554555453554545435535353535353535354535353455354353543535353553535353535353533535353533533353335333533533333535333533333-33333333533333333333-333333-33-333333-3-333333333333333-3-3-333-33-3333333333333-33333-333333333-33-33-3333333-33-33333333---111@@qqqq################################qqqq@@111---3333-333-3333-3-33-33333333-3-33333->:::::::::::::::::::::::::::::::::X::X:::X:# ###############               ###############               ###############               ###############               ###############               ###############               ###############",
"               ###############               ###############               ###############               ###############               ###############               ###############               #6$====&===&==&=&=&&=&&&=&&&&&&&&&&&&&&&&&&%25545454554554545454545545454545545554554545545455455455454554554545545545454545355453545545545453553554545545454545455453453545353535535353543543533535343535335353535335335353535353353353353535333353335353353-3535333-3353-335333353-333333333-33333333-3333-333-33333333333333-33-33-33-33333-3333333-333333333333333-333333333333-33--1111@@qq###################################qqq@@111---333333333-3333333333-33-333333333-3-::::::::::::::::::::::::::::::::::::::X:::4################               ###############               ###############               ###############               ###############               ###############               ###############",
"               ###############               ###############               ###############               ###############               ###############               ###############              q#$===&==&=&=&=&=&&=&&=&&&&&=&&&&&&&&%&%&%&=05454554545454545455545454555454545454545545545554554554554545545455455455455455454554553543545554545453535345353535353535535453545453435435435353535435353534353435335353353353353353353533353333353533353333353333333335333333333335333333533-33333333-33333-3333-33333333-33-33333333333333333-33333-33333-333-333333-333333333-33-3333---111@@qqqq##################################qq@@@1111--3-333-33333-333-33-333333-333-33333-;:::::::::::::::::::::::::::::::::::::::X:Xq###############               ###############               ###############               ###############               ###############               ###############               ###############",
"               ###############               ###############               ###############               ###############               ###############               ###############              #o$==========&=&=&=&&=&&=&&&&&&&&&&&&&&&&&&&25554545454545455454454554545454545545545454545454545454545554545545454554554554554545545454535435453545454553545454545453453534535343553535353535343535345353535353453435343533533533533335333535333335335335333353533533335333533-3333333333333-333-3333-333333333333-33-3333333-333333333-33333333333333333333333-3333333333333333333333--1111@@qq####################################qqqq@111---333333333333333333333333333333-333--::::::::::::::::::::::::::::::::::X::X::::,###############               ###############               ###############               ###############               ###############               ###############               ###############",
"               ###############               ###############               ###############               ###############               ###############               ###############             #4$===&=&=&=&=&==&=&&=&&&&&=&&&&&&&&&&%&%&%&85445454545454545454554545454545545454545454545454545454545445454545454545454545454554545455545454535453545345453535353453453453534535543454354543453534353343534353353353435334334335335353353333353533333335333533333333333335333333333-333333333333333333333333333333333333333333333-333333333333333333333333333333333333333333333333333----11@@qqq#####################################qq@@111---33333333333333333333-33333333333333-<::::::::::::::::::::::::::::::::::::::X:X:-##############               ###############               ###############               ###############               ###############               ###############               ###############",
"               ###############               ###############               ###############               ###############               ###############               ###############            q#$==========&=&=&=&&=&&=&=&&&&&&&&&&&&&&&&&=555454545454545454545454545545454545454545455455454545545545554554554554545454545453454535434545455454543545453454545453455453545453534353535335535354353453543535345343533533535353533433343353535333535335333533333333533353333333533333333-33333333333333333333-3333333333333333333333333333333333333333333333333333333333333333333333333--1111@@qq######################################qqq@111---3333333-333333333333333333333333333-::::::::::::::::::::::::::::::::::::X:::::X##############               ###############               ###############               ###############               ###############               ###############               ###############",
"               ###############               ###############               ###############               ###############               ###############               ###############            #.$====&=&=&==&=&=&=&&=&&&&&&&&&&&&&&%&&&%&&755454545454545454545454545445454545454545454545454545454545445454545454545454545454545454545545354354535453545453453435453435453353454534543453343435354353433543433353534353433433433535353343333343333335333333353533333533333333333353333333333333333333333333333333333333333333333333333333333333333333333333333333333333333333333333333---11@@qqqq####################################qqq@@@111--33333333333333333333333333333333333-,:::::::::::::::::::::::::::::::::X:::X:X:X<#############               ###############               ###############               ###############               ###############               ###############               ###############",
"               ###############               ###############               ###############               ###############               ###############               ###############           #1$===========&==&=&&=&&=&=&&&=&&&&&&&&&%&&&=4545454545454545454544545454545454545454545454545454545454545454545454545454545454545454545454545454545445454543545345545345543454543534534353454535434353453534335353434353343535353534334335335343353353433335343333335333333335333333333533333333333333333333333333333333333333333333333333333333333333333333333333333333333333333333333333--111@@qq#######################################qqq@111---333333333333333333333333333333333333::::::::::::::::::::::::::::::::::::::::::Xq############               ###############               ###############               ###############               ###############               ###############               ###############",
"               ###############               ###############               ###############               ###############               ###############               ###############           #&$====&=&=&=&=&=&=&=&=&&&&&&&&&&&&&&&&&&&%&%254544545454545454545454545454454545454545454545454545454545454545454545454454545454545454545434545435453454353454545343453435434343543535354353345335343433435354343435334353343343343353343343343353343333433333334333333335333333533333333333333333333333333333333333333333333333333333333333333333333333333333333333333333333333333333333---111@@qqq######################################qq@@@11---33333333333333333333333333333333333-:::::::::::::::::::::::::::::::::::X::X:X:X:############               ###############               ###############               ###############               ###############               ###############               ###############",
"               ###############               ###############               ###############               ###############               ###############               ###############          #4$============&=&=&=&=&&=&=&=&&&&&&&&&%&&&&=05454454544544545454454545454545445445444545445445445454544545454545454545455454545454543454345454345454545345454543454543545434535543454344354345345434353545343435353534353434353343353343353335333343333533533435333343334333333333333333333333333333333333333333333333333333333333333333333333333333333333333333333333333333333333333333333--1111@@qq#######################################qq@@111---33333333333333333333333333333333333>:::::::::::::::::::::::::::::::X:::X::::::X-###########               ###############               ###############               ###############               ###############               ###############               ###############",
"               ###############               ###############               ###############               ###############               ###############               ###############         q#=$====&==&=&=&==&=&=&&=&&&&&&&&&&&&&&&&&%&&&24545444454454454445454454445454544545454454545454544544545445445444544544544545454545454545454545454345434543454345434545434545443454344535434534343543543433435343434343534353343533434335343433434333434334334333334333333343343333333333333333333333333333333333333333333333333333333333333333333333333333333333333333333333333333333333333---11@@qqq#######################################qq@@111--333333333333333333333333333333333333-:::::::::::::::::::::::::::::::::::::X:X:X:X###########               ###############               ###############               ###############               ###############               ###############               ###############",
"               ###############               ###############               ###############               ###############               ###############               ###############         #8$==============&=&=&=&&&=&=&&&&&&&&&&&&&&&=8544444545445445445454454454544454454544454544545445454454454544545454545454454544544544545454543454545434545454345435454343453435354353534345343435343534353435434334353343433434334343334334333343333433333333333334333333433333333433433334333333333333333333333333333333333333333333333333333333333333333333333333333333333333333333333333333--1111@qq#######################################qqqq@111--33333333333333333333333333333333333-<::::::::::::::::::::::::::::::::::X::::X::X>##########               ###############               ###############               ###############               ###############               ###############               ###############",
"###############               ###############               ###############               ###############               ###############               ###############               ##########$======&=&=&=&=&=&=&=&=&=&&&&=&&&&&&&&&&&%&=4545454454454454454444544544454544544454544454444544545445445454454454454454544454454454454445454543454545443454543454343545434544434544434543453454343434343543343543434353343353433534353433434335343334343434334333343343333433333333333433333433333333333333333333333333333333333333333333333333333333333333333333333333333333333333333333333---11@@qqq#######################################qq@1@1---3333333333333333333333333333333333333:::::::::::::::::::::::::::::::::::::X::X:XXqq        ###############               ###############               ###############               ###############               ###############               ###############               ",
"###############               ###############               ###############               ###############               ###############               ###############               #########.$=============&=&=&=&=&&&&=&&&&&&&&&&&&&&&&&24444454454454454445454544545454454454454454545454454445454544445445445445454454545454545445434454454454434545434545434545434543435434334534343434434534534343434534353434343534343343433433433334334333433333334333433333333433333343333333333333333333333333333333>333>333>333>333>333>3333>333333333333333333333333333333333333333333333333333---111@@qq#######################################qqq@111---33333333>333>333>333>3333>333333333-::::::::::::::::::::::::::::::::X::X:::::X::,#        ###############               ###############               ###############               ###############               ###############               ###############               ",
"###############               ###############               ###############               ###############               ###############               ###############               ########1$=========&=&=&==&==&&=&=&=&&&&&=&&&&&&&%&&&8545454445444444454544444544444445445445445444445445445444454454544544544544454544544454454545454454434435454434543445454343454345434545434435453435434343453435343434343534343433434333433433434334333433343433333433343343333334333334334333>3333>33>33>33>33>33>33333333>3333333333333333>333>33>33>33>33>33>333>333>333333333333333333333333333--111@@qq#######################################qq@@@11---3>33>33333333333333333>3333>33>33333;::::::::::::::::::::::::::::::::::::X:X::X:X*q       ###############               ###############               ###############               ###############               ###############               ###############               ",
"###############               ###############               ###############               ###############               ###############               ###############               ########&$=======&=======&=&=&=&=&&&&&=&&&&&&&&&&&&&=5444444544454545444445454445454544444444444454544544544454544454454454454454544454445445445444444345454544443454445434434544345434543434345344344343434343434343434343434343343434353434334334333433343343433334343334334333433433343>333>33>3343>3333333333333333333>33>333333>3>33>33>33>33333333333333333333333333>333>33>33>33>33>33>33>333>333---111@@qq######################################qqq@@111--33333>33>33>33>33>3>3333>33333333>333::::::::::::::::::::::::::::::::::X:::::X::X:#       ###############               ###############               ###############               ###############               ###############               ###############               ",
"###############               ###############               ###############               ###############               ###############               ###############               #######4$==========&=&=&=&=&=&&&&=&=&&&&&&&&&&&&&&&&%545445444444444445444444454444445454545454544444544445454445454454454454454445444545445445445454544444544545444354454544345443434434544345434343543434544343434343435343343433434343434343343343433433433334343333433333334333>33>3333433333333333343>33>3>33>3>3>33333333>33>333333333333333>33>33>33>33>333>33>33333333333333333333333333333333333--111@@qq#######################################qq@@11---333>33333333333333333>3333>33>333333-::::::::::::::::::::::::::::::::::::X:X::X::X3#      ###############               ###############               ###############               ###############               ###############               ###############               ",
"###############               ###############               ###############               ###############               ###############               ###############               #######$$======&========&==&=&=&=&&&&=&&=&&&&&&&&%&=0544444444545444544445454444544544444444444445454444544444544444444445444444544545444454444344544454534454434545444344345434434544543435434343454434543433434343434343434343434343343343343434343343434334343334343334343433>34333433>33>33>3433>33>333>3333>33333333>3>3>33>3333>33>3>3>3>3>33>33333>333333>3333333>33>33>33>33>33>33>33>33>33>33>333--111@@qq######################################qq@@111--33333>33>3>3>3>3>33>333>333>333>3>333;:::::::::::::::::::::::::::::::::X::::X::X:XX#q     ###############               ###############               ###############               ###############               ###############               ###############               ",
"###############               ###############               ###############               ###############               ###############               ###############               ######8$=========&==&=&==&=&=&=&&=&=&&&&&&&&&&&&&&&=5444444444444444444444444444444444544544544444444544445444445454545444454544444444454444544454445444445443444434434454443445444343444444344434434343434344345434343434343434343434343434334334334333343433433433>343>3>33>33433>4333433334333>3>33433>333>3333>3>3>3>333333333>333>33333333333333>3>333>3>3333>3>3>333>33>33>33>33>33>33333>33333>3333--111@@qqq####################################qqq@@111--33>3333>333333333>333>333>333>3333>33-::::::::::::::::::::::::::::::X:::::X::X::X:X;#     ###############               ###############               ###############               ###############               ###############               ###############               ",
"###############               ###############               ###############               ###############               ###############               ###############               ######$===========&=====&=&=&=&=&=&&&&=&&&&&&&&&&&&%544544544444445444454444445444445444444444445445444454444454444444444544445445454544445444544454434454434445454445434434443443544434343443434434344344344344343434343434343434343434334343434334334343>33433>3434333433433433>333>3>334>33>34333333>3333433>3>333333333>3>3>3>33>333>3>3>3>3>3>3>3333>33333>3>333333>333333333333333333>3>333>3>333>333--111@@qq#####################################qq@@111---33>3>333>3>3>3>333>333>333>3333>33>3-::::::::::::::::::::::::::::::::::X::::::X::XXqq    ###############               ###############               ###############               ###############               ###############               ###############               ",
"###############               ###############               ###############               ###############               ###############               ###############               #####7$=============&=&==&==&=&&&&=&=&&&&&&&&&&&&&&05444444444444444444444445444445444444445444444444454444544444544544544445444444444454444544454444454444454444434444445443444344345445434544343443434344343434344343434343434343433434334343434343434334343>433>334>3343>343>343433433>33433>3>34>3>33>3>33>333>3>3>3>3>3333333>33>3>333333333>333>3>33>3>3>333>3>3>33>3>3>3>3>3>3>3>3>3333>33333>333>33---111@qqq###################################qqq@@111--333333>33333>333>3>33>33>333>3>333>333;:::::::::::::::::::::::::::::::::::X:X:X::X:X<#    ###############               ###############               ###############               ###############               ###############               ###############               ",
"###############               ###############               ###############               ###############               ###############               ###############               #####$============&=====&=&=&=&=&=&&&&&&=&&&&&&&&&=44444444444444444444444444444444444454444445444444444444444444444444444444444544454444454444444445444445444543444345434454445444444343443443444344344443443434434344343434343434344343443>343>34>3>43>43>34343434>3343>343>3433>3>33>43>3>3>3333>333>3>33>33>3>333>33>333>3>>3>33>3333>3>3>>3>33>33>33>333>33>33>333>33>333>333>333>333>3>33>3>3>33>33>33--1111@@qq###################################qq@@111--333>3>3>3>3>33>3>333>33>33>3>33>3>33>33::::::::::::::::::::::::::::::X::X::::X::X::XXqq   ###############               ###############               ###############               ###############               ###############               ###############               ",
"###############               ###############               ###############               ###############               ###############               ###############               ####7$=========&====&=&=&=&=&&=&&&=&=&&&&&&&&&&&&&&5444444444444444444444444444444444444444444444454444445444544454444544544444444444454444445445444444543444444445444444434434434343444434434434344344334343443434343434434343434343>43>43434343433433434343>33>34334>3433>343>343343>333433>34>3>33>3433>33>3333>3>33>33>33>33>33>3>3>33>3333>33>3>33>33>3>33>3>33>3>33>33>33>3>33>33>3>33>3>33>33>33>33>33--111@@qqq#################################qq@q1111--33>333>33>33>33>33>33>33>33>33>333>333-:::::::::::::::::::::::::::::::::::X:::X::X:X:<#   ###############               ###############               ###############               ###############               ###############               ###############               ",
"###############               ###############               ###############               ###############               ###############               ###############               ####$=============&====&==&=&=&=&=&&&&&&&&&&&&&&&=854444444444444444444444444444444444444444444444444444444444444444444444454454445444444544444444445444444434434444434434444434444444434444434444434434434443434434434434344>43434343434343434>34>434>343>343434>34>3343>343>33>3>3>4334>3>3433>334>33>3>3>343>3>3>33>3>3>3>3>33>3>33>3>3>3>3>33>3>33>33>3>33>3>33>3>33>33>3>3>33>3>3>3>33>3>33>33>3>3>3>333---111@@qqq################################qqq@@11---333>3>33>33>33>3>3>3>3>3>3>33>3>3>3>3>3<:::::::::::::::::::::::::::::::X:::X:X::X:X:XX q  ###############               ###############               ###############               ###############               ###############               ###############               ",
"###############               ###############               ###############               ###############               ###############               ###############               ###7$===============&==&=&=&=&=&&&=&=&&=&&&&&&&&&=64444444444444444444444444444444444444444444444444444444444444444444444444444444444444444444444444444444444444443444444443444434343444343444343444434434434444344>434>434>3434>4>434>443>43>434343>434>343>4>34343>4>3>43>434>4343>3>3>343>3>343>33>43>343>3>3>33>3>33>33>33>3>3>3>33>3>3>3>3>3>33>3>3>3>3>3>33>3>33>3>3>3>3>3>3>3>3>33>3>33>3>3>3>3>3>3>>33---111@@qq################################qq@@1111--33>3>3>3>3>3>3>33>3>33>33>3>3>33>33>333>:::::::::::::::::::::::::::::::::X::::X::X:X:X<#  ###############               ###############               ###############               ###############               ###############               ###############               ",
"###############               ###############               ###############               ###############               ###############               ###############               ##q$==============&==&==&=&==&&=&=&&&&&&&&&&&&&&&=54444444444444444444444444444444444444444444444444444444444444444454444444444444444444444444544454444445444454444444344344434444444434444434444434344344343434>43434434434344343434343343433434>3434>3434>4334>3>343343343>3>33>3>3>343>3>43>3>3>3>33>33>3>3>3>3>33>3>3>3>3>3>3>33>3>33>33>3>3>3>3>3>3>3>33>3>3>3>3>3>3>3>3>3>3>3>3>3>3>3>3>3>3>3>3>3>3>33>33---111@@qqq#############################qqq@@@11---33>3>3>3>3>3>3>3>3>33>3>3>33>3>3>3>3>3>-::::::::::::::::::::::::::::::::::::X::X::X::XX q ###############               ###############               ###############               ###############               ###############               ###############               ",
"###############               ###############               ###############               ###############               ###############               ###############               ##.$==$========&======&==&=&&=&=&&=&=&&&&&&&&&&&&75444444444444444444444444444444444444444444444444444444444444444444444444444444444454444444444444444344444444444444444444444434443444434344434344444344>44>44344344>434>44>434>434>4>4>4>4>4>434>3434>34>334>3434>3>4>3>343434>34343>3>3>33>34>34>3>3>3>3>3>3>3>3>3>3>3>3>3>33>3>3>3>3>3>3>33>3>3>3>3>3>3>3>3>3>3>3>3>3>3>3>3>3>3>3>3>3>3>3>3>3>3>3>3>3>3>3>33--1111@@qqq###########################qqq@@@111--333>3>3>3>3>33>3>3>3>>3>3>3>3>3>3>3>3>3>3<:::::::::::::::::::::::::::::X::X:::X::X::X:XX,# ###############               ###############               ###############               ###############               ###############               ###############               ",
"               ###############               ###############               ###############               ###############               ###############               ###############q@$===============&=&===&=&==&=&&=&&&&&&=&&&&&&&=044444444444444444444444444444444444444444444444444444444444444444444444444444444444444445444444444444444443444434434443444344443444434444443444434344>443434>4344>434>43434>434>43434343434343>4343>434>343>434>3434>34>4>3>3>34>3>34>343>43>3>3>33>43>3>33>33>3>3>3>33>3>3>3>3>3>3>3>3>3>3>3>3>3>3>3>3>3>3>3>3>3>3>3>3>3>3>3>3>3>3>3>3>3>3>3>3>3>3>3>3>3>3>333---1111@qqq#########################q#qq@q1111---33>3>3>3>3>3>3>3>3>33>3>3>3>3>3>3>3>3>33;::::::::::::::::::::::::::::::::::X:::X:X:X:X:X##               ###############               ###############               ###############               ###############               ###############               ###############",
"               ###############               ###############               ###############               ###############               ###############               ################o$===================&=&==&&=&=&&=&=&&&&&&&&&&&=444444444444444444444444444444444444444444444444444444444444444444444444444444444444444444444444444444444444444444444444444444444434444344>444>4344>444344444344>4344344>43434>434>4>434>43>4>434>4>43>434>43>4>34>3>34>334>4>3>3>4>3>34>3>3>3>34>3>3>3>43>>33>3>3>3>3>>3>3>3>3>3>3>3>3>3>3>3>3>3>3>3>3>3>3>3>3>3>3>3>3>3>3>3>3>3>3>3>3>3>3>3>3>3>3>3>3>3>3>3>>33---111@@qqqq########################qq@@@111---333>3>3>3>3>3>3>3>3>3>3>3>3>3>3>3>3>3>3>33:::::::::::::::::::::::::::::::X::::X::X::X:X:X,#               ###############               ###############               ###############               ###############               ###############               ###############",
"               ###############               ###############               ###############               ###############               ###############               ###############*$==$===========&==&=&==&=&==&=&&=&&&=&&&&&&&&&&=5440444044444444444444444444444444444444444444444444444444444444444444444444444444444444444444444444444444444444444444444434443444444>44>44443444>4443444>4>44>4344>44>4344>44344>434>434>4343>4>4434>43>43>4>34>3>434>3>4>33>434>33>4>3>3>43>4>3>3>4>3>3>3>3>>3>3>3>3>3>3>3>3>3>3>3>3>3>3>3>3>3>3>3>3>3>3>3>3>3>3>3>3>3>3>3>3>3>3>3>3>3>3>3>3>3>3>3>3>3>>3>>3>333---1111@@qqqq####################qqq@q@1111---33>3>3>3>3>3>3>3>3>3>3>3>3>3>3>3>3>3>3>3>-::::::::::::::::::::::::::::X::::::X::X::X::X:XXqq              ###############               ###############               ###############               ###############               ###############               ###############",
"               ###############               ###############               ###############               ###############               ###############               ###############o$================&====&=&=&&=&=&&&=&&&&=&&&&&&&%5444444444044444444444044440444444444444444444444444444444444444444444444444444444444444444444444444444444444434444443444444>444>44444444434444>44434>4>443434444>4434434>4434>4344>434>434>4>4343>>34>4>34>34>34>4>3>434>34>3>4>34>3>34>43>>3>3>4>3>3>3>3>4>3>3>3>3>3>3>3>3>3>>3>3>3>3>3>3>>3>3>3>3>3>3>>3>3>>3>>3>3>>3>>3>>3>>3>>3>>3>>3>>3>>>3>>3>>3>3>>3>>3>>33---1111@@qqqq#################qqqq@q1@111---333>>3>3>3>3>3>3>3>3>3>3>3>3>3>3>3>3>3>3>33:::::::::::::::::::::::::::::::X:X:::X::X:X:X:XX,#              ###############               ###############               ###############               ###############               ###############               ###############",
"               ###############               ###############               ###############               ###############               ###############               ##############@$=$===$==============&=&==&==&=&&=&&=&&&&&&&&&&=844444044444440440440444444444444404444044444044444444444444444444444444444444444444444444444444444444444444444444444444444444444444>4344>444>434444>44444>444>4>434>4>4>434>4>4>4>34>4>4>4>434>4>4344>434>4>434>4>34>43>>4>3>4>3>3>4>4>>3>>3>34>3>3>3>3>4>3>3>4>3>>3>>3>3>3>>3>3>>3>>3>>>3>>3>>3>>3>>>3>>3>3>>3>>3>3>>3>>3>>3>>3>>3>>3>>3>>3>3>3>>3>>3>>>>3>>3>>3>33---11111@@@qqqqq###########q#qqqq@@@1111---333>3>3>>3>>3>>3>>3>>3>>3>>3>>3>>3>>3>4>3>3<:::::::::::::::::::::::::::::::::::X::X::X:X:X:X@q             ###############               ###############               ###############               ###############               ###############               ###############",
"               ###############               ###############               ###############               ###############               ###############               ##############o$==============&==&====&=&=&&=&=&&=&&&&&&&&&&&&=044044440444444444444444404444404444444444044444404440440444440444444444444444444444444444444444444444444444444444444444>44>4444>4444444444>44444>4444>43444>4444>44444>44>44>443444>434>434>4>4>4>4>34>>43>4>>43>4>3>4>43>4>43>4>4>3>3>4>34>4>>3>4>3>4>3>3>3>3>3>4>3>3>>>3>>3>>3>3>>3>3>3>3>3>3>>3>3>3>3>>>>3>>3>>>>3>>3>>3>>3>>3>>3>>3>>3>>>>>>3>>3>>3>3>>3>>>3>>3333---1111@@@qqqqqqq#q#q#qqqqqqq@@@11111---333>>>3>>3>>3>>3>>3>>3>>3>3>>3>>3>>3>>3>3>>3>::::::::::::::::::::::::::::::X::X::X::X:X:X:X:X,#             ###############               ###############               ###############               ###############               ###############               ###############",
"               ###############               ###############               ###############               ###############               ###############               #############q$=$==$==============&=&==&=&==&=&&=&&=&&=&&&&&&&=54444044440440440440440444444044444444044444440444444444444044444044404440444444444444444444444444444444444444444>444>444444444444>444>44>44444>444>4>444>4>44>4344>4>34>44>434>4>>434>434>4>434>4>4>4>434>4>34>>43>4>3>4>3>3>>4>3>3>43>34>>3>3>4>3>4>3>>3>>>3>>>3>3>>>3>3>>3>3>3>>3>3>>>3>>>>3>>3>>>3>>>>3>3>>3>>3>3>>3>>3>3>>3>>3>>3>>3>>3>3>3>>3>>3>>>>3>>>3>>3>>>333---11111@1@@qqqqqqqqqqqqq@q@@@@1111---333>3>3>>3>>3>>3>>3>>3>>3>3>>3>3>3>3>4>3>>3>33::::::::::::::::::::::::::::X:::::X:::X:X:X:X:XXX q            ###############               ###############               ###############               ###############               ###############               ###############",
"               ###############               ###############               ###############               ###############               ###############               #############7$======================&==&=&&=&=&&&=&&&&&&&&&&&&5440444044444444444444440440444404404444404444444404444444444444444444444444044440444444444444444444444444444444444444444444>4444444>444444>4>444>44444>4444>44>4>44>4444>44>4>4444>4>4>4>4>4>4>434>4>4>>4>34>434>>4>4>4>34>4>3>4>4>>3>4>>34>>4>3>>3>>>4>>43>4>3>>>3>3>>3>>3>>>>>3>>>>3>3>>3>3>>3>>3>>3>3>3>>3>>3>>3>>3>>3>>>3>>3>>>3>>3>>3>>>>>>3>>>>>3>>>>3>>>3>>3>>333----1111@1@@@@q@q@qq@q@q@@1@11111----333>>>3>3>>3>3>>3>>3>>3>>>>3>>>>3>>3>3>>3>4>>3:::::::::::::::::::::::::::::::X:::X:X:::X:X:X:XX<#            ###############               ###############               ###############               ###############               ###############               ###############",
"               ###############               ###############               ###############               ###############               ###############               #############$$=$=$==============&=&==&=&==&=&&=&=&&&&&&&&&&&=74044404444040404040404044444440444444440444404440444440440444404444044404444440444444464646464464464446444464446444444444>444444>44444444>44444>4444>4>444>444>4444>44>4>44>4>44>4>4>4>4>4>4>44>4>>4>4>34>4>4>4>>34>4>3>4>>4>4>4>3>4>4>3>4>>3>3>>3>4>3>3>3>>>3>>3>3>>>3>>3>>3>3>3>>3>3>>>>3>>>3>>>3>>3>>>>>3>>3>>3>>>>>3>>>3>>3>>>3>>>>>>>>>>3>3>>>>>3>>>>3>>>>>>>>>>>>>333----111111@1@@@@@@@@@1@1@11111----333>>>3>>>>3>>>>3>>3>>3>>3>3>>3>3>>3>>>>4>>>3>3<::::::::::::::::::::::::::::::::X::::X:X:X:X:X:XX#q           ###############               ###############               ###############               ###############               ###############               ###############",
"               ###############               ###############               ###############               ###############               ###############               ############8$=======$========&======&==&=&=&=&&&&&=&&=&&&&&&=84440444044444444444444440404444404044044444444044440444444404444044444444404444444464444444444444444644464444444464464>444444>4444>44>4>4444>4444>44444>4>44>44>4>44>44>4>44>4>4>4>44>44>434>4>4>434>34>4>34>4>4>4>3>4>4>34>3>4>3>4>3>>4>3>4>>4>4>>3>4>>>4>3>>>3>4>>3>>>3>>3>>>>>3>>>>3>3>>3>>>3>3>>3>>3>3>>>>>>3>>3>3>>>3>>>>>>3>>>3>3>3>>3>>>>>3>>>>>>3>>>>3>>3>>3>>>>>333-----111111111@1@1@1@111111----3333>3>3>>3>>>3>3>>>3>>3>>3>>>3>>>>>3>>3>3>3>3>>3<:::::::::::::::::::::::::::::X::::X:X::X::X:X:X:X6#           ###############               ###############               ###############               ###############               ###############               ###############",
"               ###############               ###############               ###############               ###############               ###############               ############$$=$=$===============&=&===&=&=&=&&=&=&&&&&&&&&&&=0404440444040404040440404444404044444444404040444404444044044444444444044044444444044446446444646446444444446446444>44464464646446444644444>4444>444>4>44444>44>444>44>44>44>444>4>44>4>4>4>4>4>44>4>4>4>4>4>4>3>4>4>4>3>4>>>4>3>>4>>>43>>4>>>3>>3>4>>>3>3>>>3>4>>>>4>>3>>>>>>3>3>>3>3>>>>3>>>3>>>>>>>>>>>>>>3>3>>>>>>>>3>>>>3>3>>>3>>>>>>>>>>>>>>>>>3>>>>>>>>>>>>>>>>>3>>>>3333-----111111111111111111-----3333>>>>>>>>3>>>>>3>>3>>>>>>3>>3>3>3>>>4>>>>>>>3>>:::::::::::::::::::::::::::X:::::X:::X:X:X:X:X:XXX#           ###############               ###############               ###############               ###############               ###############               ###############",
"               ###############               ###############               ###############               ###############               ###############               ###########6$======$=================&=&=&=&=&=&&=&=&&&&&&&&&=4440444404444444444404444044444440404404444444404444044444440404404404444444044044446444444464444444464464444444>44644444444>444>444>4464>4464>444>4444>4>444>444>44>44>44>4>4>44>4>4>4>44>4>4>44>4>4>4>4>4>>4>4>>4>4>4>4>4>4>4>4>>43>>>4>>34>4>>>>3>4>>4>>3>>>3>3>3>>3>>3>3>>>>>>>>>>3>3>>>3>>>3>3>3>3>3>3>>>>>>3>3>>3>>>3>>>>>>>>>>>3>>>3>>3>>3>>>>>>>>>>3>>>>>>>3>>>>>>>>>3333------111111111111-------3333>>>3>3>3>>>3>3>>>>>>>3>3>>>>>>>>>>>3>>3>3>4>4>33::::::::::::::::::::::::::::::X:X::X:::X:X:X:X:X:X4#          ###############               ###############               ###############               ###############               ###############               ###############",
"               ###############               ###############               ###############               ###############               ###############               ###########=$=$=$================&=&===&==&=&=&&=&&&&&=&&&&&&=5444404044040404040444404440404044440444404040444404440404044444444444444044444440444440464644464646446444464646464444>4646444464446444>4464>446>4464>64444>44>4>4>4>4>44>4>44>4>4>4>4>4>4>4>4>4>>4>4>4>4>4>4>4>4>4>>4>>>4>>3>>>>4>>4>4>>>4>>>>>4>4>>>3>>>4>>4>>>>>>>>>>4>>>>>3>3>3>3>>>>>3>>>3>>>>>>>>>>>>>3>>3>>>>>>>>>>>>>>3>>>3>>>>>>>>>>>>>>>>>>>>>>>>>>>>>>>>>>>>>>>>>>>>>33333-------------------3333>3>>>>>>>>>3>>>>>3>3>3>>>>>3>3>3>3>3>>3>>>>>>3>>>3::::::::::::::::::::::::::::::::::::X:X:X:X:X:X:XXX#          ###############               ###############               ###############               ###############               ###############               ###############",
"               ###############               ###############               ###############               ###############               ###############               ##########3$======$===========&======&==&=&=&&=&&=&&=&&&&&&&&%44040444044440444440404440444444404444040444440404440444444404040404404044404404444046444444646444444644646444444464646444>46444>64>46446444464446>444>4>6>46>4464444>4>44>4>44>44>44>44>4>4>44>44>4>4>4>4>4>>4>4>>4>>4>4>4>4>4>4>>4>>>4>3>>4>3>>3>>4>>4>3>>>>3>4>3>3>>>>>3>>3>>>>>>>>>3>>>>>>>>3>>3>>>3>>>>>>>>>>>>3>>>3>>>>>>>>>>>>>>>>>>>>>>>>>>>>>>>>>>>>>>>>>>>>>>>>>>>>>>>>>333333------------3-33333>>>>3>>>3>>>>>3>>>>>>>>>3>>>>>>>>>>>>>>>>4>3>>>>3>3:::::::::::::::::::::::::::X::X:X:X::X:::X:X:XX:X:X-q         ###############               ###############               ###############               ###############               ###############               ###############",
"               ###############               ###############               ###############               ###############               ###############               ##########&$==$=$====$===========&=&==&=&=&=&=&=&&=&&&&&&&&&=744044040440404440404440404404040440404444404044444044404040444444450444444444444644444464646444464646446444446464644444464644>4644464444>46>44>4>44>4>46444444>4>4>6>4464>44>4>44>4>4>4>4>4>4>44>>4>4>4>4>>4>4>4>>4>4>4>4>>>4>>4>>4>>>4>>4>4>>>4>>4>>>>>>>>>4>>>>>>>>>3>3>>>>>>>>3>>>3>>>>>>>3>>>>>>>3>>>>>3>>3>>>3>>>>>>>>3>>>>3>>>>>>3>>>>>>>>>>>>>>>>>>>>>>>>>>>>>>>>>>>>>>>>>>>>>33333333-3-33333333>3>>>>>>>3>>>>3>>>>>3>>>3>>>>>>3>>>>3>>>4>3>>>>4>>4>>3<::::::::::::::::::::::::::::::::::X::X:X:X:X:X:XXXX#         ###############               ###############               ###############               ###############               ###############               ###############",
"###############               ###############               ###############               ###############               ###############               ###############        #2$$=$=======================&=&=&=&=&&&=&&&&&&=&&&&=84404044404404040444040444044044440444404044440404440444444440404040440440404044044046404446446464464464464646444446464644446464464>446>6444464646464644>4>6>46446>444>4>46>46>4>6>44>4>4>4>44>4>44>>4>>4>4>>4>4>4>4>>4>>>4>4>>4>>4>>4>>>4>>>>4>>>4>>3>4>>4>>>>4>>>4>>>>>>>>3>>>>>>>>>>>>3>>3>>>>>3>>>>>>>>>>>>>>>>>>>>>>>>>>>>>>>>>>>>>>>>>>>>>>>>>>>>>>>>>>>>>>>>>>>>>>>>>>>>>>>>>>>>>3>333333333333>3>>>>>3>>>>>>>>>>>>>>>>>>>>>>3>>>>>3>>>>3>>>>>>3>>>>>>>3<::::::::::::::::::::::::::::X::X:::X::X:X:X:X:X:X:X #########               ###############               ###############               ###############               ###############               ###############               ",
"###############               ###############               ###############               ###############               ###############               ###############        #o$=====$==$=============&=&===&==&=&=&=&&=&=&&&&&&&=04404404044040444040444040440440404404044440404444044404040404444444044404444444404444444404464644646446446464464646446446464446>4464644446>64>44>4>44>4646444>6>44>6>46>4>4>44>44>4>6>46>46>44>4>6>4>4>4>4>4>>4>>4>>4>>4>4>>4>>4>>4>>4>4>>>4>>>4>>>>4>>>>>>>3>>>3>>>4>>4>>>>>>>3>>>3>>>>>>>>>>>>>>>>>>>>3>>>>>>>>>>>>>>>>>>>>>>>>>>>>>>>>>>>>>>>>>>>>>>>>>>>>>>>>>>>>>>>>>>>>>>>>>>>>>>>>>>>>>3>>3>>>>>>>>>>>>>>>>>>3>>>>>3>>>3>>>>>>3>>>>>>>>>>>>>4>>>>>>4>>3;::::::::::::::::::::::::::::::::X:X::X:X:X:X:X:XXXX,#########               ###############               ###############               ###############               ###############               ###############               ",
"###############               ###############               ###############               ###############               ###############               ###############       q@$$=$=$===============&======&==&=&=&=&&=&&&&&&&&&&&=44040440404444040440404404404044044044404044440404404044444440404044440444040404444040464644644646446464644464646444644>64>464644644>4646>4446464646464>4>4>6>444>644>4>464>6>64>64>44>4>4>4>>4>4>4>4>6>4>>4>4>4>4>4>4>4>>4>4>>4>>>>4>>>>>4>>>4>>>4>>>>4>>4>>>>>>>>>>>>>>>>4>>>>>>>>>>>>>>>>>>>3>>>>>>>>>>>>>>>>>>>>>>>>>>>>>>>>>>>>>>>>>>>>>>>>>>>>>>>>>>>>>>>>>>>>>>>>>>>>>>>>>>>>>>>>>>>>>>>>>>>>>>>>>>>>>>>>>>>>>>>>3>>>>>>>>>>>>>>>>>>>>4>>>>>>>>>4>>>>>>>3::::::::::::::::::::::::::X::X:::::X::X:X:X:XX:X:X:X#########               ###############               ###############               ###############               ###############               ###############               ",
"###############               ###############               ###############               ###############               ###############               ###############       #7$=$====$=$==============&=&==&=&=&=&&=&&=&=&&&=&&&&=40440404404040404404604044044440440440440440404444044404040404444440404440444444046444646464646464646446446644644646464646464>464646464>46464>64>4>4>4>64646446>64>4>646>4>444>6>4>46>4>6>4>44>6>4>6>4>4>64>6>>6>>4>>>4>>4>>>>4>>4>4>>>4>4>>4>>>4>>>>4>>>>>>>4>>4>>4>>>>>>>>>>>>>>>>>>>>3>>>>>>>>>>>>>>>>>>>>>>>>>>>>>>>>>>>>>>>>>>>>>>>>>>>>>>>>>>>>>>>>>>>>>>>>>>>>>>>>>>>>>>>>>>>>>>>>>>>>>>>>>>>>>>>>>>>>>>>>>>>>>>>>>>>>>>>>3>>>>>>>>>>>>>>>>4>>>>>>4>>>4>3::::::::::::::::::::::::::::::::X:X::X::X:X:X:X:XXXX<########               ###############               ###############               ###############               ###############               ###############               ",
"###############               ###############               ###############               ###############               ###############               ###############       #$$==$=$======$===============&=&=&=&=&=&&&&&&&&&&&&&=560404040404040404040440404040440440440440404404044040444044404040444404044040464404646404404646464646464644646464646464646464646>464646464>644646464646>4>4>644>6464>4>646>6>44>6>6>46>4>4>6>4>4>6>4>6>4>>4>4>4>6>6>4>6>>6>4>>4>>>>4>4>>>>4>>4>>>4>>>>4>>4>>>>>>>>>>>>>>>>>>>>>>>>>>>>>>>>>>>>>>>>>>>>>>>>>>>>>>>>>>>>>>>>>>>>>>>>>>>>>>>>>>>>>>>>>>>>>>>>>>>>>>>>>>>>>>>>>>>>>>>>>>>>>>>>>>>>>>>>>>>>>>>>>>>>>>>>>>>>>>>>>>>>>>>>>>>>>>>>>>>>>>>>>>4>>>>>>>>>3::::::::::::::::::::::::::::X::X:::X::X:X:X:X:XX:X:XX########               ###############               ###############               ###############               ###############               ###############               ",
"###############               ###############               ###############               ###############               ###############               ###############      #6$==$=====$=============&==&=&===&==&=&&=&=&=&=&&&&&&=46440404044040440404040404044040440440440444044044044404640404440440404444404440464464044464446464464646464646464646464464464646446>46>46>464646>46>46>4646464>464>4>6464>4>44>64>44>6>4>6>4>4>>6>4>6>4>4>6>4>6>4>4>4>>4>4>4>>6>>4>6>>>>>4>>>>>>4>>>>4>>>>>>>>>4>>>>>4>>4>>>>>>>>>>>>>>>>>>>>>>>>>>>>>>>>>>>>>>>>>>>>>>>>>>>>>>>>>>>>>>>>>>>>>>>>>>>>>>>>>>>>>>>>>>>>>>>>>>>>>>>>>>>>>>>>>>>>>>>>>>>>>>>>>>>>>>>>>>>>>>>>>>>>>>>>>>>>>>>>>>>>>>>>>>>>>>>>>>>4>>3:::::::::::::::::::::::::::::::::X:X:X:X:X:X:XX:XXXXX-#######               ###############               ###############               ###############               ###############               ###############               ",
"###############               ###############               ###############               ###############               ###############               ###############      #%$=$==$=$===$=============&===&=&=&=&=&=&&&&&&&&&=&&&%4604040404040404040404040404040404040404040404040440404404440404404404040404404404046446646404646464646464646464646464664646464>646464646464>6>464646>46>4>6>646>646>4>6>646>64>64>6>46>64>6>646>4>4>4;>6>4>6>>4>>6>>6>>6>>>6>>4>>>4>6>4>>6>4>>>>>4>>>>>4>>4>>>>>>4>>>>>>>>>4>>>>>>>>>>>>>>>>>>>>>>>>>>>>>>>>>>>>>>>>>>>>>>>>>>>>>>>>>>>>>>>>>>>>>>>>>>>>>>>>>>>>>>>>>>>>>>>>>>>>>>>>>>>>>>>>>>>>>>>>>>>>>>>>>>>>>>>>>>>>>>>>>>>>>>>>>>>>>>>>4>>>>>>>>>>4>>>>>>3::::::::::::::::::::::::::X::X::::X:::X:X:X:X:XX:X:XX:#######               ###############               ###############               ###############               ###############               ###############               ",
"###############               ###############               ###############               ###############               ###############               ###############     q@$$=$=$===$=====================&==&=&=&&=&=&=&&&&&&&$74640404040404040404040404040404040404040404040444044044044044044044044440440464644440464046466464646464646464646464646446464>6464646>46464>646464>6>46464646446>46>46>644>6>4>6>4;4>64>4>464>4>>4>6>6>4>4>6>>4>6>6>>4>>4>6>4>4>>6>6>>>>>6>>>>6>4>6>>>>6>>>>>>>4>>>>>>>>>>>>>>>>>>>>>>>>>>>>>>>>>>>>>>>>>>>>>>>>>>>>>>>>>>>>>>>>>>>>>>>>>>>>>>>>>>>>>>>>>>>>>>>>>>>>>>>>>>>>>>>>>>>>>>>>>>>>>>>>>>>>>>>>>>>>>>>>>>>>>>>>>>>>>>>>>>>>>>>>>>>>>>>>>>>4>>4>>>>>>4>>3,:::::::::::::::::::::::::::::::X::X:X:X:X:X:XX:X:XXX+#######               ###############               ###############               ###############               ###############               ###############               ",
"###############               ###############               ###############               ###############               ###############               ###############     #7$=$===$====$====$======&==&=&==&=&=&=&=&&&&&&&=&&&&&=7460404040404040404040404040404040404040404404404040440404040440440440404404404040404464646464646646646466464646464646466464664646464646>6464646>64646>6>46>6>6>46>64>64>64>664>64>64>6>6>4>6>6>6>6>4>6>6>4>6>6>>4>4>6>6>>>4;>6>4>>>4>6>>>4>6>>>>>>>6>>>>6>>>>>>>>>>>>>>>>>>>>>>>>>>>>>>>>>>>>>>>>>>>>>>>>>>>>>>>>>>>>>>>>>>>>>>>>>>>>>>>>>>>>>>>>>>>>>>>>>>>>>>>>>>>>>>>>>>>>>>>>>>>>>>>>>>>>>>>>>>>>>>>>>>>>>>>>>>>>>>>>>>>>>>>>>>>>>>>>>>>>>>>>>>>>>>>>>4>>>>><::::::::::::::::::::::::::X:X:X::X::X::X:X:X:XXXX:X:X;######               ###############               ###############               ###############               ###############               ###############               ",
"###############               ###############               ###############               ###############               ###############               ###############     #$$$=$=$===$===================&==&=&=&&=&=&=&=&&&&&&&=8460404040404040404040404040404040404040404040404040404040440404040404040640464464640404640466466466464664646664664664646>64646466464646464646>64646>64646>64646>64>646>6>66>4;46>6>6>6>46>6>4>6>4>6>6>4>>6>4>4>6>6>6>4>6>6>4>>6>>6>6>>4>6>>>>>6>>6>>>>4>>>>>6>6>>6>>>6>>4>>>>>>>>>>>>>>>>>>>>>>>>>>>>>>>>>>>>>>>>>>>>>>>>>>>>>>>>>>>>>>>>>>>>>>>>>>>>>>>>>>>>>>>>>>>>>>>>>>>>>>>>>>>>>>>>>>>>>>>>>>>>>>>>>>>>>>>>>>>>>>>>>>>>>>>>>>>>>>>>>>>>>>>>>>>>>>6>>;>>6>><:::::::::::::::::::::::::::::::X::X::X:X:X:X:X:X:XXXXX######               ###############               ###############               ###############               ###############               ###############               ",
"###############               ###############               ###############               ###############               ###############               ###############    #4$==$===$=$===$============&====&==&===&=&&=&&&&&&&&&&=0464040404040404040404040404040404040404040404040404044044044044044044404404640404646464044646646464666464664646464646646466464646>66>646>6464646>6464>6464>6>6464666>6464>46>4>64>46>46>6>4>64>6>6>4>6>6>6>6>6>>4>>>6>>4>>>6>>>6>>>>6>>>>>6>>6>>>>>6>>>>6>6>>>>>>>>>>>>>>>>6>>>>>>>>>>>>>>>>>>>>>>>>>>>>>>>>>>>>>>>>>>>>>>>>>>>>>>>>>>>>>>>>>>>>>>>>>>>>>>>>>>>>>>>>>>>>>>>>>>>>>>>>>>>>>>>>>>>>>>>>>>>>>>>>>>>>>>>>>>>>>>>>>>>>>>>>>>>>>>>>>6>>>6>>>>>>>>>>>>>>;:::::::::::::::::::::::::X::::::X::X:X:X:X:XX:XXX:XXX+1#####               ###############               ###############               ###############               ###############               ###############               ",
"###############               ###############               ###############               ###############               ###############               ###############    #%$=$=$=$====$=================&===&=&=&=&&=&&=&=&&=&&&=0460404040404040404040404040404040404040404040404040404040404040440404044044040464040466466666404666464646646646646664646646466>646464664646>6>64646>6646>6646>6>6>4>46>6>66>6646>66>46>4>66>6>6>64>6>6>6>4>>6>>6>6>6>>6>6>6>4;4>>6>6>>6>6>>6>>>6>6>>>>6>>>>>>>>>6>>6>>>>;>>>>>>>>>>>>>>>>>>>>>>>>>>>>>>>>>>>>>>>>>>>>>>>>>>>>>>>>>>>>>>>>>>>>>>>>>>>>>>>>>>>>>>>>>>>>>>>>>>>>>>>>>>>>>>>>>>>>>>>>>>>>>>>>>>>>>>>>>>>>>>>>>>>>>>>>>>>>>>>>>>>>>>>>>>>>6>>>6>>6>>>;:::::::::::::::::::::::::::X:X:X::X:X:X:X:X:X:X:XX:X:X,#####               ###############               ###############               ###############               ###############               ###############               ",
"###############               ###############               ###############               ###############               ###############               ###############   qq$$=$==$==$=================&===&=&==&=&=&=&&=&&&&&&&&&=060404040404040404040404040404040404040404040404040404040404040404040404040404640464664040440464664046666466466466464666466664664666464666>66466>66464>6646>64646>6666>646>46>6>6>6>6>6>66>46>66>6>6>6>4>6>6>6>6>6>6>6>>6>>>6>>6>6>>>6>>>>6>>>6>>>>6>6>>>6>>6>;>>>>>>>;>>>>;>>;>6>>;>>;>>>>>>>>>>>>>>>>>>>>>>>>>>>>>>>>>>>>>>>>>>>>>>>>>>>>>>>>>>>>>>>>>>>>>>>>>>>>>>>>>>>>>>>>>>>>>>>>>>>>>>>>>>>>>>>>>>>>>>>>>>>>>>>>>>>>>>>>>>;>>>;>>;>>6>>>;>>;>>;>>>>>>>>>6>;:::::::::::::::::::::::::::::::::X::::X:X:X:XX:XX:XXXX+#####               ###############               ###############               ###############               ###############               ###############               ",
"###############               ###############               ###############               ###############               ###############               ###############   #8$$=$=$==$==$==$==$=======&===&=====&=&=&&=&=&&&&=&&&&&=0640400400404040404040404040404040404040404040404040404040404040404046404046404664040404640464040464646466466466646664646646464664646>66>466464646>6>666>6>646>6>646>46>6>66>46>46>46>6>6>6>6>4>6>6>6>6>6>6>6>>4>6>>6>>6>6>6>>6>>>>6>>6>6>>>6>>>>6>>>>>;>>;>>>>6>>6>;>>>>6>>>>>>>>>>>>>>;>>;>>;>>>;>>>>>>>>>>>>>>>>>>>>>>>>>>>>>>>>>>>>>>>>>>>>>>>>>>>>>>>>>>>>>>>>>>>>>>>>>>>>>>>>>>>>>>>>>>>>>>>>>>>>>>>>>>>>>>>>>>>>>>>>>;>>;>>>;>>>>>>>>>;>>>>>6>>>>>;>6>;>>>>::::::::::::::::::::::::X::X::X:X:X:X:X:X:X:X:XX:XXXX:+>####               ###############               ###############               ###############               ###############               ###############               ",
"###############               ###############               ###############               ###############               ###############               ###############   #$$=$=$==$=====$================&=&=&=&==&=&&&=&=&&&&=&&=06600400400404040404040404040404040404040404040404040404040440440404040464040404046646404640464640404666646646646664666646666>66466666466646>666646664>64664;6466>6>66>646>66>66>66>646>6>6>6>6>66>6>6>6>6>6>66>6>6>6>6>>>6>>6>6>6>>6>>>6>6>>6>6>>;4;>6>>6>>6>>>>;>>>6>;>>>;>>;>>;>>;>>>>>>>>>>>;>>>;>>;>>;>>;>>>;>>>>>>>>>>>>>>>>>>>>>>>>>>>>>>>>>>>>>>>>>>>>>>>>>>>>>>>>>>>>>>>>>>>>>>>>>>>>>>>>>>>>>;>>;>>;>>;>>;>;>;>;>>>>>>>>>>>;>>;>;>>>>;>>>>>;>6>>>>>>6>>>:::::::::::::::::::::::::::::X::::X:X:X:X:XX:XX:XX:XXXXX####               ###############               ###############               ###############               ###############               ###############               ",
"               ###############               ###############               ###############               ###############               ###############               ###-$$$==$=$==$=$================&=====&=&=&=&=&=&&&&&&&&&&=64004004004000400400404040404040404040040404040404040404040404004040404040404664040404046666666664666664666666666646664664646646666>646646666646>6>6466666>6466>6646646>6;46>66>66>6>6>6>46>6>66>>6>6>6>6>6>6>>>6>>6>6>>66>>6>6>>6>6>>6>;>>6>>;>>6>;>>>6>>>;>>;>6>>;>>>>>;>>6>>;>>;>>>;>;>;>;>;>>>>>>>>>;>>>>>>;>>>>;>>;>;>>;>>;>>;>>>>>>>>>>>>>>>>>>>>>>>>>>>>>>>>>>>>>>>>>>>>>>>>>>>>>>>;>>;>>;>>;>;>>>>>>>>>>>;>>>>>>>>>;>>;>>;>;>>;>>>>>>;>>>6>;>>>>;>;>6>>;>>:::::::::::::::::::::::::::X:::X:X::::X:X:X:X:XX:XXX:XXX2q  ###############               ###############               ###############               ###############               ###############               ###############",
"               ###############               ###############               ###############               ###############               ###############               ###o$$=$=$==$=====$================&=&==&=&=&=&&&=&=&=&&&&&=66040040600404040040040040040404040404040404040404040404040404040404040404040404664040466640466666646640464646464666466666666466>64666>66>646>666664;64>6466>6>64;6>6>6646>66>6>6>66>66>6;4;4;4>66>6>66>6>6>6>6;>6>6>>6>>>6>;>>6>;>>6>;>6>;>6>>6>>>6>6>>;>6>>;>>>;>>6>;>6>>>>>>>>>>>;>>>>>>>>>>>;>;>;>>>>>;>>;>>>>;>>>>>>>>>>>>>>>>>>;>>>>;>>>>>>>>>>>>>>>>>>>>>>>>>>>>>>>>>>>;>>>>>;>>;>>>>>>>>>>>>>>>>;>>;>>;>>>>;>>;>>>>>>;>>>>>>>>>>;>;>;>>;>>>>6>;>>6>>>;>>6>:::::::::::::::::::::::::X:::X::X:X:XX:X:X:X:XX:XX:XXXXX,#  ###############               ###############               ###############               ###############               ###############               ###############",
"               ###############               ###############               ###############               ###############               ###############               ###$$$=$=$=$==$=$====$===========&=====&=&==&&=&=&&&&&&&&&&$46000400404000400400404040404004004004004040404040404040404040404040404040404040406664040404666404666666666666666666664664646666666646664666666>64666>6666>6666666>6666>6>64;466>66>6>6>66>6>66>6>6>6>>6>6>6>6>6>6>6>6>6;6>6>6;>6>6;>6>6>>6>>6>;>6;>>>;>6>>>;>4;>>6>>;>>>;>;>;>;>;>;>>>;>;>;>;>;>>>>>>;>;>>;>>>>;>>>>>;>>;>>;>>;>>>;>>>>;>>>>;>>;>>>;>>;>>;>>;>>;>>;>>;>>;>>;>>>>>;>>>>>>;>>>>;>>;>;>>;>>>>>;>>>>;>>>>>;>;>;>>>;>;>;>;>;>>>>>>>>;>;>;>>;>>>;>>6>>>:::::::::::::::::::::::X:::::::X:::X::X:X:X:X:XX:XXXX:XX+#  ###############               ###############               ###############               ###############               ###############               ###############",
"               ###############               ###############               ###############               ###############               ###############               ##4$$=$==$==$=====$============&===&=&==&=&=&=&&&=&=&&&=&&&=404040040004040040040004000404004004004000400404040040400404040404040404040404040460406666666666666646666666666646646666666666464666664666>646666>66466>666>6>6>6466>6>6666>66>66>66>66>6>66>6>6>6>6>66>6>6>6>6>6>6>;6>6>>6>6>6>;>6>>;>6>;>;>;>6>>>6;>6>>;>6>;>;>;>;>>;>;>>;>>;>>>;>>;>>>>>>>>>>;>;>;>>>>>;>>;>>>>;>;>>>;>>;>>>>>;>>>>;>>>>;>>>>>>;>>>>>>>>>>>>>>>>>>>>>>>>>>>;>>>>>;>>;>>>;>>>>;>>>>;>>;>;>>>;>;>>;>;>>>>;>>;>>>>>>;>>>;>;>;6>;>>;>>;>6>;>6>;>;>>::::::::::::::::::::::::::X:X:::X:X:X:X:X:XXX:XXX:X:XXXXX3# ###############               ###############               ###############               ###############               ###############               ###############",
"               ###############               ###############               ###############               ###############               ###############               ##%$$$=$=$=$==$=$================&====&=&==&=&=&=&&&&=&&&&&$400004004040004004004040040400040040040040404040040400404040404040404040404040404064046640404046640406664664664666666666466646666664666>66666>646666;6666>6666666;6>666>6>66>6>6>66>6>66>66>6;6>6;6>6;>6>6>6>6>6>6;>6>6>;6>6>;>6>6>6>6>;>6>6>6>;>6;>>>>;>6>;>>6>>6>>;>6>>;>>;>>6>;>>;>>;>;>;>;>;>>>>>>;>;>>;>>>;>;>>>>;>>>>>>;>;>>>>;>>>>;>>>>;>;>>>;>>;>>;>>;>>;>>;>>;>>;>>;>>>;>;>>>>>>>>>;>;>>>>;>>;>>>>>>;>>>>;>>>;>;>>;>>;>;>;>>;>;>>>;>>;>>6>>;>>>;>>;>>6>>3::::::::::::::::::::::::::::::X::X:::X:X:X:X:X:X:XXXXXXXX,# ###############               ###############               ###############               ###############               ###############               ###############",
"               ###############               ###############               ###############               ###############               ###############               ##$$$=$=$=$==$====$===$============&===&=&=&=&=&&=&=&&&&&&&=4040000400004004004000404000404040040040400400404040400400400404060406040666040666604066040404066666640406666666666664666666666666666666664666666>6466>6666>6>6>6466>6666>66666>66>666>66>6>6>66>6>66>6;6>6;6>6>;4;6>;>6>;>6>6>;>;>;6>6>6>;>;>6>;>>6;6>;>;>6>;>;>;>;>>;>;>6>>;>;>>;>>;>;>;>>;>>;>;>;>;>>;>>>;>;>>>;>;>>;>;>;>>>>;>;>>>;>>>>;>>>>>>;>>>;>>>>>>>>>>>>>>;>>;>>;>>>;>>>>;>;>;>;>>>>;>;>>>;>>;>;>;>>;>;>>;>>>;>>>;>>;>;>;>>;>;>;>>;>>;>;>6>;>6>;>;>;>6>::::::::::::::::::::::::X::X:::X::X:X:X:X:X:XXXX:XX:XX:XX+# ###############               ###############               ###############               ###############               ###############               ###############",
"               ###############               ###############               ###############               ###############               ###############               #6$$=$=$=$==$===$===============&===&=&===&=&=&&=&&&&&&&&&&$4000404000400400400040040064000400404004040404040040040404040400404604660406666666640404666666646666666664666666664666666646666466>66>666666666>6666>6666>66666666>66>6>66>6>6>66>66>;6>6>6;66>6>6;6>6>6>6>6>6>6>>6>66>6>6;>6;>6>6>6>;>;>;4;4;>;>6>;>>;>6>;>;>;>>;>>6;>;>>;>;>;>>;>>;>>;>>>;>;>>;>>;>>;>>;>;>>>;>;>>>>;>>>>>;>;>>>>>;>>;>;>>>>;>;>>>;>>>>;>;>;>;>;>;>>>>>>>>>;>>>>;>>>>>>>>>;>;>>>>;>>;>>;>>>;>;>>>;>>;>>;>;>>;>>>>>>;>>>;>>;>>;>>;>>;>;>;>>6>>;>>:::::::::::::::::::::::::::::X::X:X:X:X:X:XX:X:XX:XXXXXXXX4################               ###############               ###############               ###############               ###############               ###############",
"               ###############               ###############               ###############               ###############               ###############               #%$$$=$=$=$==$=$==$====================&=&=&=&=&&=&=&=&&&&&=6040000040004004004000400400040040040040000040004004040040040040604040040404040404066660666660406666666666666666666666666666666666666666>66>6666666666>6666>66>6>6666666;66;66;6>6;666>66;6>6>6;6>6>6;6>6;66;6;6;6>;>6;>6>6>;4;6>6>;>>6>6>;>;>6>6>;>6;>;>;>6>;4;>6>;>>>6>;>;>>;>;>;>;>;>;>;>>;>;>;>>;>>;>>;>;>;>>>;>;>>;>;>;>>>;>;>;>>;>>>;>;>>>>>;>>>;>;>>>>>>>>>>>;>;>;>;>>>;>;>>;>;>;>;>;>>>;>;>>;>>;>>;>;>>>;>;>;>;>;>>;>;>;>;;>;>;>;>;>;>;>;>;>;>6>;>;>;>6>>>:::::::::::::::::::::::X::X:::X::X::X:X:X:X:XXX:XXX:XXXXXX,################               ###############               ###############               ###############               ###############               ###############",
"               ###############               ###############               ###############               ###############               ###############              q#$$$=$=$==$=$========$=============&=&==&=&=&&=&=&&&&&&&&&&$6000004000400000000404004004000400400400404004040040400400400404040060404060406060604066404066660406666666666666666666666666666666666666666666>6666>66666>666666666>6;6>66>66>66666;4;66>6>66;66>66;6>6;6;>6>6>6>6>66;>6;6;6>;6>;;>6;6;>;;>6>6>;>;6>;>6>;;>;>;>;>;>;>;>;>;>;>;>;>;>;>;>>;>;>;>;>>;>;>;>;>;>>;>>;>;>>;>;>>;>>;>;>>;>>;>>;>;>>>;>;>;>;>;>>>;>;>;>;>;>;>>>;>>>>;>>;>>;>>>;>>;>>;>;>;>>;>>;>>;>;>>;>;>;>>;>>;>;>;>;>;>;>;>;>;>;>;>;>;>6>;>;>;>6;>;>;;>::::::::::::::::::::::::::::X::X::X:X:X:X:XX:X:XX:XXXX:XXX+################               ###############               ###############               ###############               ###############               ###############",
"               ###############               ###############               ###############               ###############               ###############              #6$$=$=$=$=$==$=$=$=============&==&===&==&==&=&=&&=&=&&=&&&=0404000040004040400000400400404004004004004040040400040040404006040404060404064046660406066666666664066666666666666666666666666666666666666666666>66666>666>6>66;6;666666>66>66>;6>66>6;666>6>6>6;>6>6>6>6>;6;6;6;6>;4;>6>>6;6>;6>6>;>6>6>6;>;6>;>;>6>;>;>>;>6>;>;>6>;>;>;>6>;>;>;>;>;>;>;>;>>;>;>;>;>;>;>;>>;>;>;>;>;>;>>;>>;>;>>;>>;>>;>;>;>>;>>>>;>>;>>>;>>;>>;>>;>;>>;>;>;>>;>>;>;>;>>;>>;>>>;>;>;>;>>;>;>;>>;>;>;>;>;>>;>>;>>;>>;>;>;>;>6>;>;>;>;>;>;>>6>;>>>::::::::::::::::::::::::X::X::X:X::X:X:X:X:XX:XX:XXX:XXXXXX4###############               ###############               ###############               ###############               ###############               ###############",
"               ###############               ###############               ###############               ###############               ###############              #&$$=$$=$=$==$======$===================&=&=&=&=&&=&&&&&&&&&=0000004000400000004040040040000000400040060004000040400404000404060606040606060604066040404060406660666660666666666666666666666666666>6666>6666666666;666666666>66666>6>66;666;66666;6;66>;6;6;6;66;6;6;6;6>6>6>6>;6>6;6>;6>;>6>6>;6>6;;>;;>6;>;6>6;;>;6>;;6;>;>6;>;>;6>;>;>;>;>;>;>;>;>;>;>;>;>;>;>>;>;>>;>;>;>>;>;>>;>;>;>;>>;>;>;>;>;>;>>;>;>>;>;>>;>;>;>>;>;>>;>;>>;>;>;>>;>;>;>;>;>>;>;>;>;>;>;>;>;>;>>;>;>;>;>;>;>;>;>;>;>;>;>;>;>;>;>;>;>;>;>;>;>6;>;;>;6>;::::::::::::::::::::::X::::::X::::X:X:X:X:X:XX:XXX:XXXXXXXX:###############               ###############               ###############               ###############               ###############               ###############",
"               ###############               ###############               ###############               ###############               ###############             q#$$$$=$==$=$==$=$=$=====$=========&=&=&==&=&=&=&=&&=&=&&&&&&=004000000000400400000000000040404000400040040040400004000040400604040606040404066066040666066606604660666666666666666666666666666666666666666;66666;6666;6;66;666>6;666;666;6;6>6;6>666>666;6>66>6>6>6;6>66;6;6;6;6>6;6>6;6;6;;6;;6>;>6>6;>6;>6;>;>;>6>;>6>>;;>;>;>;;>;>;>;>;>;>;>;>;>;>;>;>;>;>;>;;>;>;>;>;>;>;;>;>;>;>;>;>;>;>;>;>;>;>>;>;>;>;>;>;>;>;>;>;>;>>;>;>>;>;>>;>;>;>>;>;>;>;>;>;>;>;>;>;>;>;>;>;>;>;>;>;>;>;>;;>;>;>;>;>;>;>;>;>;>;>;>;>6;>;>;>;>;>;>;::::::::::::::::::::::::X::X::X:X:X:X:X:XX:XX:XX:XXXXXXXXXX+###############               ###############               ###############               ###############               ###############               ###############",
"               ###############               ###############               ###############               ###############               ###############             #0$$=$=$=$==$=$=======$===================&==&=&=&&=&&&&&&=&&=040000400400000000404040404000000040004004004000004040040400040406004040606060660406606606666666666066660666066666666666666666666666666;666666666;6666666666666;66666;666;66>6666>66>6;6;6>66;6;6;6;6>6;6>;6>6;>6>;6;>6;;6>;>6>;>6>;6;6;;>6;>;;>;6>6;;>;;>;;6>;6;>;6>;>;6>;>;;>;>;>;>;>;>;>;>;>;>;>>;>;>;>;>;>;>>;>;>;>;>;>;>;>;>;>;>>;>;>;>;>;>;>;>;>;>;>>;>;>;>;>;>;>;>;>;>;>;>;>;>>;>;>;>;>;>;>;>;>;>;>;>;>;>;>;>;>;>;>>;>;>;>;>;>;>;>;>;>;>;>;;>;>;>;>6;>6;6>;::::::::::::::::::::::::::::X::X:X::X:X:X:X:XX:XXXXX:XX:XXXX3##############               ###############               ###############               ###############               ###############               ###############",
"               ###############               ###############               ###############               ###############               ###############             #&$$$=$$=$=$==$=$=$==$===========&===&=&=&=&=&=&&=&&=&=&&&&&&=0000000000040000400000000000404000004000000400404000040060604000406006040666040606606660406060660666666666666606666666666666666666666666666;666;6666;6;666;6;6666;6;666;666;66;6;66;66;6;6;6>6;66>6;66;6;66;;6;6;6;>6;6>6;6;6;6>6;;6>;>6;6;>6;>6;>;;>6;6>;>;>;>;>;>;;>;>;;>;>;;>;>;>;>;>;>;>;>;>;>;;>;>;>;>;>;>;;>;>;>;>;>;>;>;>;>;>;;>;>;>;>;>;>;>;>;>;>;>;>;>;>;>;>;>;>;>;>;>;>;>;>;>;>;>;>;>;>;>;>;>;>;>;>;>;>;>;>;>;>;;>;>;>;;>;;>;>;>;;>;;>;>;;>;6;>;;>;;>;>;:::::::::::::::::::::X::X:X:::X::X:X:X:X:XX:XXX:X:XXXXXXXXXXX##############               ###############               ###############               ###############               ###############               ###############",
"               ###############               ###############               ###############               ###############               ###############            qq$$$=$=$=$=$=$=====$===============&========&=&=&=&=&&&&=&&&&=800000000000004000000040004000004040000404000000040400040040060600404060060060606604060606660406660606060660666666066666666666666;6666666666666666666666;666666;666666;66;66;66;66;66;666;66;66;6;6;6;6>6;6;6>6;6>6;6;6;;6>;6>;6;>6;;6;>;>6;>6;;6;>6;>;>;6;6;;6>;;6;>;6;;>;;;6>;>;;;>;;;>;;;>;;;>;;>;;>;;>;;>;;>;>;>;>;>;>;>;>;>;>;>;>;>;>;>;>;>;>;>;>;>;>;>;>;>;>;>;>;>;>;>;>;>;>;>;>;>;>;>;>;>;>;>;>;>;;>;;>;>;;>;>;>;;>;>;;>;;>;;>;>;;;;>;;>6;;6>;>;>;;>;6>;;><:::::::::::::::::::::::::::::X:X::X:X:X:X:XX:X:XXXXXX:XXXXXX+##############               ###############               ###############               ###############               ###############               ###############",
"###############               ###############               ###############               ###############               ###############               #############6$$$=$$=$=$=$=$=$====$===$===========&=&=&=&==&=&&&&=&=&&&&&&=80040004000000000040000040004000000040000040404000004060060060406006060404040604060606666060666066666666666666066666666666666666666666666;666666;666666666;66;666;6;6;66;66;66;66;6;6;6>66;66;6>6;66>6;6;6>6;6;6;6;6>;6>6;6;>6;;6;>6>;6;6;;;6;>;>;6;>;6;;>;>;>;;>;>;;>;>;;>6>;;;;>;>;;>;;>;>;>;>;>;>;>;>;>;>;>;>;;>;;>;;>;>;>;>;>;>;>;>;>;>;>;>;>;>;>;>;>;>;>;>;>;>;>;>;>;>;>;>;>;>;>;>;>;>;>;>;>;>;;>;>;>;>;;>;>;>;;>;>;>;;>;;>;>;>;;;>>;>;>;;>;>;;;;>;6>;;>;6>><::::::::::::::::::::::X:::X:X:::X:X:X:X:X:X:XXX:XX:XXXXXXXXXX4#            ###############               ###############               ###############               ###############               ###############               ",
"###############               ###############               ###############               ###############               ###############               #############&$=$$=$=$=$==$===$=$======================&=&=&=&=&=&&&&&&=&&=7600000000400004000040000000000400400040400000004040060060604000040606060060606060606606066606066060606606060660660660606666666666666;66666666;6666;6;6;6666666;6666666666;6666;66;6666;6;6;6;6;6;6;6;6;6;6;6;6;6>;6;6;;6;>;6;;6>;6;;6;>;>6;>;6;6;>;6;;>;>;;6;>;;6;>;;>;;>;;;>;>;>;;>;>;>;>;;;>;;;>;;>;;>;;>;;>;;>;;>;>;>;;>;;;>;;>;;>;;>;;>;;>;;>;>;>;>;>;>;>;>;>;>;>;>;>;>;;>;;>;;>;;>;;>;;>;;;>;;>;>;;>;;>;>;;>;;>;;;>;;>;;>;>;;;>;>;;;>;;;>;;;>;>6;>;;6>;;;;>,:::::::::::::::::::::::::X:::X:X::X:X:X:X:XXX:XX:XXXXXXXXXXXXX#            ###############               ###############               ###############               ###############               ###############               ",
"###############               ###############               ###############               ###############               ###############               #############$$$$=$=$=$=$=$=$=====$=============&==&=&==&=&=&=&&=&=&&=&&&&=%600000000000400000000400400400000004000004004000000400400060040600406060606040606606066060666606666660666666666666666666966966966696666666;6666666666666;6;66666;6;6;6;666;6;66;66;6;66;66;66;66;6;6;6>6;6;6;6;6;6;6;6>;6;6;6>;6;;6>;6;6;;6;>;;>;6;>;6;6;>;>;6;>;;6>;;6>;;>;;>;;;>;;;;>;;;>;>;>;>;;>;;>;;>;;>;>;>;>;;;>;>;;>;>;>;;>;>;>;>;;>;>;>;;>;;>;;>;;>;;>;;>;;>;;>;;>;>;>;;>;>;>;>;;>;;>;>;>;;>;;>;>;;>;;>;>;;>;>;;>;>;;;;>;>;;;>;>;;>;;>;>;;;>;;;>;;6>;;>,::::::::::::::::::::X::X:::X::X:X:X:X:XX:X:X:XX:XXX:XX:XXXXXX+#            ###############               ###############               ###############               ###############               ###############               ",
"###############               ###############               ###############               ###############               ###############               ############5$$$$=$$=$=$=$=$==$=$====$=================&==&=&=&=&&&=&&&&&&&&6000000000000000400000000000000004000004000000400400400004006006060006060606006060660606660606606060666606066060660669666666666666666966966696666;666;6666666;6;6666666;6;6666;66;66;6;66;6;6;6;6;6;6;6;6;6;6;6;6;6>;6;6;6;6;;6;;6;;6;>;;6>;;6;6;;;;>;;>;;6;;>;;;>;;;>;;>;;>;;;>;;;>;>;;>;;>;;;;;;>;;>;;>;;>;;;>;;;>;>;;;;>;>;;;>;>;;>;;;>;>;;>;;>;;>;;>;;>;;>;;>;;>;;>;;>;;;>;;>;>;;>;;;>;;>;>;;;>;;>;>;;;>;;>;;;>;>;;>;>;;;>;>;;;>;>;;;>;;>6;;;6;>;;;>;;>;;>6>:::::::::::::::::::::::::::X::X:::X:X:X:X:XXXX:XXXXXXXXXXXXXXX+-q           ###############               ###############               ###############               ###############               ###############               ",
"###############               ###############               ###############               ###############               ###############               ############7$$=$$=$=$=$==$==$====$==============&=&=&==&=&=&=&&=&=&&&&=&&=&4000000000000000000000000000040000000400004000000000004000040040060606060606060606060606060606066066060666606666606666606696696696666666669666;69666966;66;666666;6;6;6666;6;66;66;66;6;66;6;6;66;6;6;6;6;6;6;6;;6;6;6;;6;>;6;6;6>;6;;6;6;;6;>;;6>6;6;;6;;;>;6;>6;;>;;;;;6;;;>6;;>;;;;;>;;>;;>;>;>;;>;;>;;>;;>;;>;>;;;>;>;;;;>;>;;;>;;>;>;;;>;;>;;>;;>;;>;;>;;>;;>;;>;;>;;>;>;;>;;;>;;>;>;;>;;;>;>;;>;;;>;>;;>;;>;;;;;>;;;;>;;>;;>;;;;;>;;;>;;>;>;;;6>;6;;;;;;;>::::::::::::::::::::::X::X:::X::X:X:X:X:X:X:X:XX:XX:XXXXXXXXXX+9#           ###############               ###############               ###############               ###############               ###############               ",
"###############               ###############               ###############               ###############               ###############               ############$$$$$=$=$$=$=$==$===$======================&=&==&=&=&&&&&=&&&&&=4000000000000000000040000400000040040000000040040040600004006000060606060606660606060606060660660606606606066060666960669666666666696696;6666966666;66666966;6;6;66666;6;6;66;66;6;6;66;6;66;66;6;66;6;6;6;6;6;6;6;;6;;6;6;6;6>;;6;;6;6;>;6;;;6>;;;;;;>;;>;6;;;;;;6;;;6>;>;>;;;>;;;>;>;;>;;;;;>;;;;;;>;;>;;>;;>;;;;;>;;>;;>;>;;;;;>;;>;;;>;>;;>;;>;;>;;>;;>;;>;;>;;>;;>;;>;;;>;;>;>;;>;;;>;;>;>;;;>;;;>;;;;>;;>;;>;>;>;;;>;;>;;>;;;>;>;;;>;;;;;;;;;>;;;;;>6;>6;>::::::::::::::::::::X::X::::X:X:X::X:X:X:XX:XXXXX:XXXXXXXXXXXXXX#           ###############               ###############               ###############               ###############               ###############               ",
"###############               ###############               ###############               ###############               ###############               ###########q$$$=$=$$=$=$=$=$==$===$====$=======&===&=&==&=&=&=&&=&=&&&&&&&&=60000000000000000000000000000000000000040000000000000040000006060060060060600060606060606606060660606606606606696066669666966966966666669666666966966;6966;6966966;6;666666;66;66;66;6;66;6;6;6;6;6;6;6;6;6;6;6;6;6;6;6;;6;;6;;6;;6;;;;6;;;6;6;;6;;6;6;;6;;;;>;6;>;;>;;;;;;;;>;;;>;;;;;;;;>;>;;;>;>;;;;;;;;;;>;;>;>;;;>;;>;;;>;>;>;;>;;>;;;;;>;;>;;>;;>;;>;;>;;>;;>;;>;;>;;>;;;>;;;;>;;>;;;>;;;;>;;;>;;;>;;;;;;;;;;;;;;>;;;>;;;;;>;;;;;>;;6;>;>;;>;;;>;;;;;;;;>>:::::::::::::::::::::::::X:X::::X:X:X:X:X:XX:X:XXXXX:XXXXXXXXXX+ q          ###############               ###############               ###############               ###############               ###############               ",
"###############               ###############               ###############               ###############               ###############               ###########0$$$$$$=$=$=$==$==$==$===$============&=====&==&=&=&=&&&&=&=&&=&=0000000000000000000000000000000000000000040004000400600060040060060060606006060606060606060606060660606606696606660696660660669666969696669;6966;6666966;6666666;696696<6;96;66;66;66;66;6;66;6;6;6;6;6;6;6;6;;6;6;6;;6;6;;6;;6;6;;6;6;;6;6;;;;;;6;>;;6;;;6;;6;;;;;;6;;;;;>;;;;;;;;;;>;;>;;;;;;;;;;;>;;>;>;>;;;;;;;;>;;;;;;>;;;;;;;;;;;;;>;>;;;;;;;;;;;;;;;;;;;;;;;;;;;;;;;;;>;;;;>;;;;;;>;;;;>;;;>;;;>;;;;>;>;>;>;>;>;;;>;;;;;>;;;;;>;;;;;;;;;;;6;;6;;6>;6;;6;;:::::::::::::::::::::::X:::::X:X:X:X:X:XXX:XX:XX:XXXXXXXXXXXXXXX4#          ###############               ###############               ###############               ###############               ###############               ",
"###############               ###############               ###############               ###############               ###############               ###########%$$$=$=$=$=$=$=$=$==$==$================&=&==&=&=&=&=&=&=&&&&&&&=000000000000000000000000000040000400000000000000000000600060000600600600060606060606060606060606060660606066066969666069669666669666666696666669669666696696;96;66;6;666;66696;69;66;6;6;66;6;66;6;6;6;6;6;;6;6;;6;6;6;6;6;;6;;;6;;;6;;6;;;>6;6;;;;6;;;;>;;;;;;>;6;;;>;6;;6;;>;;>;;>;;;;;;>;;>;>;;>;;;;;;;;;;>;>;;>;;;>;;>;;;>;>;>;>;>;;;;;;;>;>;>;>;>;>;>;>;>;>;>;>;>;>;>;>;;;>;;;;>;>;;;;>;;;;>;;;>;;;>;;;;;;;;;;;;;;>;;;;>;;;;>;;;;;;>;>;;;6;;;;>;;;;;;;>;;>;:::::::::::::::::::X:::::X:X:X::X:X:X:X:X:XX:XXXXX:XXXX:XXXXXXX+:#          ###############               ###############               ###############               ###############               ###############               ",
"###############               ###############               ###############               ###############               ###############               ###########$$$=$$$=$$$=$=$=$==$=======================&==&=&=&=&&=&&&&&&&&&=800000000000000000000000000000000000004000040000400040006000060060060060600600600600606060606060606069606960696066069666966696966966969666696966966;69;66;696666966966;966;6;96;669;696696;96;6;6;66;66;6;6;6;6;6;;6;;6;;6;6;6;6;;6;;6;;;6;6;;;;;6;;;;;6;;6;>;6;;;;;;;;;>;;;;;;;;;;;;;;>;;;;;;;;;;;;;;;>;;>;;;;;;;;;;;;;;;;;;;;;;;;;;;;;>;;>;;;;;;;;;;;;;;;;;;;;;;;;;;;;;;;;;;;;;;>;;;;;;>;;;;>;;;;;;;;;;;;;>;;;>;;;>;;;;;;;;;>;;;;;;>;;;;;;;>;;>;;;;;;;6;;;6;;<:::::::::::::::::::::X::X:::X::X:X:X:X:X:X:XXX:X:XXX:XXXXXXXX+XX+#          ###############               ###############               ###############               ###############               ###############               ",
"###############               ###############               ###############               ###############               ###############               ##########5$$$$=$=$=$=$=$==$=$==$==$=$==========&==&===&==&=&=&=&&=&=&=&&&&=%00000000000000000000000000000000000000000000000000000000060006000600600060060060060060606060606060606060606960606966060669660669669666969666696669666696966;96;6696;666;96666;69;66;6;;6;6;69;69;6;6;;;6;6;6;6;6;6;6;;6;;6;;6;;6;;6;;6;;;;;6;6;6;;6;6;;;;;;6;;;;;;6;;;;;;;;;;6;;;;;;;;;;;;;;;;;;>;;>;;;;;;;;;;;>;;;>;;;>;;>;;;;;;;;;;>;;;;;;;;;;;;;;;;;;;;;;;;;;;;;;;;;;;;;>;;;>;;;;;;;;;;;;;;;;;>;;;>;;>;;;;;;;;;;;;;;;>;;;;;;;;;>;;;;;;;;;;;;;;;;6;;;;;;;;;>,:::::::::::::::::::::::X::X::X:X::X:X:X:XXX:XXXXXXXXXXXXXXXXXXXX+-q         ###############               ###############               ###############               ###############               ###############               ",
"###############               ###############               ###############               ###############               ###############               ##########7$$$$$$$=$$=$==$=$==$==$===================&==&=&==&=&&=&&&&&&&=&&&6000000000000000000000000000000000000000000040000000000600060006006000060060060060606006060606960696060696060669660696960696696696666966696966;696696966669666696;669;966;6;96;66;6;696;96;6;66;6<6;966;6;9;6;;6;6;;6;6;6;;6;;6;6;;6;;6;6;6;;;;;;;;;;;;6;6;;;;;6;;;;;6;;;;>;;;;;;;;;>;;;;;>;;>;;;;;;;;;;;;;;;>;;;;;;;;;;;;;;;>;;>;;>;;;;;;;;;;>;;>;;>;;>;;>;;>;;>;;>;;>;;>;;;;;;;;;;>;;>;;;>;;>;;;;;;;;;;;;;;>;;;>;;;>;;;;;;;;;;;;;;;;;;;;;;;;;;;;;;;6;;;;;6;>::::::::::::::::::::X:X:::::X::X::XX:X:XX:X:XX:X:XX:XXXXXXXXXXXXX+9#         ###############               ###############               ###############               ###############               ###############               ",
"###############               ###############               ###############               ###############               ###############               ##########$$$=$=$=$=$=$=$=$==$=====$==============&===&==&=&=&&=&&=&=&&&&&&&=6000000000000000000000000000000000000000000000006006000006000600000606000600600600600600060060606060696060696060696066069660669669696696966696966966;69;696;96<6696;666;96966;6969696;66;696;9;6;6;6;6;6<6;6;96;9;6;6;;6;6;;6;;;;6;;6;;;;;;;6;6;6;6;;6;;;;;;6;;;;;;;;;;;6;;;;;;>;;;;;;;;;;;;;;;;;;;;;>;;>;;;;;;;;;;;;>;;;;;;;;;;;;;;;;;;>;;>;;;;;;;;;;;;;;;;;;;;;;;;;;;;;;;;;>;;;;;;;;;;;;;;;;;;;;;>;;;;;;;;;;;;;;;;;;;;;;;>;;;;>;;;;;;6;;;6;;6;;6;;;;;6;;;;;>::::::::::::::::::::::::X:X::X::XX::X:X:XX:XX:XXXXXXXXXXXXXXXX+XXXX#         ###############               ###############               ###############               ###############               ###############               ",
"###############               ###############               ###############               ###############               ###############               #########q$$$$$$=$$$=$$=$=$=$==$=$=====$============&===&==&=&=&=&=&&&&=&&&&=00000000000000000000000000000000000000000000000000000060000000000600000600600600600600606906900690690606960606960696969669696960696696966696966966969669669666696;69696966;6<696;6;6;6<69;6;6;69;69;6<6;6;6;6;;6;6<6;<6<6;<6;;96;;6;;6;6;6;6;;;;;;;;;;;;;;;;;;;;6;;6;;;;;;;;;;;;;;;;;;;;;;;;;;;;;;;;;;;;;;;;;;;;;;;;;;;;;;;;;;;;;;;;;;;;;;;;;;;;;;;;;;;;;;;;;;;;;;;;;;;;;;;;;;;;;;;;;;;;;;;;;;;;;;;;;;;;;;;;;;;;;;;;;;;;;;;;;;;;;;;;;;;;;;;;;;;;;;;;;;;;;6;;6;:::::::::::::::::::X::X:::::X:X:X::XX:XXX:XX:XX:XXX:XXXXXXXXXXXXXX+ q        ###############               ###############               ###############               ###############               ###############               ",
"###############               ###############               ###############               ###############               ###############               #########0$$$$=$$=$=$=$=$==$=$=====$============&==&==&==&=&==&=&&&=&=&&&&=&=00000000000000000000000000000000000000000000000000000000006000600006006000006006006006090600606060060606069696069606060696069669669666696966696696696696;66<6<669696;6;6;9696;6;96<696;6;6<696;66;6;6;;6;9;6<6;9;;6;6;;6;;6;96;;6;<;6;;;;;;;;6;6;;6;6;6;6;6;;6;;;;;;;;;;;;6;;;;;;;;;;;;;;;;;;;;;;;;;;;;;;;;;;;;;;;;;;;;;;;;;;;;;;;;;;;;;;;;;;;;;;;;;;;;;;;;;;;;;;;;;;;;;;;;;;;;;;;;;;;;;;;;;;;;;;;;;;;;;;>;;;;;;;;;;;;;;;;;;;;;;;;;;;;;;;;;;;;;;;;;;6;;;;;;;;;::::::::::::::::::::::::X:X:::X::XX::X:X:XX:XXXXX:XXXXXXXXXXXX+X+X+4#        ###############               ###############               ###############               ###############               ###############               ",
"               ###############               ###############               ###############               ###############               ###############        #%$$=$$$=$$=$$=$=$=$===$=$==$===================&=&=&=&&=&=&&&&&&&&&=800000000000000000000000000000000000000000000000000000000000000006000000006000000000906060060096096069069060609606969696069669069606969696696969669;69669696966<66;6969696;6;696;66;6;6<696;6;6<6<6<6969;69;6;6;6;9;6<6;;9;6;;;6<;6;;;6<6;9;6<;;6;;;;;;;;;;;;;;;;;;;;;6;;;;;;;;6;;;;;;;;;;;;;;;;;;;;;;;;;;;;;;;;;;;;;;;;;;;;;;;;;;;;;;;;;;;;;;;;;;;;;;;;;;;;;;;;;;;;;;;;;;;;;;;;;;;;;;;;;;;;;;;;;;;;;;;;;;;;;;;;;;;;;;;;;;;;;;;;;;;;;;;;;;;;;;;;;;;;;;;;;;;6;<:::::::::::::::::X:::X:X:::X:X:X:X:XX:X:X:XXX:X:XXXX:XXXXXXXXXXXXXX,#########               ###############               ###############               ###############               ###############               ###############",
"               ###############               ###############               ###############               ###############               ###############        #$$$$$=$$=$=$=$=$=$=$=$===================&=&=&==&=&=&=&=&&=&=&=&&&&=%000000000000000000000000000000000000000000000000000006000006000000600600600606060606000069060606009606960960669606069609669606969696966969669669669669696;669669696;696;69696;969;9696;6;69;96;6;6;6;;6;6;6<6<6;6;;9;6;6;6;;6;;6;;9;6;;;6;;;;6;<;6;;9;;;;6;;;6;;6;;6;;;;;;;;;;;;;;;;;;;;;;;;;;;;;;;;;;;;;;;;;;;;;;;;;;;;;;;;;;;;;;;;;;;;;;;;;;;;;;;;;;;;;;;;;;;;;;;;;;;;;;;;;;;;;;;;;;;;;;;;;;;;;;;;;;;;;;;;;;;;;;;;;;;;;;;;;;;;;;;;;;;;;;;6;;6;;6;;;6;;;;;;,:::::::::::::::::::X::::X:X:X::X:X:X:X:XXX:XXXXXXXXXXXXXXXXX+XXXX+++#########               ###############               ###############               ###############               ###############               ###############",
"               ###############               ###############               ###############               ###############               ###############       q@$$$$$$$=$$$=$=$==$==$==$=$==$==$===============&===&=&=&&=&&&&&&&&&&&000000000000000000000000000000000000000000000000000000000000006000000000000000900900906900609009606096006069090690960696690696966966969669696696969696<669696;96;9696;96969;696;96;6;96<69;66<6<6<69;9;6;9;6;6;<6<6;6;;9;9;9;<6;9;6;<6;9;;6;9;;;;<;;;6;9;;;9;;;;;;;;;;;;;;;;;;;;;;;;;;;;;;;;;;;;;;;;;;;;;;;;;;;;;;;;;;;;;;;;;;;;;;;;;;;;;;;;;;;;;;;;;;;;;;;;;;;;;;;;;;;;;;;;;;;;;;;;;;;;;;;;;;;;;;;;;;;;;;;;;;;;;;;;;;;;;;;;;;;;;;;;;;;;;;;;;;;;;;;;;;;;;6;>:::::::::::::::::::::::X:::X:::X:X:X:X:X:X:XX:X:XX:XXXXXXXXXXXXX+XXX+#########               ###############               ###############               ###############               ###############               ###############",
"               ###############               ###############               ###############               ###############               ###############       #6$$$=$=$$=$=$$=$=$=$===$====$===============&=&==&=&=&=&=&&=&=&&&=&&&=00000000000000000000000000000000000000000000000000000000000000000000600006090060060600006900609009060096909606906690096096969609696969696969696969696969696969696696966<6;696;9669696;69;69;9;6;96;6;6<6<6;9;9;6;6;9;9;6;;6;6;;9;;;;6;;;6<;;;6<6;;6;;;;;;9;;;;9;;;;;;;;6;;;;;;;;;;;;;;;;;;;;;;;;;;;;;;;;;;;;;;;;;;;;;;;;;;;;;;;;;;;;;;;;;;;;;;;;;;;;;;;;;;;;;;;;;;;;;;;;;;;;;;;;;;;;;;;;;;;;;;;;;;;;;;;;;;;;;;;;;;;;;;;;;;;;;;;;;;;;;;;;6;;;;;;;;;;;9;;9;;;;:::::::::::::::::X::X:::X:X::X:X:X:X:X:XXXX:XXXXXXXXXXXXXXXXXXXXXXX++3########               ###############               ###############               ###############               ###############               ###############",
"               ###############               ###############               ###############               ###############               ###############       #.$$$$$$=$$$=$=$=$=$=$=$===$==============&======&==&==&&=&=&&&&=&&&&&=8000000000000000000000000000000000000000000000000000000000000000000000009000600900090069006090606060960060609606906966906960696696906969696969696966966969;69;696<6<6;96969;696<6;9;69;69;6;66;96;6<6<6;6;9;6;6;9;9;6;6<6;9;;9;6;6;9;<6<;6;9;;;;6;<;;9;6;;;;6;;;;9;;9;<;;9;;;9;;;;;;;;;;;;;;;;;;;;;;;;;;;;;;;;;;;;;;;;;;;;;;;;;;;;;;;;;;;;;;;;;;;;;;;;;;;;;;;;;;;;;;;;;;;;;;;;;;;;;;;;;;;;;;;;;;;;;;;;;;;;;;;;;;;;;;;;;;;;;;;;;;;;;;;;;;;;;;;;;9;;9;;;;;;;;<::::::::::::::::::::::X:::::X:X:X:X:X:X:X:X:XX:XXX:XXXXXXXXX+XX+XX+X+<########               ###############               ###############               ###############               ###############               ###############",
"               ###############               ###############               ###############               ###############               ###############       #=$$$=$$$=$=$$=$$=$=$=$==$===$==============&=&===&=&=&=&=&&=&=&&&&&&&=700000000000000000000000000000000000000000000000000000000000000006000900000000006000690009006090909069090906096906969069606906906969606969696969696<696<696969696966969;6969;696<66<6<69;699;96;9;96;;;9;96;9;9;6;6;<6;;9;6;9;;9;<6;;;;;9;;;6<;9;;6;;;;<;6;<;;;;;;;;;;;;;;;;;;;;<;;;;;;;;;;;;;;;;;;;;;;;;;;;;;;;;;;;;;;;;;;;;;;;;;;;;;;;;;;;;;;;;;;;;;;;;;;;;;;;;;;;;;;;;;;;;;;;;;;;;;;;;;;;;;;;;;;;;;;;;;;;;;;;;;;;;;;;;;;;;;;;;;;;;<;;<;;<;;;;;;;;;6;;9;;<:::::::::::::::::X::X:::X:X::X:X:X:X:XX:XXXXX:XXXXXXX:XXXXXXXXXXX+XX+X########               ###############               ###############               ###############               ###############               ###############",
"               ###############               ###############               ###############               ###############               ###############      q#$$$$$$=$$=$$=$=$==$=$==$==$=====$==============&==&=&=&=&&=&&&=&&&=&&&&000008000080000000000000000000000000000000000000000000000000000000000000090909009090006006909006069009606096906909060960996909690696996969696969696969696969696<696<69696;9696;96<696;96<6;69;96<6<69696;9;6<6;9;9;9;<6;9;9;6;;6;<6<6<6;;6<;6;;;<;9;<6;;<;;;;9;9;;9;;;;<;;;<;;;;;;<;;<;;<;;;;;;;;;;;;;;;;;;;;;;;;;;;;;;;;;;;;;;;;;;;;;;;;;;;;;;;;;;;;;;;;;;;;;;;;;;;;;;;;;;;;;;;;;;;;;;;;;;;;;;;;;;;;;;;;;;;;;;;;;;;;;;;;;;;;<;;<;<;;;;;;;;;9;;9;;;<;<;;;;::::::::::::::::::::::::X::X:X:X:X:X:X:XX:X:X:XXXX:XXXXXXXXXXXXX+XXXX++########               ###############               ###############               ###############               ###############               ###############",
"               ###############               ###############               ###############               ###############               ###############      #4$$$$=$$$$$=$=$$=$=$==$==$===$===============&===&==&=&=&=&&=&&&&=&&&&=&000000008000080008000000000000000000000000000000000000000000000090090000600000000600909000006090900690090960090696909696069606969696969696969696969696969696<6969;969;96<69;9696<6<6<69;699;69;6;6<6;<;6<6<6;9;6<6;6<6;9;6;9;9;<6;;;9;;<;<;;<;9;6;;;;;<;6;<;;;;;;;;;9;;;;9;;;<;;;;;;;;;;;;<;;<;;;;;;;;;;;;;;;;;;;;;;;;;;;;;;;;;;;;;;;;;;;;;;;;;;;;;;;;;;;;;;;;;;;;;;;;;;;;;;;;;;;;;;;;;;;;;;;;;;;;;;;;;;;;;;;;;;;;;;<;;<;;<;;;;;;;;;;9;;<;;;;;;;;9;;;6;<6>::::::::::::::::X::X:X:X::X::X::X:X:X:X:XXXXXXX:XXXXXXXXXXXXX+XXXX+X+X+1#######               ###############               ###############               ###############               ###############               ###############",
"               ###############               ###############               ###############               ###############               ###############      #7$$$$$=$$=$$=$=$=$=$=$=$===$===$==========&====&==&=&==&=&=&&=&=&&&&&&&=00080080000000000008008008000000000000000000000000000000000009000000000900090009009000090909096006090069609096090069690969096909690969696969696969696969696969696969696969696<6<69696;96<6;6<69;9<6<696<6;<6<6;9;9;9;9;;9;<;6;9;;9;9;6;9;6;9;6;;;<;9;<6;<;;;9;9;9;<;;;;9;;;;;;;9;<;;<;;<;;;;;;;;;<;;<;;<;;;;;;;;;;;;;;;;;;;;;;;;;;;;;;;;;;;;;;;;;;;;;;;;;;;;;;;;;;;;;;;;;;;;;;;;;;;;;;;;;;;;;;;;;;;;;;;;;;;;;;;<;;<;;;;;;;;;<;;<;;;<;;;;;;9;;<;<;;;;;<;;;;:::::::::::::::::::::::::X::X:X:X:X:X:XXX:X:X:XXX:XXXXXXXXXXXXXX+XXXX++;#######               ###############               ###############               ###############               ###############               ###############",
"               ###############               ###############               ###############               ###############               ###############      #&$$$$$$$=$$=$$=$$=$=$==$=$===$===============&===&===&=&=&=&&&=&&&&&&&&=80000800080800800800000000080800800800080000000000000000000000000090090000000900090090006000009090906900906909069090096909690969096909690969969696996969;96969;9696<69;96<6<6969;9;9;96<699;9;96;6<6<;9;96<6<;9;6;9;6;9;6<6<;9;6<;6;<;9;;9;;<;9;9;;;9;;<;6<;;;;;;;;9;<;;;<;<;;;;;;;<;;;;;<;;<;<;;;;;;;;;;<;<;;<;;<;;;;<;;;;;;;;;;;;;;;;;;;;;;;;;;;;;;;;;;;;;;;;;;;;;;;;;;;;;;;;;;;;;;;;;;;;;<;;;<;;<;;<;<;<;<;;;;;;;<;;<;;<;;;<;;<;;;<;<;;;;<;;;;9;9;;<;;,::::::::::::::::X::X::X:X::X:X:X:X:X:X:X:XXXXXXXXXXXXXXXXXXX+XXXXX+X+X+X#######               ###############               ###############               ###############               ###############               ###############",
"               ###############               ###############               ###############               ###############               ###############      #$$$$$$=$$=$$=$=$=$==$=$====$======$============&===&=&=&=&&=&=&&&=&&=&&&&0080008000080000000008008000000000000000800800800800080009000090000000009090009000000090909090090090909090096090969690690096969696969696969699699696996969969696<69696<6969;9;969696<69;9;696<69<6<6;9;9;9;96;9;9;9;9;9;9;6<6;<;9;9;9;;9;<6;9;;;;9;;9;;<;;9;<;9;<;;;;;;<;;;;<;<;<;;;<;<;;<;;;;<;;<;<;;<;;;;;;;;;;;<;;;;;<;;<;;<;;;<;;;;;;;;;;;;;;;;;;;;;;;;;;;;;;;;;;;;;;;;;;;<;;;;<;;<;;<;;;;;;;;;;;;;;;;;;;;;<;<;;;;;<;;;;;;;;;;<;;;;;;<;;;9;<;;;;<6;;,:::::::::::::::::::::X:::X::X::X:X:XX:XXX:X:X:XX:XXXXXXXXXXXXXXX+XX+XXX+#######               ###############               ###############               ###############               ###############               ###############",
"               ###############               ###############               ###############               ###############               ###############     q-$$$$=$$$$$$=$$=$=$=$=$=$=$===$==$=============&==&=&==&=&=&=&&=&&&&&&&&&=0000800080000808080800000080080808080000000000000008000800080000900090000000900090909000090609009600096090909096090909096969090969096909699696969699699696996996996<6969;969696<6<6<69;969;9;9;96<699;6<6;9;9;9;6<6<;6<;6<;<;96;<;;6;9;;9;;<;9;9;;9;;;9;;<;;6;;<;;9;<;9;;<;9;;;;;<;;;;;;;;;<;;;;<;;;;<;;;<;;<;;<;;;;<;;;;;;;;;;;;;;;<;;<;;<;;<;<;;<;;<;;<;;<;;<;;<;<;;<;;<;;<;;;<;;;;;;;;;;;<;;<;;<;;<;;<;;<;<;;;;;<;<;;;<;<;<;<;;;<;<;9;;<;;;;;<;<;;<;;:::::::::::::::X::X::::X:X:X:X:X:X:X:XX:X:XXXXXXXXX:XXXXXXXXX+X+XXX+XX+++@######               ###############               ###############               ###############               ###############               ###############",
"               ###############               ###############               ###############               ###############               ###############     #8$$$$$$=$=$=$$=$=$$=$=$==$===$===============&=======&=&=&=&&=&&&=&=&&&&&=808000800808000000000080800000000000080800800800800000000000008000900009009000900000090900909009009090909069069090906969090969690969969699696996996969699696<6969;969;99696<69;96<69;96<6<696969;9;9;69;9<6<6<9;9;9;9;9;9;9;6<;<6;9;<;;9;;9;9;;;9;;<;9;;<6;<;<;;9;;<;;;;<;;;;<;<;;<;<;<;<;<;;;<;;;;<;;;<;;<;;;;;;;<;;;;;<;;<;;<;;<;;;;;;;;;;;;;;;;;;;;;;;;;;;;;;;;;;;;;;;;;;;;;;;;;<;;;<;;<;;;;;;;;;;;;;;<;;;;;;;<;;;;;;<;;;;;;;;<;;<;;;;9;;<;9;;9;;9;;<:::::::::::::::::::X:X::X::::X:X:X:X:X:XXXX:X:XX:XXXXXXXXXX+XXXXXX+XX+XX+>######               ###############               ###############               ###############               ###############               ###############",
"               ###############               ###############               ###############               ###############               ###############     #%$$$$$$$$$$$=$$=$=$=$==$==$=$==$===============&=&=&=&=&==&=&&=&=&&&&&=&&=70080800000080808080800008080808008000000800800000800800800800008000900009000009090900090900090690906090690090906969909096909096969099690699969969969969699699;9699969699;996<6996<969;99;9;9;9;96<6<99;9;9;9;6<6<6<6<6<;9;9;9;9;9;9;9;;9;;9;;9;;9;6<;;9;<;<;<;<;;<;9;<;;<;<;;;;<;;;;<;;;;;;<;;<;<;;;<;;;;;;<;<;;<;;<;<;;;;;;;;;;;;<;;<;;<;;<;;;<;;<;;;<;;;;;<;;;<;;<;;<;;<;;<;;<;;;;<;;;;;;<;<;<;<;<;<;;;;<;<;<;;<;<;<;;;<;<;<;<;;<;;<;<;;<;;<;<;;<;;6,:::::::::::::::X::::::X::X:XX:X:X:X:XX:X:X:XXXXXXXXXXXXXXXXXXXX+XXX+XX+X+,######               ###############               ###############               ###############               ###############               ###############",
"               ###############               ###############               ###############               ###############               ###############     #$$$$$$$=$$=$$$=$$$=$=$=$=$=======$====================&=&=&=&=&&&&&&&&&&&&=0800008080800000080008080000000800080808000008080080000080000900080080800090900000090900009009090090909090909090900909690909690990969099909699699699699969969699696999;969;9699;996<96<69696<69;9;9;9;96<69;9;9;9;9;9;9;9;9;9;9;<<;9;9;<6<;9;9;<;<;<;<;<;;9;;9;;9;;;<;;<;;<;<;<;;<;<;;<;<;<;;<;;;;<;;;<;<;<;;;<;;<;;;;;;<;<;<;<;<;;<;;;;;<;;;<;;<;;;<;;;<;<;;;<;;;;;;;;<;;<;;;<;;;<;;;;<;<;;;;;;;;;;;;<;<;;<;;;;<;;;<;;<;<;;<;<;;<;;<;<;;<;;9;;;<;9;<;::::::::::::::X::::X:X::X::X:::X:X:X:X:XXXXXX:XXX:XXXXXXXXXXXX+XXX+XX+X+X++######               ###############               ###############               ###############               ###############               ###############",
"###############               ###############               ###############               ###############               ###############               ######$$$$$$$$$=$$=$=$=$=$=$==$==$=$======$=========&=&=&=&==&=&=&=&&=&=&=&&&&&&=00080800800808080080800080808000800000000808000000008080008080009000090080000909090000909090900090900909090969090990909096990969096996969699699699699696<96999699;9696969969<6969;96<96<9;9;99;969;9;9;9;9;9;9;9;9;9;9;9;9;9;9;9;;9;<;9;<;9;;<;9;9;9;;9;<;;<;;<;;<;<;<;;9;;<;<;<;;<;;<;;<;;<;;<;<;;<;<;;;;;<;;;<;;;<;<;<;;;;;;;;;;<;;<;<;;;<;;;;;;<;;;<;;;;;<;;;<;<;<;;;;;;;<;;;<;;;<;;;;;<;<;<;<;<;<;;;;<;;<;<;;<;<;;<;;;<;;;;<;;<;;<;;<;<;;<;9;;;<;;:::::::::::::::::X::::X::X:X:XX:X:X:XX:X:X:XXXX:XXXXXXXXXXXX+XXXX+XX+XX+X++q     ###############               ###############               ###############               ###############               ###############               ",
"###############               ###############               ###############               ###############               ###############               #####5$$$$=$$=$$$$$=$$=$=$==$=$=$====$=$====================&=&=&=&&=&=&&&&&&&&&=70808008008080800800080800800808008080808000080808080000800000080090800009090800900909009009009090909090909090909090969090969909969909909990996996996999969969969699;999;9969;9<69;996<96<69<69;9;996<69<6<6<69;9;9;9;9;9;9;9;;9;9;9;9;<6<;9;9;9;;<;;9;;9;9;9;9;<;9;;9;<;<;<;;<;;<;<;<;<;;<;;<;<;;<;;;<;<;<;;<;;<;<;<;;;<;<;<;<;<;;<;;;;;<;;;<;<;<;;<;;;<;<;;;<;;;;;;;<;<;<;;<;<;;<;;;<;<;;<;;;<;;;<;;<;<;;<;;;<;;<;;<;;<;<;<;<;<;<;9;<;<;<;9;<;<;9;;,:::::::::::::::X:::::X::X:::X:X:X:X:X:XX:XXX:XXXXXXXXXXXXXXXXXX+XXX+XX+X+X+2q    ###############               ###############               ###############               ###############               ###############               ",
"###############               ###############               ###############               ###############               ###############               #####0$$$$$$$$$=$=$$=$$=$$=$=$===$=$==================&=&=&=&==&=&=&&&&=&&=&&=&&=&0080080800800080080800080008000800800800808000080008080008080800800098008000090080090090090090900090900909090909096909099090969090969696969699699969969699699;99969969699;996969969;969<9;96<96<9;9;9<9<9;99;9;9;9;9;9;9;9;9;9;9;9;9;<;<;9;<;<;<;9;<;<;;<;<;<;<;<;<;;<;;<;;9;;<;<;;<;;<;<;<;;;<;<;<;<;;<;;<;;<;;;;;;<;<;;;;;;;;;<;;;<;<;;;<;;;;;;<;;;<;;;;;<;;;<;<;<;;;;;;<;;;;;<;;<;;;<;;;<;<;;<;;<;;<;;<;<;<;<;;<;;<;<;;<;<;;<;;<;;<;;9;<;<;;<;<;;::::::::::::::::::X:X::X::XX:X:X:X:XX:XX:XX:XXXXXXXX:XXXXXXX+XXXXX+XX+XX+X++6#    ###############               ###############               ###############               ###############               ###############               ",
"###############               ###############               ###############               ###############               ###############               #####o$$$$$$$$=$$$$=$$=$=$=$==$=$====$==$===========&========&=&=&&=&=&&=&&&&&&&&=0008080080808080808080808080080808008008000808008080000808000080080800090089008090900900900909009900909090909090909099096909090996990999099990999699699969996996999699<69969999;9<6999;969;9<6<969;996;99<9;9;9;9;9;9;9;9;9;9;9;<;9;<6<6<;9;9;9;<;9;9;<9;<;<;<;9;<;9;<;<;<;<;<;<;<;<;<;;<;;<;<;<;;<;;<;;<;<;<;;<;<;<;<;;<;<;<;<;;<;<;;;<;<;;<;<;<;;<;;<;<;<;;<;;<;;;<;<;<;;<;<;<;<;<;<;;<;<;;;;<;;<;;<;;<;;<;;<;;<;<;<;<;<;<;<;<;<;<;<;<;<;;<;9;<;9;::::::::::::::X:X:::::X::X::X:X:X:XX:X:XX:XXXXX:X:XXXXXXXXXXXXX+X+XX+XX+X+X+,#    ###############               ###############               ###############               ###############               ###############               ",
"###############               ###############               ###############               ###############               ###############               #####=$$$$$$=$$$=$=$$=$=$=$=$=$=$=$====================&=&=&=&=&=&=&=&&=&&&&&&&&&=808080808080808080808080808080080080808080800808000808000080800080008080800080900808080908900909009090909090909090909090999699909909969096969969699999699969996996<9969996<9;96999<6<699<9969<6<9;9;9<9;9;9;99;99;99;9;9;9;9;9;9;9;9;<<;9;<;9;<;9;<;<;9;<;9;<;<;<;<;<;<;<;<;<;<;<;<;<;<;<;<;<;;<;<;<;<;<;;<;;<;<;<;<;;<;<;<;<;<;<;;;<;<;;<;<;;;<;;<;<;;;<;;<;;<;;<;<;<;<;<;;;<;;;<;;<;<;;<;<;<;<;<;<;<;<;<;;<;<;<;<;<;<;<;<;<;<;<;<;<;<;<<;<;<;<;<;<::::::::::::X:::::X:X::X:X:X:X:X:X:XXXX:XX:X:XXXXXXXXXXXXX+XXXXXXX+XX+X+XX++X#    ###############               ###############               ###############               ###############               ###############               ",
"###############               ###############               ###############               ###############               ###############               #####$$$$$$$$$=$$$$=$=$=$$==$=$====$=$=$===$=========&======&=&=&=&=&&=&&=&&=&&&&=&08080808080808080808080080808080808008008008000808008080808090800890900909090080909090909009809090909090909090909099099090909099699099999996999996969996999699;99969<69;9996<99;96999;96<6<9;99;9999;99;9<99;99;9;<6<9;9;9;<9;<9;<;9<6<;9;9;<;9;<;9;<;<;<;<;9;<;9;<;<;<;<;<;<;<;<;<;<;<;<;<;<;<;<;;<;;<;<;<;<;<;;<;;<;;<;;<;;<;;<;<;<;;<;;;<;<;;<;;;<;<;;<;;<;;<;<;;;<;;;<;<;<;<;<;<;;<;<;;<;<;<;<;;<;<;<;<;<;<;<;<;;<;;<;<;<;<;<;<;<;<;;<;9;<;9;;::::::::::::::::X:::::X:X:::X:X:X:XX:X:XX:XXXXX:XXXXXXXXXXXXXX+X+X+XX+X+X++X++#    ###############               ###############               ###############               ###############               ###############               ",
"###############               ###############               ###############               ###############               ###############               ####q$$$$$$$$$$$=$$$=$$=$=$=$==$=$=======$=============&=&=&==&==&=&=&&&=&&&&&&&&&=008080808080808080808080808080800808080808080800808008080008080900808080808089090809080809009090890909090909099099090909099909909909969090990969999996999699999699999999699996999<9;999<99;999;99;6<96<9;9;9;9;99;9<;9<9;9<6<9;9<9;<;<9;<<;9;9;<9;<<6<;9;<;9;<;<;<;9;<;<;<;<;<;<;<;<;<;<;<;<;<;<;<;<;<;<;<;<;;<;<;<;<;<;<;;<;;<;<;<;;<;;<;<;<;<;<;<;;<;<;<;<;<;;<;<;<;<;<;<;;<;;<;;<;<;<;<;<;;<;<;<;<;;<;<;<;<;<;<;<;<;<<;<;<;<;<;<;<;<<<;<;<;<;<;:::::::::::::X::::X:X::::X:X:X:X:X:X:XX:XXX:XXXXXXXXXXXXXXXX+XXXXXX+XX+XX+X+X+ q   ###############               ###############               ###############               ###############               ###############               ",
"###############               ###############               ###############               ###############               ###############               ####4$$$$$$=$$=$$$=$$$=$$=$=$=$=$==$=$=======================&=&=&=&&=&=&&=&&&&&&&&%08080808080808080808080808080808080800808080808080808008080800808080080080900080900809090989080908090909090909090909990990990990990990999999999699699999999969999;9696999<69<9<69699;96<699<699;99;9<9;99;9<99;<9;99;9;<9;<9;9;9;<6<9;<9;9<<;9<;9;<<;<<;9<;<<;9;<<;<;<;<<;<;<;<;<;<;<;<;<;<;<;<;<<;<;<;<;<;<;<;<;<;<;<;<;<;<<;<;<;<;<;<;<;<;<;<;;<;<;<;<;<;<;<;<;;<;;<;<;<;<;<;<;<;;<;<;<;<;<;<;<;<;<<;<;<;<<;<;<;<;<;<;<;<;<;<;<;<;<<;;9;<<;9<;,:::::::::::X:::::X:::X:X:X:X:X:X:XX:XX:XX:XXX:XXX:XXXXXXX+XXXXXX+X+XX+XX+X+X++5q   ###############               ###############               ###############               ###############               ###############               ",
"###############               ###############               ###############               ###############               ###############               ####8$$$$$$$$$$$=$$=$=$=$=$=$=$===$===$=============&==&=&=&==&=&=&=&&&&&&&&=&&&&&&&080808080808080808080808080808080808080808080808008080808008080800908098098080908090908080090909090909890990990909909099090990990999099690969099999969699699996999999<9699996999<9969999<96<9<69<99;9699<96<6<99;9<6<9<6<9;9<<9;9<<9;9;<<;9;9;<<;9;9<;9;<;<;<<;<;<<;<<;<;<<;<;<;<;<;<;<;<;<;<;<;<<;<;<;<;<;<;<;<;<;<;<;<;<;;<;;<;<;<;<;<;<;<;<;<;<;<;;<;<;<;<;<;<;<;<;<;<;<;<;<;<;<;<;<;<;<;<;<;<;<;<;<;<;<;;<;<;<;<;<;<;<;<;<<;<<;9;<;<<;<;<;<;::::::::::::::X::X::X::X:X:X:X:X:X:X:X:XX:XXXXXXXXXXXXXXXXXXX+XXXXXX+X+X+X+X+X+9#   ###############               ###############               ###############               ###############               ###############               ",
"###############               ###############               ###############               ###############               ###############               ####%$$$$$$$$$=$$=$$=$$$=$$=$==$=$==$====$==================&=&=&=&=&=&=&=&&&&&&&&&=808080888088088080808080808080808088080808080808080808080808080808080809008098080980809090980890890980909809909099090990999099099909909999999999909999999996999999699699<96<99;996<9<9;96<99;99<69;99<9;99<9<9;<9;9<<6<9;<<9;9;9;9;9;<<9;9;<<9;9<;<<;9;<<<;9<;9;<<;<;9;<<;<;<<;<<;<<;<<;<<;<;<;<;;<;<;<;<;<;<;<;<;<;<;<;<;<;<;<;<;;<;<;<;<;<;<;<;<;<;<;<;<;<;<;<;<;<;<;<;<;<;<;<;<;<;<;<;<;<;<;<;<;<;<;<;<;<<;<;<<;<<;<<;<<;<<;<;<;<<;<<;9;<<9;<:::::::::::::::::::X::X::X::X:X:X:X:XXX:XXXX:XXX:XXXXXXXXXX+XXXX+X+X+XX+X+X+X++,#   ###############               ###############               ###############               ###############               ###############               ",
"###############               ###############               ###############               ###############               ###############               ####$$$$$$$$=$$$$$$=$$=$=$=$=$=$==$===$=====$=========&==&===&==&=&&=&&=&&&=&&&=&&&&%08088080808808080808080808088080800808080808080808080808080808080809080808080908089080890909090908909090908099890999099090990990999999090909909999999969999996999999999699999999<999999<99;99<9<99<6<9<9;99;999;9<9;9<9<9;9<<9<<<9;9<6<<<9;<;<<;9<;9<<;9;<<;<<<;9<<<;<<;<<<;<<;<<;<<;<<;<<;<<;<<<;<<;<<;<;<;<;<;<;<;<;<;<<;<;<;<;<;<;<;<;<;<;<;<;<;<;<;<;<;<;<;<;<;<;<;<;<;<;<;<;<;<;<;<;<;<;<;<;<;<;<;<;<;<<;<;<<;<<;<<;<<;<<<<;<<;<<;<<<;<;;,:::::::::X:X:X:X:X::X::X:X:X:X:XX:XX:XXX:XXXXX:XXXXXXXXXXXXXXX+XXX+XX+X+X+X+X+++#   ###############               ###############               ###############               ###############               ###############               ",
"###############               ###############               ###############               ###############               ###############               ####$$$$$$$$$$$=$=$$$=$=$=$=$==$=$==$====$================&=&==&=&=&=&=&&=&&&&&&&&&&=088808808808080880808088080808080880808080808080808080808080809080808080809080809080890980980898909098980999909090909909990990999909099999999996909699999999999699;99<9999<69;99699;9;99;99<99;99;9<9<6<9<9<9;<99;9<9;<6<9;<6<;9;<9;<<<6<;9<9;9<;9<;<;<<9;<<;9;<<;<;<<;9;<;<<;<<;<<;<;<;<;<<;<;<;<;<;<;<<;<<;<;<<;<<;<;<<;<;<;<;<;<;<;<;<;<;<;<;<;<;<;<;<;<;<;<;<;<;<;<;<;<;<;<<;<<;<;<;<;<<;<<;<<<;<<<;<<;<;<<<;<;<;<<;<;<;<;<;<<;<9;<<;<;9<;::::::::::::::::::::X::X::X:X:X:X:X:XX:X:XXX:XXXXXXXXXXXXXXXX+XXX+XX+X+XX+X++X+XO#   ###############               ###############               ###############               ###############               ###############               ",
"###############               ###############               ###############               ###############               ###############               ###1$$$$$$$$$$$$$$$=$$=$$=$=$=$=$==$==$================&=====&=&==&=&&&=&&&=&&&&&&&&=8080880880888080880888088088088080880880808080808080808080808088080808089808980980909808098090908980909098080989890980990999990909999909909909999999999969999999999969999999999<999999999996<999<999;99<9;9<999<9<9;9<9<9;9<<9<9<9;9<9;<<9;<<<<;9<<<9<;<;<9;<<<;<<;9<;<<<;<<;<<;<;<<;<<<;<;<<<;<<;<<;<<;<<;<<;<;<<;<<;<;<;<<;<<;<<;<<;<;<;<;<<;<<;<;<;<;<;<;<<;<<;<;<<;<;<<;<<;<;<;<<<;<<;<;<;<<;<;<;<;<<;<<;<;<<;<<;<;<<<<<;<<<;9<;<<;9<<<;<<:::::::::::::X::X:X::X:X:X:X:X:XX:XX:XXXXX:XXXXXXXXXXXXXX+XXXXX+XX+XX+X+X+X+X+X++*q  ###############               ###############               ###############               ###############               ###############               ",
"###############               ###############               ###############               ###############               ###############               ###6$$$$$$=$$$=$$=$$$=$$=$=$=$=$==$====$==$===============&=&==&=&=&=&=&&=&&&&=&&&&&&=0888088080808088088080808808808880808080880880808080808080808080980898008080908098080989008908909098989090999090990999899090999909909909999999999999999999969999999999;99;9999999;999;99;9<999;99;<999;99<99<9;9;9<9<9;<9<9;9;9;<9<<;<9<<9;9;9<<;9;<;9<9;<<<;<9;<<<;<<;<<<;<<;<<<;<<;<;<<<;<;<<;<<;<<;<;<;<;<<<;<;<;<<<;<<;<<;<;<;<;<<;<;<<;<;<;<;<;<;<;<;<<;<<;<<;<;<<;<;<;<;<;<<;<;<;<;<<;<<;<;<<;<<;<<;<<;<<;<<;<<<;<;<;<<;<<;<<;<<;<;<9;:::::::::X::X::X::::X::X::X:X:X:X:XX:XX:X:XXXXXX:XXXXXXXXXXXX+XXX+XX+X+XX+X+X+X+++4#  ###############               ###############               ###############               ###############               ###############               ",
"###############               ###############               ###############               ###############               ###############               ###7$$$$$$$$$$$$=$$=$$=$=$$=$$=$=$==$================&==&=====&=&=&=&=&&=&&=&&&&&&&&&=8080880888888808808808880880880808808808088088088088080808080808080808980808808980980808989089089809098989089989089909098999099999099999909909909909999999999999999999999999;99;99999999999;9<99<99<9<9<9;9<9<9<9<9;9<99;9<9<<9<9;<9<9;<9;<<<<;9<<<<<<;<<<;9<<;<<;<<<;<<;<<<;<<;<<<;<<<;<;<<<;<<;<<;<<<;<<<;<;<<;<<;<;<<;<;<;<<<;<<;<;<<<;<;<<;<<<<<;<<;<<;<;<;<;<<;<;<<;<<;<<<;<;<<;<<<<;<<;<<<<;<<;<<;<<;<<;<<;<<<;<<<<<<<;9<;<<<<<<<<<;<<:::::::::::::::::X:X:X::X:X:X:X:X:X:XX:XXX:XX:XXXXXXXXXXXXX+XXX+XX+XX+X+X+X+X+X+X+9#  ###############               ###############               ###############               ###############               ###############               ",
"               ###############               ###############               ###############               ###############               ###############  #%$$$$$$$$$$$$$$$$=$$=$$=$==$=$=$==$=$=$==$==============&=&=&==&=&&=&&=&&&&&&&&&&&&&0888888080808808880880880880880880880888080808088080880888088088080808089809808088098908908908980989809089980989998989099098909099999909999999999999099999999996999999999999999999;9<9<9<99999;9999;9<999<9<9<9;9<9;9<<<9<;9<9;<9<9;<<9<<<9;9<<<9;9;<9<;9<<;<<<<<9;<<<<<<;<<<<<<<;<<<;<<<<;<<;<<<;<<;<<;<;<<<<;<<;<<<;<<;<<<;<;<<;<;<<;<;<<;<<;<;<;<<;<<;<<<;<<<<;<<<;<<;<<;<;<<<;<<;<;<<;<<;<;<<;<<;<<;<<;<<;<<<<;<<;<;<;<<;<<<;9;<;9;<9;::::::::::X::X::X::X::::X:X:X:X:XXX:XX:XX:XXXXXXXXXXXXXXX+XXXX+XX+XX+X+XX+X+X+X++++,###               ###############               ###############               ###############               ###############               ###############",
"               ###############               ###############               ###############               ###############               ###############  #=$$$$$$$$=$$=$=$$$$=$=$=$=$===$==$==================&=&=====&=&=&=&&=&&&=&=&&=&&&&&=080808888888808808880880880880880880808088808808088808808080880898089808089808980980989089808909809098989090909080999989099998998909099990999999999999999999999999999999999999999999999;99<9<999;9<99;9<9;9<9<9<9<9<9;9<<9<<9;9<<9;9<9;<9<<<<;9;<<<<<<<<<;9<<;9;<<<<;<;<<<;<;<;<;<<;<<<;<<<;<<;<;<<;<<;<<<;<;<<;<<<;<<;<<;<;<<<;<<<<;<<;<<;<;<<;<;<<;<<;<;<;<<;<;<<;<<;<<;<<<<;<;<<;<<;<;<<;<<;<<<;<<<;<<<<<<<;<;<<<;<<<<<<<<<;<<<<9<<<<;<:::::::X:::::::X::X:X:X:X:X:X:XX:X:XX:XX:XXX:XX:XXXXXXXXXXXXXXXXXX+XX+X+X++X++X+X+++###               ###############               ###############               ###############               ###############               ###############",
"               ###############               ###############               ###############               ###############               ###############  #$$$$$$$$$$$$$$$$=$=$$$=$=$$=$$==$===$==$=================&=&==&=&=&=&&=&&&&&&&&&&&&=%0888808808088888808888888808880880888880808808880808808080880808088089808089808089808089809898989898909898989899909809998989909999999999999099099999999999999999999999999<99<99<99<9<9999999<9<999<999<99<9<<9<9<9<9<99;9<9<<9<9<<9<<9<<9;9<9<<9;9<<9;<9<<<<<<<<<;<<9<<;<<<<<<<<<<<<;<<<;<<;<<<<<<<;<<<<;<<<;<<<;<<;<<<;<<<;<;<<;<;<<;<<;<<<<;<<<<;<<;<<<<<<<;<<<;<<;<<;<<;<;<<<<<<;<<<<;<<<<<<;<<<;<<<;<;<;<<<<<;<<<<;<<;<;<<<<<<;<<;<<,::::::::::X::X:::X::::X:X:X:X:XX:XX:XX:XXXXXXXXXXXXXXXXXXXX+XX+X+XX+X+XX+X+X+X+++X+O###               ###############               ###############               ###############               ###############               ###############",
"               ###############               ###############               ###############               ###############               ###############  #$$$$$$$$$$$$=$$=$$$=$=$$=$=$==$=$=$===$====$==========&=====&=&==&=&&=&=&&&&&&&&&&&&&088888888888088088808080888808880880808888088080888088888808888088088088980808980808989089809809808908909890989898999898990989989898989999999999999999999999999999999<9999999999999999<9<9<9999<9<99<99<99<99<9<9;9<9<9<9<9<9<<;9<<9;<9;<<<<<<<<<<<;<<<<<;<9;<<<9<<<;<<<<<<;<<;<<;<<<<;<<<<<<;<;<<<<<;<<<<;<<<;<<<<<<;<<<;<<<<<;<<<;<<<;<<;<;<<;<<<<;<<;<;<;<<<;<<<;<<;<<<<<<<;<;<<<<;<<<<;<;<<<<;<<<;<<<<<<<;<<<<<<<<<<<<<<<<;9<<<<<9<;:::::::::::::X::X::X:X::X:X:X:X:X:X:XX:XX:XX:XXXXXXXXXXXXXXXXX+XXX+XX+X+X+X+X+X+X+++O###               ###############               ###############               ###############               ###############               ###############",
"               ###############               ###############               ###############               ###############               ############### q2$$$$$$$$$$$$$$$$$=$=$$=$=$=$=$=$====$==================&=&=&=&=&=&=&=&&&&=&&=&&&&&&&$888088088088888888888888880888088088888808808888808808080880808808980808089880898989808980898980890989980989890989098990989998999999990989989999990999999999999999999999999999<99<99<9999999<9<999<9<9<9<9<9<99<9<9<9<9<9<<9;9<9<9<<9<<9<9<9;9<9<9<<9<9;<9<<<<<<;<<<<<<<<;<<<<<<<<<<;<<<<<<;<<<<<;<;<<<<;<<<<;<<<;<;<<<;<<<;<;<<<;<<<;<<;<<<<;<<;<;<<;<<<<<<<<;<<<;<<<<<;<;<;<<<<;<;<<<<;<<<<<<;<<<<<<<<<<<;<<<<<;<<;<<;<<;<<<<<<;<<<<;,::::::::X:X::::::X:X::X:X:X:X:X:X:XXX:XXXXXXXXX:XXXXXXXXXX+X+XXX+XX+X+XX+X+X+X+++++XOq##               ###############               ###############               ###############               ###############               ###############",
"               ###############               ###############               ###############               ###############               ############### #4$$$$$$$$=$$$$=$=$$$$=$=$$=$=$===$=$===$==============&======&==&=&&=&=&=&&&&&&&&&&&&&&0888888888808808088808808888888888080888808808088088808808808808808888988089880808808989898089889898089890989899898908999899908909899999999989999999999999999999999999999<99999999999<9<9<999<9<999<99<9<9<9<9<9<9<9<<9<9<<9<<9<<9<<<9<<<<<<<<;<<<9<<<<<<<<<9;<<<<<<<;<<<<<<;<<<;<<<<<;<<<<<<<;<<<<<;<<<<;<<<<;<<<<<;<<<<<<<<<;<<<;<<<<<<;<<<<<<<<<<<<;<<;<;<<<;<<<;<<<<<<<<<;<<<<<<;<<<<;<<;<<<;<;<<;<<;<<<<;<<<<<<<<<<<<<<<<<<<9;<<;::::::X::::::X:X:X:::X:X:X:X:XX:XXX:X:XX:XX:XXXXXXXXXXXXXXXXXXXX+XX+XXX++X+X++X+X+X++O-##               ###############               ###############               ###############               ###############               ###############",
"               ###############               ###############               ###############               ###############               ############### #8$$$$$$$$$$$=$$$$$$=$$$=$=$==$=$=$===$==$==$==============&=&==&=&==&=&&&&=&=&&&&&&&&&$8888888888888888888888888880808808888880888888888880888880880880888080880880898898989880808989890898989898989989899899989989899989999898998999989999999999999999999999<99999<9999<9<99999999<999<9<99<99<99<9<9<9<9<9<9<9<9<<9<<9<<9<<9<9<9<9<9<9<<<<<9<<<<<<<9<<9;<<9<<<<<<<<<<<<<<<<<<;<<;<<<<<<<<<<;<<<<;<<<<<;<<<<<<<;<<;<<<<<<<;<<;<<<;<<;<<;<<;<<<<<<<<<<<<<<<<;<<;<<;<<<<<;<<<<;<<<<<<<<<<<<<<<<<<<<<<<<<<<<<<<<<<<<<9;<<<<<<<,::::::::X::X::::X::X:X:X:X:X:X:X:X:XXXXXXXXXX:XXXXXXXXXXX+X+XXX+XX+XX++XX+X+X++X+++X+O>##               ###############               ###############               ###############               ###############               ###############",
"               ###############               ###############               ###############               ###############               ############### #7$$$$$$$$$$$$$$$=$$$=$=$=$$$=$=$==$=$===================&====&=&=&=&&&=&=&&&&&=&&&&&&&&=08888888888888888088808888888888880808880808080880880808888888880889880889880808808809898980898898989898989809898998989899998999989899999998999998999999999999999999999999999<999999<9<9<9<99<9999<9<9<9<9<9<9<9<9<9<9<<9<9<9<9<9<<9<<<<9<<<<<<<<9;<<<<<9;<<<<<<<<<<<<<<<<<<<<<<<<;<<<<<<<<<<<<;<<<<<<<<<<<<<;<<<<;<<;<<<<<<<;<<<<<<<<<<<<<<<<<<<<<<<<;<<<;<<;<<;<<<<<<<<<<<<;<<<<<<<<<<;<<<<;<<<<<<<<<<<<;<<<<;<<;<<<<<<;<<<<<<<<9;:::::X::::::::X:X::X::X::X:X:XX:XX:XX:X:X:XXXXXXXXXXXXXXXXXXXX+XX+XX+XX+X+X+X+X++X+++++9##               ###############               ###############               ###############               ###############               ###############",
"               ###############               ###############               ###############               ###############               ############### #%$$$$$$$$$$$$$=$$$$=$$$=$$=$=$==$=$====$=$============&====&==&=&=&=&=&&&=&=&&&&&&&&&&&=7888888888888888888888880888888088888888888888808888888888080808808889880889888989898888988980898989898989898989098989899898998989999998989999989999989999999999999999999999999999<99999999999<9<9<99<99<99<9<9<9<9<9<<9<9<9<<<9<<9<<9<9<<9<<9<9<<<9<9<<<<<9<<<<<<<<<<<<<<<<<;<<<<<<<<<<<<<<<<<<<<;<<<<<;<<<<<<<<<<<<<<<<<;<<<<<<;<<<<<;<<<;<<<<<;<<<<<<;<<<<<<<<<<<<<;<<<<<<<<<<<<;<<<<<<<<<<<<<<;<<<;<<<<<<<<<<<<<<<<<9<<<<<<9<<;,:::::::::X::X::X::X::X:X:X:X:X:X:XX:X:XXXXXX:XXXXXXXXXXXX+XXXXX+XX+XX+X+X++X+X+X+++X+++,##               ###############               ###############               ###############               ###############               ###############",
"               ###############               ###############               ###############               ###############               ############### #$$$$$$$$$$$$$$$$=$=$$=$$=$=$==$=$==$=$======$===========&===&==&==&=&=&=&&&&&&&&&&&&&&&&=08888888888888888888888888088888088808088808888808088080888888898808889880889880880890889898989809898908909898989899998989989999898989999989999998999999999999999999999<99999<99999<9<99<9<9999999<99<99<99<9<9<9<9<9<9<<9<9<9<<9<<9<<<<9<<9<<<<9<<<<<<<<<<<<<<<<<<<<<<<;<<<<<<<<<<<<<<<<;<<<<<<<<<<;<<<<<;<<<;<<<<<<<;<<<<<<<;<<<<;<<<<<<<<<;<<<<<;<<<<<<<;<<<<;<<<<<<;<<;<<<;<<<<<<;<<<;<<<<<<<<<<<<<<<<<<<<<<<<<<<<<<<<<<<<<<<<:::::X::X:::X::X::X:X:X:X:X:XX:XXX:XXXXX:XX:XXXXXXXXXXXXXXXX+X+XX+XX+X+X+X+X++X+++X++++++##               ###############               ###############               ###############               ###############               ###############",
"               ###############               ###############               ###############               ###############               ############### #$$$$$$$$$$$$$=$$$$$$$$=$=$=$=$=$==$===$==$================&===&=&=&=&=&&=&=&=&&=&&&&&&&&=788888888888888888888888888888888888888888880888888888888880880888888088880880889898898980898898988989889898989898989898998998989999998989999898999999899899999,9999999999<99999<999999<999<9<9<9<99<9<9<9<99<99<9<9<9<9<9<9<<9<<9<<9<9<<9<<<<9<<<<<9<<9<9<<<9<<9<<<<<<9<<<<<<<<<<<<<<<<<<<<;<<<<<<<<<<<<<<<<<<<<<<<<<<<<<<<<<<<<<<<<<<<<<<<<<<<<<<<<<<<<<<<<<<<<<<;<<<<<<<<<<<<<<<<<<<<<<<<<<<<<<<<<<<<<<<<<<<<<<<<<<<<<<<<9<<<<<:::X::::::X::X::X::X::X:X:X:X:X:X:XX:X:XXXXXXX:XXXXXXXXXX+XXXXX+XXX+X+X+X+X+X++X+X+++X++O##               ###############               ###############               ###############               ###############               ###############",
"               ###############               ###############               ###############               ###############               ###############qq$$$$$$$$$$=$$$$=$=$=$$=$$=$$=$=$=$==$===$==================&=&==&=&=&&=&&&&&&&&&&&&&&&&&&=088888888888888888888888888888888888888088888888880888088888888088088808988988888889888988898898989898989898989898989989898989989898999998989999898999,99,99,999,99,99,999,99,999<999999<9999<99<9<99<99<9<9<99<9<9<9<9<9<<9<<9<9<9<<<9<<<9<9<<9<<<<<<<<<<<<<<<<<<9<<<<<<<<<<<<<<<<<<<<<<<<<<<<<<<<<<<<<<<<<<<<<<<;<<<<<<<<<<<<<<<<<<<<;<<<<<<<<<<<<<<<<<<<<<<<<<<<<<<<<<<<<<<<<<<<<<<<<<<<<<<<<<<<<<<<<<<<<<<<<<<<<<<<<<<<<<<9;X:::::X::::::X::X::X:X:X:X:X:XX:XXX:XXXXX:XXXXXXXXXXXXXXXXXX+XXXX+X+XXX+X+X+X+X++++X+++++O##               ###############               ###############               ###############               ###############               ###############",
"               ###############               ###############               ###############               ###############               ###############q-$$$$$$$$$$$$$$$$$$$$=$$=$=$=$=$==$=$==$=====$=========&==&=====&=&==&=&=&=&=&=&&&&&&&&&&&=78888888888888888888888888888888888088888888808808888888808808888888898888888898980888988980898898898989898989898989898998999899899989898999999,9999,9999999999999999999,999999,99,9<,99,99<,99<9999<99<9<99<9<9<9<9<9<9<9<9<9<9<<<9<9<<<9<<<<<<<9<<9<<9<<<9<<<<<<<<<<<<<<<<<<<<<<<<<<<<<<<<<<<<<<<<<<<<<<<<<<<<<<<<<<<<<<<<<<<<<<<<<<<<<<<<<<<<<<<<<<<<<<<<<<<<<<<<<<<<<<<<<<<<<<<<<<<<<<<<<<<<<<<<<<<<<<<<<<<<<<<<<<<9<<<<<<<,:::::::::X:X:::X::X:X:X:X:X:XX:X:X:XX:X:XXXX:XXXXXXXXXXX+X+XXXX+XX+XX+X+X+X+X++X+X+++X+++O@#               ###############               ###############               ###############               ###############               ###############",
"               ###############               ###############               ###############               ###############               ################6$$$$$$$$$$$$$$$=$$=$$$=$$=$=$=$=$==$===$==$================&=&==&=&=&=&&=&&&&&&=&&&&&&&&&&=08888888888888888888888888888888888888888888888888808888888888088988889889808888898988898898898898898898898989899898989898989899898999,998,89899,989989,9899,999,99,999999,9999999999<999,99<9,9<,9<9,99,<9,<9<9<9<9<9<<9<<9<<<9<9<<<9<9<<9<9<9<<<9<<<<<9<<<<9<<<<<<<<<<<<<<<<<<<<<<<<<<<<<<<<<<<<<<<<<<<<<<<<<<<<<<<<<<<<<<<<<<<<<<<<<<<<<<<<<<<<<<<<<<<<<<<<<<<<<<<<<<<<<<<<<<<<<<<<<<<<<<<<<<<<<<<<<<<<<<<<<<<<<<<<<<9<<<<<:::X:X::X::::X:X::X:X::X:X:XX:XXXX:XX:XXXXX:XXXXXXXXXXXXXXXXX+X+X+XX+X+X+X++X++X+++X+++++++-#               ###############               ###############               ###############               ###############               ###############",
"               ###############               ###############               ###############               ###############               ################8$$$$$$$$$$$$$$$$$$$$$=$$=$=$$=$=$=$==$==$=====$==========&=====&==&=&=&=&&=&=&&&&&&&&&&&&&=&8888888888888888888888888888888888888888888888888888888888888888888888888888989888888988988988988988989898988988989898998989989899,89898999,9998999,99999,999,999999,99,9999<9,9,9,99,<99<9,99<999,<9<9<99<9,9<,9<9<,<9<,9<9<9<9<<9<9<<<9<<<<<9<<<<9<9<<<<<<<<9<<<9<<<<<<<<<<<<<<<<<<<<<<<<<<<<<<<<<<<<<<<<<<<<<<<<<<<<<<<<<<<<<<<<<<<<<<<<<<<<<<<<<<<<<<<<<<<<<<<<<<<<<<<<<<<<<<<<<<<<<<<<<<<<<<<<<<<<<<<<<<<<<<<<9<<<<<9<<,::::::::::X:X:::X:X::X:X:X:X:X:X:XX:XXX:XXXXXXXXXXXXXXXX+XXXXXXXXX+X+X+X+X+X++X++X+++X+++++6#               ###############               ###############               ###############               ###############               ###############",
"###############               ###############               ###############               ###############               ###############               #7$$$$$$$$$$$=$$$$=$$=$$$=$$=$=$=$=$=$======$================&=&==&=&=&=&=&=&&&&&&&=&&&&&&&&&&88888888888888888888888888888888888888888888888888888088880888888088808988988888989898898898898989898898898989898989898989,89,99898999,9898989,9989989,98998999,9,9999,99,9,99999999,99,9999<,99<999,9<9,<9<9<9<9,<9<9<9<<,<9<,<9<,<<9<,<<9<9<<<9<<<<<<<9<<<<<<<<<<<<<<<<<<<<<<<<<<<<<<<<<<<<<<<<<<<<<<<<<<<<<<<<<<<<<<<<<<<<<<<<<<<<<<<<<<<<<<<<<<<<<<<<<<<<<<<<<<<<<<<<<<<<<<<<<<<<<<<<<<<<<<<<<<<<<<<<<<<<<<<<<<<<<<<<<<<:::X::X:X::::X:X::X:X:X:X:XX:XX:XX:XXX:XXX:XXXXXXXXXXXXXXXX+X+X+X+XX+X+X+X+X+X++X+++X+++++++9################               ###############               ###############               ###############               ###############               ",
"###############               ###############               ###############               ###############               ###############               #.$$$$$$$$$$$$$$=$$$=$$$=$$=$$=$=$==$==$=$=$====================&==&=&=&=&&&=&=&=&&&&&&&&&&&&&&88888888888888888888888888888888888888888888888888888888888888888888888888888988888888888889888889889889898989898989898,9898988,998,89899,998989,89,98999,99,899999,999999999,9,9,<99999,9,99<9,<,9<9,9<99,9<9,9<9<9<<,<9<9,<9<,<<9<,<9<,<<,<<,<<,<9<,<<<,<9<<<9<<<<9<<<<<<<<<<<<<<<<<<<<<<<<<<<<<<<<<<<<<<<<<<<<<<<<<<<<<<<<<<<<<<<<<<<<<<<<<<<<<<<<<<<<<<<<<<<<<<<<<<<<<<<<<<<<<<<<<<<<<<<<<<<<<<<<<<<<<<<<<<9<<<9<<9<<<:X::::::::X:X::X::X::X:X:X:X:XX:XX:XX:XXXXXXXXXXXXXXXXXXX+XXXXXXX+XX+XX+X+X+X++X+++X+++++++++,################               ###############               ###############               ###############               ###############               ",
"###############               ###############               ###############               ###############               ###############               #%$$$$$$$$$$$$$$$$$$$$=$$=$=$=$=$$=$=$=======$============&==&===&==&=&=&=&=&&&&&&&&&&&&&&&&&&&8888888888888888888888888888888888888888888888888888888888888888888888888888888988989898988898989889898898898,889898,89898989,98989989,8989,99,999999,9,989,99,9,899,9,9,9,9,999999,9,<99<99,9,999<9,9<,9<9<,9<<9,<,99<9,<9<9<<9<9<,<<<9<9<<9<<9<<<<<<9<<<<<,<<,<<,<<<,<<<,<<<<<<<<<<<<<<<<<<<<<<<<<<<<<<<<<<<<<<<<<<<<<<<<<<<<<<<<<<<<<<<<<<<<<<<<<<<<<<<<<<<<<<<<<<<<<<<<<<<<<<<<<<<<<<<<<<<<<<<<<<<<<<,<<<<,<<,<<,<<<<9:::X::X:::::X:X::X:X:X:X:XX:X:XX:XX:XXX:XX:XX:XXXXXXXXXXXXX+XX+X+XX+X+X+X+X++X++X++++X++X++++X################               ###############               ###############               ###############               ###############               ",
"###############               ###############               ###############               ###############               ###############               #=$$$$$$$$$$$$$$$$$$=$$=$$$=$$=$==$=$==$=$=$=====$==============&==&=&==&&=&&=&=&&=&&&&&&&&&&&&$8888888888888888888888888888888888888888888888888888888888888988888889889889888888888888989888888988,8988,8989988989898989,89898,98,989,98989898,8,89989,999999999,9999999999,9,9,9999,9,9,99<9,9,9<99<9<,99<9,9<99<<<9<9<,<9,<<,9<9,9<,<<,<<,<9<,<,<,<9<,<<<<<<<<<,<<<<<<<<<<,<<<<<<<<<<<<<<<<<<<<<<<<<<<<<<<<<<<<<<<<<<<<<<<<<<<<<<<<<<<<<<<<<<<<<<<<<<<<<<<<<<<<<<<<<<<<<<<<<<<<<<<<<<<<<<<<<<<<,<<,<<<<,<<<<<<<<<,<<::::::::X:X:X::::X::X:X:X:XX:XX:XX:XXX:XXXXXXXXXXXXXXXXX+X+XXX+XXX+X+X+X+X+X+X+X++X+X++++++++++################               ###############               ###############               ###############               ###############               ",
"###############               ###############               ###############               ###############               ###############               #$$$$$$$$$$$$$$$$=$$$$$$=$=$=$$=$=$==$==$====$==============&=&==&==&=&=&=&&=&&&&&&&&&&&&&&&&&&&788888888888888888888888888888888888888888888888888888888888888888888888888889889889889888889898,88988,898988889,89898,898989,89898989989,9,9,999999,89,98,9,8,9,99,9,9,9,9,9999,99,9,999,9<,99<99,9,<,9,9<,9<9<,<9,9,<9,<9<,<9,<<<<<<,<<9<<,<<,<<<<<<<,<<<,<,<<,<<<<<,<<<,<<<<<,<<,<<<<<<<<<<<<<<<<<<<<<<<<<<<<<<<<<<<<<<<<<<<<<<<<<<<<<<<<<<<<<<<<<<<<<<<<<<<<<<<<<<<<<<<<<<<<<<<<<<<<<<<<<<,<<,<<<<<<<<<<<<,<<,<<<<<,:X::X:X:::X::X:X:X:X:X:X:X:X:X:XX:XX:XXXX:XXXXXXXXXXXXXXXXXXXXX+X+XXX+X+X+X++X+++X+++++++++++++################               ###############               ###############               ###############               ###############               ",
"###############               ###############               ###############               ###############               ###############               #$$$$$$$$$$$$$=$$$$=$$=$$$$$=$=$=$=$=$=$===$===$===============&===&==&=&=&=&=&=&=&&=&&&&&&&&&&&$888888&88888=8888888888888888888888888888888888888888888888888888888888888888888888888888,88,8889889889888,89,8898,89898,8,889,89,89,8,98989898,8,89,99,998999,98,9899,99,99,9,99,9,99,<9,99,9,9,9<,99<9,9<,9,<9,<9<9<<9<,9<,<<9<,9,9<9<,<,<9<<9<,9<,<<<<9<<<<<<<<<,<<<,<<,<<,<<<<<<<<,<<,<<,<<<:<<<<<<<<<<<<<<<<<<<<<<<<<<<<<<<<<<<<<<<<<<<<<<<<<<<<<<<<<<<<<<<<<<<<<<<<<<<<<<<<<,<<,<<,<<,<<<<<<<<,<<,<,<,<<<<<<,<9<::::::::::X::X:X:X:X:X:X:X:X:XXX:XX:XXXXXXXXXXXXXXXXXXXX+XXXX+X+XXX+X+X+X+X+X++X+X++++X++X+++++O################               ###############               ###############               ###############               ###############               ",
"###############               ###############               ###############               ###############               ###############               #$$$$$$$$$$$$$$$$$$$$=$$=$=$$=$$=$$=$=$==$===$===================&==&=&=&=&&&&&&&&&&&&&&&&&&&&&&&&88888888888888888888888888888888888888888888888888888888888888888888888888888888988,889889888988,88988,89898898,898,88989899898,98,8989,8,9,89999,98989,9,9,899,99,9,99,99,9,99,999,99,99,99,9<9,99,9,<9,9<,9<,9<,9,9<,<9<,9<,<,<<<,<,<<9<<,<,<<<<,<<,<,<,<,<,<,<<<<,<<<<<<<<<,<<,<<<<<<<<<<<<<<<<:<<<:<<<<<<<<<<<<<<<<<<<<<<<<<<<<<<<<<<<<<<<<<<<<<<<<<<<<<<<<<<<<<<<<:<<:<<:<<<<<<<<<<<<<<<,<<<,<<<<<<<<<<,<,<<<<<:X::X:X:X:X::X:::X:X:X:X:X:X:XX:XXX:XX:XX:XXXXXXXXXXXXXXXXX+XXX+X+X+X+X+X+X++X+X++++X+++++++++++O################               ###############               ###############               ###############               ###############               ",
"###############               ###############               ###############               ###############               ###############               #$$$$$$$$$$$$$$$$$$$$$$$$$$=$=$=$==$=$==$==$======$==========&=&==&=&=&==&=&=&=&=&=&&&&&&&&&&&&&&=78&888888888888&88&88&8888&888888888888888888888888888888888888888888888898888,888888,88888988,88988,8988,88,8988,89898,898,8,98989989,898989,8,8989,9,98989,9,99,9,98,99,9,99,99,9,9,99,9,<9,9,<9,9<9,<9,9<,9<,9,<<,9<<,<9<,<9<9,<9<<9,<,9<,<<,<,<<<,<<<<<<<<<<<<,<<<<,<<,<,<<<<<<<,<<,<<,<<,<<<<<<<<<<<<<<:<<<:<<<:<<<:<<:<<:<<<:<<<:<<<:<<:<<:<<:<<:<<<:<<<:<<:<<:<<<<<<<<<<<<<,<<,<<,<<,<<<,<<<<<,<,<<,<<<<<<,<,:::::::::X::X:X:X:X:X:X:XX:XX:XX:X:XXXXXXXXXX:XXXXXXXXX+X+XXXX+XXX+XXX+X+X+X+X++++X+++X+++++++++O################               ###############               ###############               ###############               ###############               ",
"###############               ###############               ###############               ###############               ###############               q$$$$$$$$$$$$$$$$=$$=$=$=$$=$$=$$=$==$=$==$==$==$==========&=======&==&=&=&=&&=&&&&&&=&&&&&&&%&&&&=888888&88&8888888888888888888878888888888888888888888888888888888888888888,88888,88888,8888,88888,8888,889898,89898,8989,89898,8,8,989,9,8,989,9,9,898,9,9,989,8998,99,99,99,9,9,99,9,99,99,9,99,9,9,99,<9,9<,9<9,9<,9<9,<,9<,<,<9,<,<<9<,<<9,<9<<,<<9,<,<,<,<,<,<<,<<<,<<<<<,<,<<,<<<<<<<<<<<,<<<<:<<<:<<<<<<<<<<<<<<<<<<<<<<<<<<<<<<<<<<<<<<<<<<<<<<<<<<<<<<<<<<<<<<<<<<<<<<:<<<<<<<<<<<<<<<<<,<,<<<<,<<<,<,<,<<:::X:X:X:::X:::X:X:X:X:XX::X:XX:XXXXX:XX:XXX:XXXXXXXXXXXXXXX+X+XX+XX+X+X+X+X+X++X+X++X+++++++++++O ###############               ###############               ###############               ###############               ###############               ",
"###############               ###############               ###############               ###############               ###############               1$$$$$$$$$$$$$$$$$$$$$$$$=$$=$=$=$$=$=$=$==$====================&=&==&=&=&&=&=&&=&=&&&&&&&&&&&&%&&&&888&88888888888888888888888788888&87887888788878888888888888888888888,888888888889888888,88898,888,8988,88,8888,898,8,88,8,8,899898,98,8998,98,898,9,89,98,9,9,9,9,9,98,9,9,99,99,99,9,99,9,99,<9,<9,<,9,<9,9,9,<,9<,9<,<9<9,<9<,<9<,<,<<,<,<<<,9<,<,<<<,<<,<<<<,<<<,<<<,<,<<<<,<<<,<,<,<,<,<<<:<<<<<<<<<<<<:<<<:<<<:<<<<<<<<<:<<<<<<<:<<<<<<<<<<<<<<<:<<<:<<<<<<<<<<<:<<<:<<<<,<<,<,<,<,<,<,<,<<<<<,<<,<,<<<<<<,X:X:::::X:X:X:X:X::X:X:XX:XXXX:XX:X:XXXXXXXXXXXXXXXXX+XXX+XXXXXX+X+X+X+X+X++X++X++++++++++X++++++O*###############               ###############               ###############               ###############               ###############               ",
"###############               ###############               ###############               ###############               ###############               -$$$$$$$$$=$$$$$$$$$=$$=$$$=$$=$=$=$=$===$===$=$==============&=====&=&=&=&=&&&=&&&&&&&&&&&&&&&&&&&&8888888888&88&8888&88&88887888&88888888878887888787887887888788888,888888888,888878,88,8888,8888,8888,88988,8,88,889898,89898,8,8,898,89,8,98,98,98,9,98,998,98,9,9,9,9,98,9,9,9,9,9,9,9,9,9,9,9,9,9,99,9,9<,<9<,9,<,<,9<<,<,9,<,<,<9,<,<9<,<,<,<,<<<,<,<<,<<,<,<<,<<,<,<<<,<,<<<,<<<<<<<<<<<<<<<<<<:<<<:<<<<<<<<<<<<<:<<:<<<<<<:<<:<<<<<:<<:<<:<<:<<<<<<<<<<:<<:<<:<<<<<<<<<<<<<:<<<<<<<<<<<<<,<,<,<<,<<<,<,<,<:::::X:X::X:::X:X:XX:X:X:X:X:X:XX:XXXX:XX:XXXXXXXXXXXXXX+XXX+X+X+XX+XX+X+X+X+X+X++X+X+++++++++++++O-###############               ###############               ###############               ###############               ###############               ",
"###############               ###############               ###############               ###############               ###############               4$$$$$$$$$$$$$$$=$$$$$$$$=$$=$=$$=$==$=$==$=$====$===============&=&==&==&=&=&=&&&=&&=&&&&&&&&&&&%&&$8888&88&8888888&88888887888888888888878888888888888888888788888788888887888888,888888888,8888,8898,88988,9889898,8,8,898,8,9898,98,89,89,89,89,89,9898,9,8,9,9,98,989,99,9,9,9,9,9,9,9,9,9,9,9,9,9,9,<,9<,9,9,9,<9,<9,9,<<9,<<,9<,<,<,9<,<,<<,<<9<,<,<<,<<,<,<<<,<<,<<<<<,<<<<,<<<,<,<,<:<<:<,<<<:<<<<<<<:<<<:<<<:<<<<<<<<<:<<<<<<<<<<<<<<<<<<<<<<<<<<<:<<<<<<<<<<<<<<<:<<,<,<,<<<<<,<,<,<,<,<<,<<<,<<<,<<,<<<:X:X:X::X:X::X:X:X:X:X:XX:X:XXXX:XXX:XXXXXXXXXXXXXXXXXXXXXX+XXXX+XXX+X+X+X+X+X++++X++++++X+++++++++O5###############               ###############               ###############               ###############               ###############               ",
"###############               ###############               ###############               ###############               ###############               6$$$$$$$$$$$$$$$$$$$$=$$=$$$$=$=$=$=$=$=$=====$==============&==&====&=&=&=&&=&&=&&&&&&&&&&&&&&&&&&%&&88888888=888888888888&88&88&8887878888787887878878788788888788887878888,88888888,88,88888,88888888,88,888,88,888988,8,8988,8,898,8,89,89,89,89,8,8,,98,9,98,98,99,,9,8,9,9,9,9,9,9,9,9,9,9,9,9<,9<,9,9,,9,<,<,9,<,9,<,9,,<,<,<,<9,<<,<,<,<,9<,<,<,<<,<<,<<,<,<,<,<<,<,<,<<,<,<<,<<<<<<<<<<<<<,<<<<<,<<<<<<<<<<<<<<:<<<:<<<<<:<<<:<<:<<:<<<<:<<<:<<:<<<<<:<<<:<<<:<<:<<<<,<<<<<,<,<,<<<,<<,<<,<<,<,<<,<<,<<,<:X:::::X::X:X:X:X:X:X:XX:XX:XX:X:XX:XXXX:XXXXXXXXXXXXXX+XXXXXX+X+X+X+X+X+X++X++X+X+++X++++++++++++++O4###############               ###############               ###############               ###############               ###############               ",
"###############               ###############               ###############               ###############               ###############               0$$$$$$$$$$$$$$$$$$=$$$$$$=$=$$$=$$=$==$==$=$===$===$==============&=&==&==&=&&=&&=&=&&&&&&&&&&&&%&&&=78&88&888888&888&88&888888888&888888&8888&888878888788888788887888888788878788788888888,8888,8,8,888,888,88,88,8,8,8988,8,898,8,8898,8,8,8,89,8,9,989,9,89,8,9,8,989,9,9,89,9,9,9,9,9,9,9,9,9,,9,9,9,9,9<,9,9<,9,<,9,<,9<9,9,9,<,<,9,<,9<,<,<,<,<,<,<,<,<,<<<,<,<<,<,<,<<,<,<<,<<:<,<:<,<,<,<<:<<:<<<,<:<<,<:<<:<<<<:<<<<:<<<<:<<<<<<<<<<:<<<:<<<<<<<:<<<<:<<<,<<<<<<<,<<<<:<,<<<<<<:<<,<<,<<,<<,<<,<,<,<,<,:::X:X::X::X::X:X:X:X:XX:X:X:XX:XXXXXXXXXXXXXXXXXXXX+XXXX+XX+XX+XXXX+X+X+X+X++X++++X++++X++++++++++++6###############               ###############               ###############               ###############               ###############               ",
"###############               ###############               ###############               ###############               ###############               8$$$$$$$$$$$$$$$$$$$$$=$=$$$=$=$=$=$=$=$=$===$=================&=&====&=&=&=&=&&=&&&&&=&&&&&&&&&&&&%&&=888888=88&8888888888&888788888&8878888888887888788887878887888878878887888,8888,88,88,888,888888,8888,88,88,88,888,8,8,898,898,98,898,89,8,8,98,8,,8,89,,9,9,9,9,,9,9,9,9,9,9,9,9,9,9,9,9,9,99,9,9,<,9,9,<,9,9,9,<,9,<,,<,<,<,9<,<,<,<,<,<,<,<,<<,<,<,<,<,<,<<,<,<<<,<<,<<<,<<,<<<<<<<<,<<<<<<<<<<:<<<<<:<<<<<<<,<<<<<<<<<<<<<<<:<<:<<<<<<<<<<<:<<:<<<,<<<<<<<<:<<,<,<<:<<<<<,<:<,<<<,<<,<<,<,<<,<<,<,<,<<:X:::X:X::X::X:X:X:X:XX:XX:XXX:XXX:XX:X:XXXX:XXXXXXXXXXX+XXX+XX+X+X+XX+X+X+X+X++X+X++++X+++++++++++++O9###############               ###############               ###############               ###############               ###############               ",
"               ###############               ###############               ###############               ###############               ###############7$$$$$$$$$$$$$$$$$$$$$$$$$$=$$$=$$=$==$=$==$===$==$================&=&=&=&=&=&=&&=&=&&&&&&&&&&&&&&&&&&&=888=88888888&8&88&888&888&8888878888&87887887888787888878878788788878887888,878878878887888,8,88,8,88,88,88,88,8,888,88,8,8,8,8,8,8,98,898,98,8,989,9,8,898,89,8,8,89,8,9,8,9,9,9,9,9,9,9,9,9,,9,9,9,<,9,9,9,<,9,<,9,<9,<,9,<,,<,<,<,<,9<,<,,<9,<,<,<,<<,<,<,<<,<,,<<,<,<,<<,<<,<:<,<,<<<:<,<:<,<<<:<,<<<<<,<:<<<<:<<:<<:<:<<:<<<<<<:<:<<:<<:<<<<<<,<<<,<<:<:<<<,<<<:<<<,<:<,<<<<,<,<<,<,<,<<,<,<,<<,<<<X::X:X::::X:X:X:X:X:X:XX:X:X:X:XX:XXXXXXXXXXXXXXXXXXXXXXXXX+XXX+XXX+X+X+X+X++X++X++++X+++++++++++++++++9               ###############               ###############               ###############               ###############               ###############",
"               ###############               ###############               ###############               ###############               ###############7$$$$$$$$$$$$$$$$$$$=$$$=$$$=$=$=$=$=$=$=$==$===================&=======&=&=&&=&=&&&&&&&&&&&&&&&%&&%&%&&%8888=8&8=888888&888888&888&88788&888887887887878887878878888788787887887878887888,887,88,788788878,88,88,88,88,8,8,8,8,88,8,8,8,8,8,8,8,,8,8,98,,8,8,9,8,,9,,8,9,9,,9,9,8,9,8,9,,9,,9,,9,,,9,9,,9,,9,,9,,<,,9,<,9,<,,,9,<,<,9<,9,<,9,<,,<,<<,,<,<,<,<,,,<,<,<,<,<<,<,<,<,<:<,<,<<,<,<:<,<<,<<<,<,<<<<:<,<:<<<<:<<<<:<<<<<<<,<<:<:<<<<<<:<<<<<:<:<<<:<:<<,<<<<:<<:<<<<:<<<<<,<:<,<,<,<,<<,<,<,<,<,<,<,<::X::X:X:X:X::X:X:X:XX:X:XXXXX:XX:XX:XXXXXXXXXXXXXXXXX+XX+XXXX+XX+X+X+X+X+X+X++X+++X++++++++++++++++++OO9               ###############               ###############               ###############               ###############               ###############",
"               ###############               ###############               ###############               ###############               ###############7$$$$$$$$$$$$$$$$=$$$$=$$$=$$=$$$=$$=$=$==$==$=$=$===$============&=&=&=&=&=&=&&&=&=&=&&=&&&&&&&&&&&&&&&&%8=8888888&88=888878&888888888788888788&8878788787888788787887888878878888878,87878,8887888,88,8,88788,888,88,888,888,8,8,88,898,8,8,8,8,89,8,9,89,8,8,9,8,8,9,8,9,8,8,9,9,9,9,,9,9,9,9,9,9,9,,9,9,9,9,9,9,<,,9,<,9,9,<,9,9,<,,<,9,<,<,<,9,<,<,<,<,<,<<,<,<,<,<,<,<,<,<<,<<,<<,<,<<,<<<<<,<<,<<:<<<:<<<,<<<:<,<<<:<<<<:<,<:<<<<<<<:<<:<<<,<:<<<<<:<<<<,<<,<,<<,<<,<,<<,<:<,<<<,<<,<<,<,<,<<,<,<,<,<,<,:X::X:::X:X:X:X:X:X:XX:XX:X:X:XXXXXXXXX:XX:XXXXXXXXXXXXXXXXXX+XX+XX+XX+X+X+X++X++X++X++X++X+++++++++++++9               ###############               ###############               ###############               ###############               ###############",
"               ###############               ###############               ###############               ###############               ###############7$$$$$$$$$$$$$$$$$$$$$$$=$$$=$$=$=$=$=$=$=$========$==========&=======&==&==&=&=&&&&&&&&&&&&&&&&&&&%&%&&&&88878&888887887887888&8&88&87878&8787888&8887878787878788787878788788,787888788,88787,887887,888,8,878,8,88,8,8,8,8,88,8,8,8,8,8,8,8,8,8,8,8,8,8,8,9,8,8,9,8,9,8,8,9,,8,,8,,9,8,,9,,9,,9,,,9,9,,,9,,,<,,9,9,9,,,9,<,<,,<,,<,,<,,<,,<,<,<,<,<,<,<,<,<,,<,<,<,<,<,,<,<,<,<,<,<,<,<,<,<:<:<<:<<:<<<:<<,<:<<:<<<,<:<<<:<,<<<<<<:<:<<<<<:<<,<<<<,<:<<<,<:<<:<<:<<,<,<<:<,<<,<<,<:<<,<,<:<<,<,<,<,<,<,<,<,:X::X::X:::X:X:X:X:XX:X:X:XXX:XX:X:XXX:XXXXXXXXXXXXXX+XX+X+X+XX+XX+XX++X+X+X+X++X++++++++++++++++++++O++O9               ###############               ###############               ###############               ###############               ###############",
"               ###############               ###############               ###############               ###############               ###############%$$$$$$$$$$=$$$$$$$$$$$$$$=$$$=$=$=$=$==$==$=$=$=$================&=&==&=&=&=&=&=&=&=&=&&&&&&&&&&&&&&&&%&&=88&8888&8=88&87788=888888888888888&8878888787887887888788788878878878888787887887888888,8,888,87888,8788,78,888,88,8,88,88,8,8,8,8,8,89,8,8,8,8,9,8,8,9,8,9,8,,9,9,,9,9,9,8,9,9,8,9,,9,,9,9,,9,9,9,9,9,9,,,<,9,<,,9,,9,<,9,<,9,<,<,,<,,<,,<,,<,<,<,<,<,<,<,,<,<<,<,<,<,<,<,<,<,<,<,<<<,<<,<<,<,<<,<<<,<<<<:<<<,<,<<<<:<:<,<<<<:<:<<<<<:<:<,<<,<,<<<,<<,<<,<,<<:<<<<,<,<,<,<<,<,<,<<,<,<,<,<,<,<,<<:X::X::X:XX:X:X:X:X:X:X:XXX:X:XX:XXXX:XXXXXXXXXXXXXXXXXXXXXXXX+XX+X+X+XX+X+X+++X+++X+X+X+++++++++++++++++O,               ###############               ###############               ###############               ###############               ###############",
"               ###############               ###############               ###############               ###############               ###############%$$$$$$$$$$$$$$$$$$$=$$=$$$$=$$$=$$=$=$=$=$===========================&==&=&=&&=&&&=&&&&&&&&&&&&&&%&&%&&&&&&888&888888&8888&888&87&8&878&88&88878878&888788787878787887887887887878,88788788,787,878787878,8,88,8,888,87,88,88,8,8,8,8,8,8,8,8,8,8,8,9,8,,8,8,9,8,8,8,8,9,8,,8,8,,8,9,,,9,,9,,8,9,9,,,9,,9,,,9,,,9,<,9,,<,,9,,<,,9,,<,,9,<,9,<,9,<,<,<,<,,<,,<,<,<,<,<<,<,,<,<,<,<,<,,<,<,<,<<,,<,<:<,<<,<,<,<:<<:<,<<,<:<<,<:<,<<<,<,<:<<<<,<:<,<<<<,<,<:<<:<<,<<:<<,<:<<,<:<,<<:<<,<,<,<,<,<,<,<,<,<,<,<,<:X::X::X::X:X:X:X:XX:XX:XX:XX:XXXXXXXXXXXXXXXXXXXXXXX+XX+XX+XX+XX+XX+X+X+X++X+X++X+++++++++++++++++++++O++O,               ###############               ###############               ###############               ###############               ###############",
"               ###############               ###############               ###############               ###############               ###############%$$$$$$$$$$$$$$$$$$$$$$$$$=$$=$=$$=$=$==$==$=$=$=$==$=============&=&===&=&==&=&=&=&&=&&&=&&&&&&&&&&&&&%&%&&&878&8&8=8888&888&88888888&887888788&878887787878787878787878787878787878787,87878,8878788,8,8878,7878,8,78,87,87,88,78,8,88,8,8,8,8,8,8,8,8,8,8,8,8,8,,,9,,,8,,8,9,,9,,,9,8,,8,,9,9,,,,9,,9,,,9,,9,9,,,,,9,,9,,9,,<,,<,,<,,<,,,,,,<,,<,,,<,,<,,<,<,,<,,<,,<,,<,<,<,<,<,<,<,<,<,<:<<:<,<<<,,<:<,<,<<,<<,<:<,<<:<,<<<,<:<<:<<,<,<:<<,<<:<:<<:<<<,<<:<,,<<,<,<<,<,<,<,,<<,<:<,<:<,<,<,<,<,<,<,<,<,:::X::X:X:X:X:X:X:XX:X:XX:XX:XXX:X:XX:XXXXXXXXXXXXXXXXXXXXXXX+XX+XX+XX+X++X+X++X+++X+X+++++X++++++++O+++O+O,               ###############               ###############               ###############               ###############               ###############",
"               ###############               ###############               ###############               ###############               ###############%$$$$$$$$$$$$$$$$$$$$$$$=$$$$$$=$=$$=$=$=$==$==========$========&=====&==&=&=&=&&=&&=&&=&&&&&&&&&&&&%&&&&&&%&787888888&8788&888=8&878888&88&88&88878787878787878788787878787878878787888788,878788,8,78787,8788,878788,88,8,88,88,88,8,8,88,8,8,8,8,8,8,8,,8,,8,,9,8,8,8,9,8,,8,8,8,8,,9,9,,9,,,9,9,,9,,9,9,,9,,,9,9,9,,9,,<,,9,9,,9,,9,,<,<,<,,<,,<,<,,<,<,,<,<,,<,<,<,<,<,,<,<,<,<,<,<,<:<,<,<<,<,,<,<<<,<,<,,<,<,<<<,<,<<:<:<<,<<:<<,<:<<<,<,<:<<<,<<,<:<,<<<,<,<,<,<,<,<,<,<<,,<,<,<,<,<,<,<,<,,<,,<,<,:X:X:X::X:X:X:X:XX:X:XXX:XX:XXX:XXXXXXXX:XXXXXXXXXXX+XX+XX+X+XX+XX+X+X+X+X+X+X+X++X++++++++++++++++++++++++O,               ###############               ###############               ###############               ###############               ###############",
"               ###############               ###############               ###############               ###############               ###############&$$$$$$$$$$$$$$$$$$$$$=$$$=$=$=$$=$=$=$=$=$=$==$=$=$================&==&==&=&=&=&&=&&&&&&&&&&&&&&&&&&&&%&%&&&=788=8=8&888=888&888888&8&8878878878788&87878787878787878787878787878878,7878787878,7878878,8788,878,8,8,78,7887,87,87,8,78,8,8,8,8,8,,8,8,8,8,8,8,8,8,8,,8,8,9,8,,9,,9,,8,8,,8,9,8,,8,9,,9,,,,9,,,9,,,,,9,,,9,,<,,,,<,,<,,9,,,<,,<,,<,,,<,<,,,<,,,,<,<,,,<,,<,<,,<:<,,<,<,<,<,<,<,<,<,<,<:<:<,<,<<,<:<,,<,<,<,<<<,<:<,<<<:<<,<:<<:<<<,<,<:<,<<,<,,<:<,<:<,<,<:<,<,,<,<,<,<,<,<,,<,,<,<,,<,<,:X::X::X:X:X:X:X:XX:XX:X:XX:XX:XXXXXXX:XXXXXXXXXXXXXXXXXX+XXXXX+XX+X+X+X+X+X+X++++X+++X+++X+++++++++++++O+O+O,               ###############               ###############               ###############               ###############               ###############",
"               ###############               ###############               ###############               ###############               ###############&$$$$$$$$$$$$$$$$$$=$$$$$$$$$$$=$$=$$=$$=$==$=$======$============&===&==&==&=&=&=&&=&=&&&=&&&&&&&&&&%&&&&%&&&&8788888&8&88=887&8&8788878&878&88&8788878&88787878787878787878787877878787878787878787,87878,787,8787878,8,8,8,7,8,8,78,8,7,8,8,8,8,8,8,,8,8,,8,,8,,8,8,,,8,,8,,8,8,,8,,,,,9,,,,,9,,,,8,,,9,,,,9,,,9,9,,,9,,,9,,9,,,,9,,<,,<,,,<,,9,,<,,,,<,<,,<,<,,,<,<,,<,,<,<,<,<,,<:<,<,<:<,,,<:<,<,<,<,<:<:<,<<,<,<:<:<,<:<,<<,<:<:<<:<,<,<<:<:<:<,<,<:<,<,<,<,<,<,<:<,<,<:<,<,,<:<,<:<,<,,<,,<,<,,<,:::X::X:X:X:X:X:XX:X:X:XXX:XXX:XXX:XX:XXXXXXXXXXXXXX+XX+XXXX+X+XX+X+X+X+X++X+++X+X+++X+++++++++++++++++O+++++OX               ###############               ###############               ###############               ###############               ###############",
"               ###############               ###############               ###############               ###############               ###############=$$$$$$$$$$$$$$$$$$$$$$$$$=$$=$$=$=$=$===$=$=====$=$================&====&=&=&=&=&&=&&&&=&&&&&&&&&&&&&&%&%&&%&&&878=8&888&888&8888&88&8&88878878878778&8887787878787878778787878788787878787878,878,87878,878,8878,8,8,78787,88878,88,8,8,87,8,8,8,7,8,8,8,8,8,8,,8,,,8,8,,8,,8,,,8,,,9,8,8,,8,8,,9,9,,,9,,9,9,,,9,,,,9,,,9,,,,,<,9,,<,,,,,<,9,,,,<,,,<,<,,,<,,<,,<,,<,,<,<,,<,,,<,,<,<,<:<,<<,<,<,<,<:<,<,<,<<,<:<,<:<,<<,<,<<:<:<,<,<<,<,<,<:,<<,<<,<,<,<,<:<,<:<,<:<,<,<,<,<<:<,<,<,<,<<:<,<,,<,,,<,<::X:X:X:X:X:X:X:XX:XX:XX:X:XX:XXX:XXXXXXXXXXXXXXXXXXXXXXXXXX+XX+X+X+XX+X+X+X+X+X++++X+++++++++++++++++O++++O+O++               ###############               ###############               ###############               ###############               ###############",
"               ###############               ###############               ###############               ###############               ###############=$$$$$$$$=$$$$$=$$$$$$$=$$$$=$$$$=$$=$$=$=$=$=$=======================&=&==&==&=&=&&=&=&&&&&&&&&&&&&%&&&&&&%&%&&787888&888&888&8&888&8887&878&878&88788778787787787787878787878787787878,7878,78787878,87878787,87878,88,8,87,7,8,7,78,78,8,8,8,7,8,8,7,8,,8,,8,8,8,8,,8,,8,,8,,8,,8,8,,,,,,8,,,,8,,,,9,,,8,,,,9,,,9,,,,<,,,9,9,,,,,,,,<,9,,,,<,<,,,<,,,,<,<,,<,,<,,<,,<,,,<,,<,<:<,,<:<,<,,,,<:<,<:<,<,<:<,<:<,<,<:<<,<:<,<:<,<,<,<:<,,<:<,<,<<:<,,<:<:<,<:<<,<,<,<,<,<:<,<:<,,<,<:<,<:<,,<,<:<,<,<,,<,X:X:X:X:X:X:X:XX::X:XXX:XXX:XXX:XXXX:XXXXXXXXXXXXXX+XX+XX+X+XX+XXX+X+X+X+X+X++X++X++++X++X++++++++++++++O+++++O+               ###############               ###############               ###############               ###############               ###############",
"               ###############               ###############               ###############               ###############               ###############=$$$$$$$$$$$$$$$$$$$$$$$$$=$$$=$=$$=$=$=$=$==$==$=$==$==$=========&==&=====&=&=&&=&=&&&=&&&&&&&&&&&&&&&&%&%&&&%&$778=78&8&88=878878&888&88&87887788777788&877877877877787877877877878787787878787,787877,78,7,787,7,77,77,77,88,78,88,78,87,7,78,8,7,8,7,8,7,8,7,8,,8,8,,8,,8,,8,,8,,,,,8,8,,,,9,,,,,8,,8,,,,9,,,,,,,,9,,,,,,,,,,,,<,9,,,,,,<,,,,,<,,,,<,,,,,,,,,,<,,,,,,<,,,<,,,<,,<,,<,,,<<:<,<,,<,,<:<,<:<,<:<:<,<:<,<:<,<:<,<:<:<<:<,<,<:<,,<,<:<,<<:<,<:<:<:<:<:<:<,<,,<:<,<:<,<,,<,,<,,,,<,,,,,<,::::X:X:X:X:X:XX:XXXX:X:XX:XXX:XXXXXXXXXXXXXXXXXXXXXXXXXXXXXX+XX+X+XX+X+X+X++X+X+++X+X++++++++++++++++++++O+O+O++               ###############               ###############               ###############               ###############               ###############",
"               ###############               ###############               ###############               ###############               ###############$$$$$$$$$$$$$$$$$$$$$$$$$$$$=$$$=$=$=$=$=$=$=$=$===$===================&=&==&=&=&=&&=&=&&=&&=&&&&&&&&&%&&&&%&%&%&=8&88&888&88&8=8&887&888788&8&88&87878&8878787878787877878778787878778787877878787,78788787787,88788878,88,87,87,78,7,8,7,8,8,8,8,8,8,8,7,8,7,8,,7,,8,8,,8,,8,,,8,,8,8,,,,8,8,,8,8,,,,,,,9,,,,9,9,,9,,,9,9,,9,,9,,,,,,9,,<,,,,9,,,,<,,,,<,<,<,<,,,,<,<,,,<,<:<,<,,<:<,,<,<:<,<:<,<:<,<,<,,<,<,<,<,<,<,<,<,<:<,<:<<,<:<<:<:<<:<<:<,<,<:<<,<,<,<,<,<,<,<,<:<,<,<:<,<:<,<:<,,<,<,,<,<,<,::XX::X:X:X:XX:X:X:X:XXX:XXXX:XXXXX:XXXXXXXXXXXXXXX+XX+XX+X+XXX+XX+X+X+X+X++X++++X++++++++++++++++++++O+O+++++O+O+               ###############               ###############               ###############               ###############               ###############",
"               ###############               ###############               ###############               ###############               ###############$$$$$$$$$$$$$$$$$$$$$=$$$$$$$$=$$$$=$$$=$==$==$==$===$===============&====&=&=&==&&=&&&&&&&&&&&&&&&&&&&&&%&&&&%&&&=8&88&8&88&888788&8878&8&788877878&87877877777777787787777878778778787787787877878787,77,78,7877,7,7,78777,87,78,7,78,7,8,87,7,7,7,7,7,8,8,8,,8,8,8,7,,7,8,,8,8,,8,,,8,8,,,,,,,,,8,,8,9,,,,8,,,,,,,,,,,,,,,,,,,,,9,,,,,,,,,,,,,,<,,,,<,,,,,,,,,,<,,,,,<,,,,,,<:<,,<,,<,,,<,,,<,,,<:<,,,,<:<:<:<:<:<:<:<:<,<:<,<,<:<,<:<,<,,<:<,<:<:<,<:<:<:<,<:<,<:<,,,<:<,,,<,,,<,,,,<:<,,,,<:<:<,:X:::X:X:X:X:XX:X:XX:XX:XX:X:XXXXX:XXXXXX:XXXXXXXXXXXXXX+XXXX+X+XX+X+X+X++X+X+X+X+++X+X++++X+++++++++++++++O+O++O++               ###############               ###############               ###############               ###############               ###############",
"###############               ###############               ###############               ###############               ###############               $$$$$$$$$$$$$$$$$$$$$$$$$%$$=$$$=$=$=$=$=$=$=$==$==$===$===============&=&==&==&&=&=&=&=&&=&&&&&&&&&&&&%&&%&%&&%%&&&88=888&88&8=8&88&8&88887&8&88&8787878&878787887877878787777877877878778,77,878787,878878778,7887878,7,8,78,87,887,8787,7,8,8,8,8,8,8,7,7,8,7,8,,7,,8,8,,7,,,,,8,,8,,,,8,8,8,,,,,,8,,,,8,,,,8,,9,,9,,,,9,,,9,,,,,,<,,<,,9,<,,<,,,<,,,,<,,<,,<,,,<,<,,,<,<,<,,<,,<:<,,,<:<,<,,<,<,<,<:<,<,<,<,<,<,<,<,<,<:<<,,<:<,<:<,<:<,<:<,<:<,<,,<,<,<,,<:<,,<,<:<,<,<:<,,<,<:<,<,,<,,<,<,,<,,:::XXX:X:X:XX:X:XXX:XX:X:XXXXXX:XXXXXX:XXXXXXXXXXX+XX+XXXXX+X+XX+X+XX+X+X+X++X++++X+++++++++++++++++++O++O++++O+O+O+###############               ###############               ###############               ###############               ###############               ",
"###############               ###############               ###############               ###############               ###############               $$$$$$$$$$$$$$$$$$$$$$$$$5$$$$=$$=$$$=$=$=$=$=$=====$================&======&=&===&&=&&&=&&&&&&&&&&&&&&&&&&&&&%&&%&&$88&8=88&87888&78788&8&8888&88&878&7787878&87777787777878787787787777878787877,77877,787,87787,7,8,78787877,87,7,87,8,78,7,,87,78,7,8,8,7,,8,,7,8,8,8,,8,8,8,8,,8,,,8,,,,,,8,8,8,,,,8,,,9,,,,,,,,,,,9,,,,,,,,,9,,,,,,,,,,,,,,,,,,,,<,,,,,,,,,<,,,,,<,,,,,,,,,,,,<,,<:<,,<:<,,,,,,,,<:<,,,,,,,,,<:<:<,,,,<:<:<,<:<,<:<,<:<,<,,<,<,,<:<:<:<:<,<:<,,,<:<,,,<,,<,,,<,,,,,<:<,,,,,,<:X:XX::X:X:XX:X:X:X:XX:XXX:XX:XXXXX:XXXXXXXXXXXXXXXXXXXXX+X+XXX+XX+X+X+X+X+X+X+X+X++X+X+++X++++++++++++++++O+O++O++O+###############               ###############               ###############               ###############               ###############               ",
"###############               ###############               ###############               ###############               ###############               =$$$$$$$$$$$$$$$$$$$$$$$$2&$$$$$=$$=$$=$=$===$=$=$====$===$========&===&=&=&==&=&&=&&=&=&&&=&&&&&&&&&&&&%&%&%&&%&%&%&&7878&88&8=8&88=8&87877&878778778878&8&8787787877787777787787787787877777778787877877,787,7,7877778,7,7,787,78,7,7,7,8,78,7,7,8,7,8,7,8,78,7,8,,7,,7,7,,,7,,7,,,7,8,,8,8,,,,,,,,,8,,,,,,,8,,8,,8,,,,,,,9,,,,,,,,,,,,,,,,,,,,,,,,,,,,,<,,,<,,,,,<,,,,<:<,,<,,<,,,,,,<,,,,,,,<:<,<:<,<:<,<:<,<:<:<,,,<:<,,<,<:<,,,,<,,,,<:<:<:<:<:<:<,,<,<,,,,<:<,<:<,,<:<:<:<:<:<,<,,,,,,<:<,,:X:X::XX:XX:X:XXXXX:XX:XX:XXXXXX:XXXXXXXXXXXXXXXXXX+XX+XXXXXX+X+X+XX+X+X+X+X+X+++++X++++++++++++++++++++O++++++O++O+O+###############               ###############               ###############               ###############               ###############               ",
"###############               ###############               ###############               ###############               ###############               =$$$$$$$$$$$$$$$$$$$$$$$$55$$$=$$$=$$=$=$=$==$===$==$========================&=&=&=&=&&&&=&&&=&&&&&&&%&&&&&&&&%&&%&%&&=78&88&87878778788&8&88778&8778&777878778&877777877878778777877787778787877877778787877878787,78,77,7878,78,7878,787,87,87,87,7,7,7,7,8,,7,8,7,7,8,,,7,8,8,,7,8,,,7,,,,,,8,8,,8,,,,8,,8,,,,,,,,,,,,,,,,,,,9,,,,,,9,,9,,,,<,,<,,<,,,,,,,,,,,,<,,:<,,,<,,<:<,,:<,,<,,:<,<,<,,<:<:<,,,<:<:<,<:<,<,,<,,<:<,,,,,<:<,<:<,<:<,,<,,<,,<,<,,<:<:<,<,,<,,,<:<,,,<,,<,,,<,:<:<,<,<,,,<:X:X:XX::X:X:X:X:X:XX:XX:XXX:XX:XXXXXXXXXXXXXXXXXX+XXXXXX+X+X+X+XX+X+X+X+X++X+++X+X+++X++++++++++++++++O+++O+O+O++O+O++###############               ###############               ###############               ###############               ###############               ",
"###############               ###############               ###############               ###############               ###############               =$$$$$$$$$$$$$$$$$$$$$$$$458$$$$=$$=$=$$=$=$=$=$===$==$==============&=&=&=&=&==&=&=&=&=&&&&&&&&&&&&&&&&&%&%&%&&%&%&%&%&78&87=8=8&8&8&8&8877&8&88&8&8878&87787787787877787777877877787778777877877,87,77,778,77787,87787878,7,7877,7,78,7,7,7,7,8,7,7,8,8,7,7,7,8,7,8,7,78,,8,,7,8,,,7,8,,7,8,7,,,,,,,,8,,,,,,,8,,,8,,8,,8,,,,,,,,,9,,,,,,,,,,,,,,,,,,,,,,,,<,,,,,,,,<,,,,,,,,,,,<,,,,,,<,,,:<:<,,<,,,,<:<,,<,,,<,,,,<:<:<,,<:<,<:<,,,<:<:<,,<:<,,,<:,,,<:<,,,,:<:<:<,,<:<,,,,,,,<,,,<,,,,,,:<,<:X:X:X::XX:X:XXX:XX:X:XXXXX:XXXXXXX:XXXXXXXXXXXXXXXXXX+XXXXXX+XXX+XX+X+X+X+X++X+X+++X++++X++X++++++++++++++O++++O+O+O+O+###############               ###############               ###############               ###############               ###############               ",
"###############               ###############               ###############               ###############               ###############               &$$$$$$=$$$$$=$$$$$$$$$$$455$$=$$=$$$=$=$=$=$==$=$==$====$==================&==&=&=&=&&&=&=&=&&&&&&&&&&&&&&&&&&%&&%&%&%&%788&88&8788&878&8&78787787878&78778&7778&8&77777778777777877787778777778777778778777787,77787,7,7,7877,7,787,77,787,87,77,8,7,7,7,7,8,7,7,,7,,7,,,7,,7,,,7,8,,,7,,7,,,,,7,7,7,,,7,,7,,,,,,,,,,,,,,,,,,,,,,,,,,,,,,,,,,,,,,,,,,,,,,,,,,<,,,,,,,,,,,,,,,,,,,<:<,,,,,,<,,,,,:<:<,,,,,,:<:<:,,,,,,,,<:<:<,,:<,:<,,,,,<:<:<:<:<:<:<,,,,:<,,<,<,,,,,,,,,,,<:<,,,,,,,,,<:<,,,:X:X:X:XX:X:XX:X:XX:XXXX:X:XXXXXX:XXXXX:XXXXXXXXX+XXX+XXX+X+X+XX+X+X+X+X+X++X+X++++X++++++++++++++++++++++O++++O++O+O+O++###############               ###############               ###############               ###############               ###############               ",
"###############               ###############               ###############               ###############               ###############               &$$$$$$$$$$$$$$$$$$$$$$$$0558$$$$$=$=$$=$$=$=$==$=====$=================&==&=&=&==&=&=&=&&&&&&&=&&&&&&&&&&%&%&&%&%&%&%&&&%778&87&8=88&87878&8&8&8&8&87877&87878&887887877877778777778777877787877787877787,787,7787,77787777,7,787,7,78,78,77,78,7,77,78,7,8,7,8,7,8,7,8,78,7,,7,7,,7,7,,8,,,7,8,,,,,,,7,,,8,,,7,,,,,,,,,,,8,,,,,,,,,,,,,,,,,,,,,,,,,,,,,<,,,,,,,,<,,,,,<,,<,,<,,,,,,,,,<:<,,,,<:<,,<:<,<:<,<,,,<,<:<:<,,,,,,,,<,,,<:<:<,,,,,<,,,<:<,,,,<,<,,,<:,,,<:<,<:<,<:<,,,,<:<,,<:,,,,<:X:X:XX:X:X:X:XXXX:XX:X:XXXXXX:XXXXXXXXXXXXXXXXXXXXX+XXXX+XXX+X+XX+X+X+X+X+X++X++X++++X+X+++++++++++++++O+++O+O++O++O+O+O7###############               ###############               ###############               ###############               ###############               ",
"###############               ###############               ###############               ###############               ###############               %$$$$$$$$$$$$$$$$$$$$$$$$0555$$$=$$=$$=$$=$==$=$=$=$=$=====$=============&=====&=&=&&=&&=&=&=&&&&&&&&&&&&&&&&&%&&&%&%&%%&&%78&8&878&78&8&8&878787878%8&7787777787777777777778777778777777787777787777787777777787,777,77,78,77877,7787,77,7,7,7,787,8,7,7,7,7,7,7,7,7,7,7,,7,,7,8,,7,,,8,,7,8,,,,7,8,8,,,,,,,,,,,,8,,7,,8,,,,,,,8,,,,,,,,,,,,,,,,,,,,,,,,,,,,,,,,,,,,,,,,,,:,,,,,,,<:<,,,,,,,,,,,,,,,,,,:<,,:,<:<:,,,<:<:<,<:<,,:<,,,,,<:<:<,,:<,,,,,<:<:<:,<:,,<:<:<,,:<,,:<:<:<,,,,,,:<,,<,:X:X:XX:X:X:XXX:X:XX:XXXXXXX:XXXX:XXXXXXXXXXXXXXXX+XXXXX+XXXX+XXXX+X+X+X+X+X+X++X++X+X+++++++++++++++++++++O++++O+O+O+O+OO,###############               ###############               ###############               ###############               ###############               ",
"###############               ###############               ###############               ###############               ###############               %$$$$$$$$$$$$$$$$$$$$$$$$05450$$$$$$=$=$=$=$=$=$======$=$============&=====&=&=&=&=&=&=&&&&&&&&&&&&&&&&&&%&&%&&&%&&%&%&%%%&%78&8&8&87&87778&8&7&8&8%87877&8&8&8%87777777777777787777787777777777777,777,7787,7777787877,77778,7,77,7,77,777,787,7,7,77,7,7,7,7,7,7,7,,7,7,7,7,7,,7,,7,7,,7,,,7,7,,,,7,,7,7,,7,,7,,,,,,,,,,,,,,,,,,,,,,,,,,,,,,,,,,,,,,,,,,,,,,,,,,,,,,,,,,,<,,,,,,,,,,:<:<:<:<:<,,,,,,,,<:,<,,,,,,<:<:,,,,:<,,:<,,:<:<:,<:<:,<,,:<,,,,,,,,,,,,<:,,,,,:<,,,,<:,,,,:<:<,,,,,,,:X:X:X::XXX:XX:XX:XX:XX:X:XXXXXXXXXXXXXXXXXXXXXXXXXXX+XXXX+X+XX+X+X+X+X+X++X+X+X+++X+++++++++X++++++++++O++O++O+O++O+O+O+OO,###############               ###############               ###############               ###############               ###############               ",
"###############               ###############               ###############               ###############               ###############               %$$$$$$$$$$$$$$$$$$$$$$$$05452$$$=$=$$$=$=$=$===$=$=$====================&=====&==&==&&=&=&=&=&&=&&&&&&&&&&&&&%&%&%&%&%&%&%&%78&878&878&8&78&87877778&8&8787878777777778&877777777777777877877877877877787777787,777,787787,7777,7877,787,87,7,77,7,7,7,78,7,77,8,7,78,7,,7,,8,7,7,7,,,7,,7,7,,,7,7,,7,,,,,,,,,,,7,,7,,7,,7,,7,,,,,,,,,,,,,,,,,,,,,,,,,,,,,,,,,,,,,,,,,,,,,,,,,,,,,,:<,,,,,,,,,,,,,<:<,,,,,,,,,,,,,,,,,<,,<:<:<,,,<,,,<,,,,,<:,,<:<:<:<:<:<:<,:<,,<:<,,,,,,,,,<:<,,,,,,,,,<:XX:X:XXX:X:XX:XX:XX:XXXXXXXXX:XX:XXXXXXXXXXXXXX+XX+XXXXX+XX+XX+XX+X+X+X+X+X+X++++X++++X++X++++++++++++++++++O++++O+O+O+O+OO,###############               ###############               ###############               ###############               ###############               ",
"###############               ###############               ###############               ###############               ###############               7$$$$$$$$$$$$$$$$$$$$$$$$054550$$$$$=$=$$$=$=$=$=$===$=$==$===============&=&=&=&=&=&=&&=&&&&&&&&&&&&&&&&&&%&&&&&&%&%&%&%&%%&%78&8=8&8&878&877&8&8&87778%8&8%7777&8&87778777787778777777777777777777777777,7777777,7777,77,77,7877,7,77,77,77,7,77,78,77,77,7,7,7,7,,7,7,7,7,7,,7,,8,7,,7,,,7,7,,,,,,,,7,7,7,7,,,,,,,,,,,,,,,,,,7,,7,,,,,,,,,,,,,,,,,,,,,,,,,,,,,,,,,,,,,,,,,,,,,,,,,,,,,,,,,,,,,,,:<:,,,,,,,<:<:<:<,,,:<:,,,,,:<:,,,,:,,,,,,,<:,,,,,,,,,,,,,,,,,,,,,,,,,,,,,,,,,,,,,,,,,,:X:X:XX:X:XXX:XX:XXX:XX:XXX:XX:XXXXXXXXXXXXXXXXXXXXXXXX+X+XX+X+X+X+X+X+X+X+X+++X+X+++X++++++++++++++++++O++O++++O+O+O+O+O+O+O,###############               ###############               ###############               ###############               ###############               ",
"###############               ###############               ###############               ###############               ###############               7$$$$$$$$$$$$$$$$$$$$$$$$055452=$$=$$$=$=$=$=$=$==$=$===$===============&========&=&=&=&&=&=&&=&&&&&&&&&&&&&&%&%&%&&&%&%&%%&%%%78&778&8&8&8&8&877778&8&77777778&7878%8&8%77777777777777777777777777777777777877,77777,77,777777,7,7777,77,77,7777,7,77,7,7,7,7,7,7,7,7,7,7,7,7,7,7,7,7,7,7,7,,,,7,7,7,7,,,,,,,,7,7,7,,7,,7,,7,,,,,,,,,,7,,,,,,,,,,,,,,,,,,,,,,,,,,,,,,,,,,,,,:<:,,,,,,,,,,:<:<:<:,,,,,,,,,,,,:,,,,,,:,,,,,,,,,,<:<,,,,,<:<,,,,:,<:<:<:<:<:<:<:<:<:,,:<:<:<:,,,,,,,,,,,,,<:X:X:XX:X:XX:XX:XXX:XXXXXX:XXXXXXXXXXXXXXXXXXXXXX+XX+X+XXXXX+XXXXX+XX+X+X+X++X+X++++X+++++++++++++++++++++++++O+O++O++O+O+O+O.,###############               ###############               ###############               ###############               ###############               ",
"###############               ###############               ###############               ###############               ###############               7$$$$$$$$$$$$$$$$$$$$$$$$8554554$$$$=$$=$=$=$$=$=$====$====$==============&=&=&=&=&=&=&=&&&=&&&&=&&&&&&&&&&&&&&&&&%&%&%&%&%%&%&%78&8&877777778&8&8&87787&8777&878%87778778%8%8777777787777777787777877,7777777777877777777,77,77777,777,77,77,7,777,7,7,7,7,7,7,7,7,7,7,7,7,7,,7,,7,,7,,7,,7,7,7,,,7,,,7,7,7,,7,,,,,,,,,,,,,,,7,,,,,,,,,,,,,,,,,,,,,,,,,,,,,,,,,,,,,,,,,:,,,,,,,,,,,,,,,,,,,,,,,,<:,,,,,,:<:<,,,,,,,<,,,,,,,,:<:,,:<:<:,,:<:<:<,,,,,,,,,,,,,,,,,,,<:<:,,,,,<:,,,:<:<:,,,:X:XX:X:XXXX:X:XXX:XXX:XXXXXX:XXXXXXXXXXXXXXXXX+XXXXXXXX+X+X+X+X++XX++X+X+X+X++X++X+X++X++X+++++++++++++O++O+O++++O++O+O+O+OO+O9###############               ###############               ###############               ###############               ###############               ",
"###############               ###############               ###############               ###############               ###############               7$$$$$$$$$$$$$$$$$$$$$$$$8554542&$$$$$=$$=$$==$=$=$=$====$====$=================&==&=&&=&=&&=&=&&&&&&&&&&&&&&%&&%&&%&%&&%&%&%%%&%78&8&8=8=8=8&777777&8&78&8&778%777%78%77777777777777777777777777777777777777,77777,777,777777777,777,777,777,77,7,777,77,77,77,77,7,7,7,7,,7,7,7,7,7,,7,,7,,,7,,7,,7,7,,,,,7,,,7,,7,7,7,,7,X,,,,,7,,7,,,,7,,7,,,,,,,,,,,,,,,,,,,,:,,:,,,,,,,,,,,,:<:,,:,,,,,,,,:,,,,,,:<,,,,:,,,:<:,:<:<:<:<,,,,,,,,,,,,<:,,,,,,:,,,,,,,,:<:,,,,:,,,,,,,,:,,,,,,,,,,,,:X:XX:XXXX:X:XXXX:XX:XXXXXX:XXXXXXXXXXXXXXXXXXXXXXXX+XX+XXXX+XXX+XX++X+X+X++X++X++X++++++++++X+++++++++++++++++O+O+O+O+O+O+O+OOO9###############               ###############               ###############               ###############               ###############               ",
"###############               ###############               ###############               ###############               ###############               8$$$$$$$$$$=$$$$$$$$$$$$$85545455$$$=$$=$$=$=$$=$==$=$=$===============&===&=&=&==&===&=&&=&&&&&&&=&&&&&&&%&&&&%&&%&&%&%&%&%&%%%&&7777&8&877778=8&8&8777777877&877787%877777777777777777777777777777777787777777,77777777,77,7,777,777,777,7,77,77,7,77,77,77,7,7,7,7,7,7,7,7,7,7,,7,7,7,7,7,7,,7,7,,,,7,7,,,,7,,,,,,,,,,X,,,,7,X,,,,,,X,,,,,,,X,,X,,,,,,,,:,,,:,,,,,,,,,,,:,,,,,,,,,,,,,,,,:,,,,,,,,,,,:,,,,<:<:<:,,,,,:,,,:,,,,,,:<:<:,,,,,,:<:<,:<:,,,,,,,,,,,,,,,,,,,,<:,,,,,:,,,,:::XX:XX:X:XXX:X:XXXXXX:XX:XXXXXXXXXXXXXXXXXXXX+XX+XXXX+XX+X+XX+XX+X+X+X+X+X++X+++X++X++++++++++++++++++++O+O+O+++O++O+O+O+OO+OOO9###############               ###############               ###############               ###############               ###############               ",
"               ###############               ###############               ###############               ###############               ###############8$$$$$$$$$$$$$$$$$$$$$$$$=55455550$$$$=$$=$=$===$=$======$==$====================&=&&=&=&=&&=&=&=&&&&&&&&&&&&&&&%&&&%&%&%&%&%%&%%&&&7&8778&8=8&77778%8&8&8&8&7778&8%7778&777777777777777777777777777777777,77777777777,777777777,777,77,7,777,77,77,77,77,7,7,7,7,7,7,7,7,7,7,7,7,7,7,7,,7,,7,,7,X,,7,7,,,7,7X,,7,+,7,X,7,,,7,,,,,X,,X,,,X,,X,,,,,,,,,X,,X,,,,,,,,,,,,,,,,,,,,,,:,,,,,,,,:,,,,,,,,,:<:,,,<:<:,,,,,,,,,,,,,,:<,,:<:,,,,,,,,:<:,,,,,,,:<:<:,,,,:<:,,,,,:<:,,:<:<:,,,,,:::XXX:XX:X:XXX:XXXXX:XXXXXXXXXXXXXXXXXXXXXXXXXXXXXXXXX+XXXX+XX+X+X+X+X+X+X+X++X++X++++++X++X+++++++++++++O++++++++O++O+O+O+O+OO+OO9               ###############               ###############               ###############               ###############               ###############",
"               ###############               ###############               ###############               ###############               ###############8$$$$$$$$$$$$$$$$$$$$$$$$825545452=$$=$$=$=$$$=$=$=$=$=$===$==============&==&=&==&==&=&=&=&&&&&&&&&&&&&&&&&&%&&&&%&&%&%&%&%&%&%%&%&o7%7=77&8&8&8&7&8%8%8777777&777777%7777&8%7777777777777777777777777777777777777,77777,77,77777,77777777,777,77,77,7,77,7,777,77,7,7,7,7,7,X7,7,+,7,+,7,+,7X,7,7,X,X,7,X,,,7,,,,,X,7,,,7,,X,7,,7,,,7,,,,,,,X,7,,X,,,,,,,,X,,,,,:,,:,,:,,,:,,,,,:,,:,,,,,,,:,,:,,,:,,,:,,:,,:,,,,:,,:<:,,,:,,,:<:,,:,,:<,:,,,:,,:,,,,,,,:,,,,,,:,,,,:,,,,,,,,,:<,::XX:X:XX:XXXX:XXX:XXXXX:XXXXXXXXXXXXXXXXXXXXX+X+XX+XX+XX+X+XX+XX+XX+X+X+X+X+X+X++X++X+X+++++++++++++++++++++O+O+O+O+O+O+O+O+OO+OO+.6               ###############               ###############               ###############               ###############               ###############",
"               ###############               ###############               ###############               ###############               ###############0$$$$$$$$$$$$$$$$$$$$$$$$=254555455$$$$=$=$$=$=$=$==$====$=====$================&==&=&=&&=&&=&=&=&&&&&&&&&&&&&&&%&&%&&%&%&%&%%%&%%%%&%7878&77778&77777777&7&8&778%8&77777777778%8%777777777777777777777777777777777777777777777,777,77,7,7,77,777,77,777,7X77,7,7,7X7,7X7,7X7,7,7,7,7,7,7,7,7,,7,7,,7,7,X,,7,7,,+,7,7,,,7,,X,,,,X,,,7,,,7,X,7,,,,,,,,X,,X,,,,,,X,,,,,,,,,,,,,,,:,,,,,,,:,,,:,,,,,,,,,,,,,,,,,,,,,:,,,,,,,,,,,,,,,,,,,,,,,:,,,,,,,,,,,:,,:,,<:,,:,,,,:,,,,,:,,:,,,,:XX:XXXX:XXXX:XXX:XXXX:XXXXXX:XX:XXXXXXXXXXXXXXXXXXXXXXX+XX+XX+XX+X+X+X+X+X++X+++X++X+++++++++++++++++++++++O++++++++O+O+O+O+O+OO+OO.3               ###############               ###############               ###############               ###############               ###############",
"               ###############               ###############               ###############               ###############               ###############4$$$$$$$$$$$$$$$$$$$$$$$$=2554545558$$$$$=$=$=$=$=$=$=$===$==$=============&=&===&=&=&=&=&=&&=&&&&=&&&&&&&&&&&&&&&%&&%&%&%&%&%&%%&%%%%&7=78&8=7&87&8&7&8%877777&877777&8%8%87%777777%77777777777777777777777777,777777,7777,7777777777777777,77,777,7X,77,7,7X7,77,7,7,7,7,7,7,7,+,7,X,7,X,7,7,,X,7,7,,7,7,X,,X7,,X,,,X,,X,7,7,,7,X,,X,,,,,,,X,,X,X,,,,,,,X,,,,,,X,,,,:,,:,,,,,,,,,:,,,,,,,,,,:,,:,,,:,,:,,,,,,:,,,,:,,:,,:,,:,,:,,:,,:<:,,,:,,:<:,,,,,,,,:,,,,,,,:<,,,,:,,,,,,,,:X:XX:X:XX:X:XXX:XXXXXXXXXX:XXXXXXXXXXXXXXXXXX+XXX+X+X+XXX+XX+XX+X+X+X+X++X+X++X++++X++X+++++X++++++++++++O+++O+O+O+O+O+O+O+OO+OO+OO+.-               ###############               ###############               ###############               ###############               ###############",
"               ###############               ###############               ###############               ###############               ###############5$$$$$$$$$$$$$$$$$$$$$$$$=2545554552$$=$=$$=$=$=$==$=$==$======================&==&==&==&=&&=&&&=&&&=&&&&&&&&&&&%&&&&&&%&%&%&%%&%%%&%%&=77&8&7777&8&778%8%7&8&78%7%8&777778%77777777777777777777777777777777777777777777777777X77,7X7,7X7,7+777+7,7+7777X7777,7X7X7,7+7,7X7,7,7+,7,7,77,7,7,7,X7,7,X,+,7,X,7,7,,7,7,7,7X,7,,,X,X,,,,X,,X,+,X,,,X,,,,,X,X,X,,,X,X,,,,X,,,,,,,:,:,,:,,,:,,:,:,:,,,,,,:,,:,,,,:,:,,,,:,,,:<:,,,:<:,,,:<:,,,,,:,,,,,:,,,:,,:,:<:,,:,:,,,:,:,,,,,,:,,:X:XX:XXXXXXXXXXXXXXXX:XX:XXXXXXXXXXXXXXXXXXX+XXX+XXXXXX+X+XX+XX+X+X+X+X+X+X++X++X+X+++++++X+++++++++++++++++O++++++O+O+O+O+O+OO+OO+OO.1               ###############               ###############               ###############               ###############               ###############",
"               ###############               ###############               ###############               ###############               ###############2$$$$$$$$$$$$$$$$$$$$$$$$$25554555454$$$$=$$=$=$$=$===$==$=$=================&===&==&=&=&&=&&=&=&&&&&&&&&&&&&&%&&&%&%&%&&%&%&%&%%&%%%%%%&77&8&8&8%87&7&8%877777%877777%77%7777%77%7777%77o7777777777777777777777777X7777X777777777777777777,7X7,777,7,7,7,7,77,7,7,7,7,7,7,7X7,7,7X7,X,7,+,7X,7,7,7,7,7,X8,X,X,X,,X,,X,,,X,7,,7,,+,7,,7,,,,7,X,,7,X,7,,,,,,X,,,,,X,,,,X,,:,,,,,,,,,,,,,,,,,,,,:,,:,,,,,,:,,,,,,:,,,,,,,,,,:,,,,,:,,,,,:,,,,,:,,,,,:,,,,,,,,,,:<,,,:,,,,,:,:,,,,:XXX:XXX:X:X:XX:XXX:X:XXXXXXXXXXXXXXXXXXXXXXXXXXXXXX+X+XXX+XX+X+X+X+X+X+X+X+X+X++X++++X+++++++++++++++++++O++O++O+O+O++O+O+O+OO+OO+OOOO.@               ###############               ###############               ###############               ###############               ###############",
"               ###############               ###############               ###############               ###############               ###############@$$$$$$$$$$$$$$=$$$$$$$$$$25455545552&$$=$$=$$$==$=$=$=$======$==$========&====&===&=&=&==&=&=&&&&=&&&&&&&&&&&&&%&&&&&&%&%&%&%%&%%&%&%%%&=&7%8&8&77&777777&7&7%8%7%7&7777777%777778%7777777777777777777777777777+7777777777+7,77X777X77,7X77777777X7777X777X7X77,777X77X77X7,7,7X7,77,7+,7,7,7,7,X,7,X,7,X,7,7,7,7,7,7,7,7,X,X,,7,X,,,X,7,X,,,,X,,,X,,,X,X,,,X,X,,X,X,,X,,,,X,,:,:,:,,:,,:,,:,,,,,,,,:,,,,:,,:,,,:,,:,:,:,,,,,:,,,,,:,,,:,:,,,:,:,,,,,:,:,,:,,:,:,,,,,:,,,,,,:X:X:XXX:XXXXXXXXXX:XXXXXXXXXXXXXXXXXXXXXXXXXX+XX+XX+XXXXX+XX+XX+XX+X+X+X+X++X+++X++++X++++X+++++++++++++++++O+++++O++O+O+O+O+OO+O+OOO+OO.#               ###############               ###############               ###############               ###############               ###############",
"               ###############               ###############               ###############               ###############               ################$$$$$$$$$$$$$$$$$$$$$$$$$255545554552$$$$=$=$=$=$=$==$=$=$=$================&===&===&=&=&&=&&=&=&&&=&&&&&&&&&&&&&%&%&%&&%&%&%&%&%%%%%&%%%%%7%7%8&77&8&7&7777777777777&7&77777%77%7777%777o7o77.77.77O77O77+77+777777+777777777777X777X7777X7,7X7,77X7,77X7,77,+7X,7,7,7,X7,7X7,7,+,X7,7,+,+,+,+,7X,7,+,7,7X,X,X,X,X,X,X,X,7,,+,X,,7X,,X,X,X,7,,X,X,,X,,,X,X,,,,,X,,,X,,X,X,,X,,,,,,X,,,:,,,,,:,:,:,,,:,:,,,:,,:,,,:,,,,,:,:,:,,:,:,,,:,,,,,:,,,,,:,:,,,,:,,,,,,,:,:,:,,:,,,:X:XXXX:XXX:XXXX:XXXXXXXXXXXXXXXXXXXXXXXXXXX+XXXXXXXXX+X+X+X+XX+X+X+X+X+X+X+X++X+++X+X++++X++++++++++++++++O++++O+O++O+O+O+O+O+O+OOO+OOOOO.#               ###############               ###############               ###############               ###############               ###############",
"               ###############               ###############               ###############               ###############               ################$$$$$$$$$$$$$$$$$$$$$$$$$5545554555550$$=$$=$=$=$=$=$========$================&==&=&=&=&==&&=&&&=&&&&&&&&&&&&&&&&&&&&&&%&%&%&%&%%&%&%%%%%%&&7777&8&77&777&8&7&7&7&8&77778&7%777777%7777o77777777777777777777777777+77777X77+77X7777777777,7777777+7,77X7,77X77,77X77X7X7,7+,7,7+,77,7,+,77,7,7,7,7,X7,7,X,7,7,7,7,7,7,7,7,X,X,,7,X,X,7,,,,7,X,X,7,,X,,X7,,,,X,X,,,X,,X,,,,X,,,,X,X,,,X,,,:,:,,,,,,,:,,,,,:,,,,,,:,,,:,:,,,,,,,,,,,,:,,,:,:,,,,:,:,,,,,:,,,:,:,:,,,,,,,,,,,:XXXXX:XXXXXXXX:XXXXXXXXXXXXXXXXXXXXXXXXXXX+XXXX+XX+X+XXXX+XXX+X+XX+X+X+X+X++++X++X+++++++++++++++++++++++++++++O++++O+O+O+O+O+O+OO+OO+O+OO.#               ###############               ###############               ###############               ###############               ###############",
"               ###############               ###############               ###############               ###############               ################$$$$$$$$$=$$$$$$$$$$$$$$$5555555545552=$$=$$=$$=$==$=$=$=$=$===$====================&==&=&=&&=&=&&&&=&&&&&&&&&&%&&%&%&%&&%&%&%%&%%%%&%%%%%%%&%7&8%8&77&7&8%7777777%8%7%7%7777%7%7777%77777o77o77.77.777O777O7777+7777+7777777+77X77X77X7+77X7X7,777+7777+7,77X77,7,77,77X7,7X7X7,+,7X7,7X,+7X7X,+,7,X,+,7X,+,+,X,X,X,X,X,X,7,7X,X,7,X,X7X,,X,,7,X,X,7,,,X,X,,X,X,X,,X,,X,X,,X,X,,,:,:,,X,,,,X,:,:,:,,:,:,,:,:,:,,,:,,,,:,:,:,:,:,:,,:,,,,,:,:,,,,:,:,:,,:,,,,,,:,:,:,:,:,:XX:XXXXXX:XXX:XXXXX:XXXX:XXXXXXXXXXXXXX+XXXXX+XXXX+XXX+X+XX+X+X+X+X+X+X++X+X+X+++X++X+X+X+++++++++++++++++O++O+O++O+O++O+O+O+OO+OO+OOOOOOOO.#               ###############               ###############               ###############               ###############               ###############",
"               ###############               ###############               ###############               ###############               ################$$$$$$$$$$$$$$$$$$$$$$$$$05555545555555$$$=$=$=$=$=$==$=====$================&==&=&==&=&=&=&=&&&&&=&&&&&&&&&&&&&&&&&&&&&%&%&%&%&%&%&%%%&%%%%%&%78%7%8&7777%8&7&7&77%7777777%777777%77777o777777777777.777O7777O77777777+77+777777777X7777X7777+77X7,7X7,7X77X7,7+7X7X7+,7,7X7,7,77X7,7X7,7,7,,7,7,+,77,+,7,7,7,7,7,7,7,7,7,X,X,,7,X,,X,,,,X,,X,X,,,,,X,X,X,,X,,,,,X,,,X,,,,X,,,X,X,,,X,,,X,:,,,,,,,:,,,,:,,,,,,,:,,,:,:,,,,,,,,,,,:,,:,:,:,,,:,:,,,,,,:,,,:,:,:,,,,,,,,:XXXXXXXX:XXXX:XXXXXXXXXXXXXXXXXXXXXXXXXXXXXX+XXXXX+XXX+XX+XX+XX+XX+X+X+X+X+X++X++X++X+++++++++++++++++++++++++O+++O++O+O+O+O+O+O+OO+OO+O+OOOOO#               ###############               ###############               ###############               ###############               ###############",
"               ###############               ###############               ###############               ###############               ################=$$$$$$$$$$$$$$$$$$$$$$$$055555555455520$$$=$$=$==$=$=$=$=====$==$=============&===&=&=&=&=&=&=&=&&&&&=&&&&&&&&&&&%&%&%&&%&%&%&%&%%%&%%%%%%%%%&%7%8&77&7&77&8%8%8%777&7%7%777&77%777%77o77o7o77o77.77777777777777O77+7777777+77+77X7777X777X7,77X77777X777,777X7,77,7,77+7X7,7X7X,7,+,7X7X7X7X7X7X7,X,7,+,X,+,+,+,X,X,X,X,7,7,X,X,7,+,7X,+,7X,,,X7X,X,,X,,7X,X,+,X,,X,,X,X,,X,X,,,X,X,,X,,,X,X,X,X,,X,:,,,:,:,:,,:,,,,,:,:,:,:,:,,,,:,,,,,,:,,,,:,:,:,,,:,,,,,,:,:,:,,XXXX:XX:XXXX:XXXXXXXXXXXXXXXXXXXXXXXXXXX+XXX+XXXX+XXX+XXX+XX+X+X+X+X+X++X++X++X+++X+++++++++++X++++++++++++O++O+++O++O++O+O+O+O+OOO+OOO+OOOOOOO+#               ###############               ###############               ###############               ###############               ###############",
"               ###############               ###############               ###############               ###############               ################%$$$$$$$$$$$$$$$$$$$$$$$$825555555554552=$$$=$=$$=$==$=$==$=$======================&===&=&=&&=&=&&=&=&&&&&&&&&&&&&&&&&&&%&&&%&%&%%&%%%&%%&%%%%%&&%777&8&8&77%7%7%8%7&7777777%8%777%777o777777.777.777.7.7.7O7O7O77O77777+7+77777+7777+777X7777+777X7X77X7+7X7X777X7+7+7X7,7X7X7,77X77+,7,+,7,7,X,7,X7+,X7,7X7,X7,+,7+,7X7,XX,X,7,X,X,X,X,X,X,,+,X,,X,X,7,X,,X,,X,,X,X,X,X,X,X,,X,X,X,,X,X,X,,,X,:,,X,,,X,X,X,X,,X,,:,:,,:,,:,,:,,:,:,,:,:,:,,:,:,,,:,,:,,:,X:,X,,X,,:XXXXXXXXXXXXXXXXXXXXX:XXXXXXXXXXXXXXXXXXXXX+XXXX+XXX+XXX+X+X+XX+XX+X+X+X+X+X+X+X++X+++X++X+X+++++++++++++++++++++O+++O++O+O+O+O+O+O+OO+OOOOOO+O.X#               ###############               ###############               ###############               ###############               ###############",
"               ###############               ###############               ###############               ###############               ################o$$$$$$$$$$$$$$$$$$$$$$$$=255555555555555$$$$=$=$=$=$===$====$=$============&==&=&==&=&=&=&=&&&&=&&&&&&&&&&&&&&&&%&&&%&%&&%&%&%&%&%&%&%%%%%%%%%%%%%7%77%77&77777%7777%7&7&7%777%7777%777%7o7777o777.7777777777777777O7+77777+7+777+7777+777X777X77777X77,777,7X7X7,7X7,7X77,7X7X7,7X,7+,7X7X7X7,7X7,7,7X,+,7,+,7X,7X,7,,X,7,+,7X,7,X7,7,7,X,7X,X,X,7,X,X,X,X,X,,X,,X,,X,,,X,,X,,X,,,X,,X,,X,X,,,X,X,,X,,X,,,,,X,,:,X,X,X,,X,,X,X,,X,,X,,X,,X,,X,X,X,,X,X,,X,,X,,X,,XXXX:XX:XXX:XXXXXXXXXXXXXXXXXXXXXXXXXXXX+XXXXXXX+XXX+XX+X+XXX+X+X+X+X+X+X+X+X+++++X+++X++++++++++++++++++++++O++O+++O+O+O+O+O++O+OOO+OO+OO+OOOOOOO,#               ###############               ###############               ###############               ###############               ###############",
"               ###############               ###############               ###############               ###############               ################7$$$$$$$$$$$$$$$$$$$$$$$$$2555545555555520$$$=$$=$=$=$=$=$=$=======$==============&===&==&==&==&&=&=&&&=&&&&&&&&&&&%&&&&&%&%&%&%&%&%%%%&%%&%%%%%%%%%%77%7&8&7&7&77&7%8%777777%77%7%777%77777o7o777.777.7.7.7.7O7O7O7777777+77777777+7+777+777+77X7X7X777+7X7+77X777X77X77X7+7,7,7+,7+7,7+,77X,7X7,+,X7X7,7+,+,7X,7X,X,XX7,X7,X,X,X7,X,X,X,7,X,X,7,X,X,X,X,7,X,,+,X,X,X,X,X,,X,X,,X,X,,X,X,X,,X,X,X,,:,X,,:,X,X,:,X,,X,,,,X,,X,:,,X,,X,,:,X,:,X,,:,,X,:,,X,,:,,:,,:XXX:XXXXXXXXXXXXXXXXXXXXXXXXXXXXXXXXXXX+XXXX+XX+XXX+XX+X+XX+X+X+X+X+X+X++X++X++X+X+++X++++X+++++++++++++++++++++O++O+++O++O+O+OO+O+O+OO+OOOOO+OOOO.9#               ###############               ###############               ###############               ###############               ###############",
"###############               ###############               ###############               ###############               ###############               #9$$$$$$$$$$$$$$$$$$$$$$$$$25555555555555527$$$=$=$=$=$==$===$=$==$==================&==&=&=&=&&=&&&&=&&&&&&&&&&&&&&&&%&%&&&%&&%&%&%&%&%%%%%%%%%%%%%%%%77%7%7%7%7%77%7%7%7&7%77%777o7%77o7o7o777.7o77.77777777.77777O7O7O7O77+7+7+7777+7+77+7+77+777+77X77+7X7X77X7X7,+7X7,7X7+7X7X7X7X7X7X7X7X7X,+7X7,X7X,+7,+,X7X,7X7,7XX,X7,+,+,X,7X,X,+,X,7,XX,X,X,7,X,X,X,+,X,X,X,X,X,X,X,X,X,X,X,X,,X,X,X,,X,X,X,X,X,X,:,X,X,:,,:X,X,:,X,,X,:,X,:,X,,X,,:,X,X,,:,X,:,X,X,,XXXXXXXXXXXXXXXXXXXXXXXXXXXXXXXXXXXXX+XX+XXX+XXXX+XX+XX+XXXX+XX+XX+XX+X+X+X+X+X++X+++X++++X+++++++++++++++++++O+O++++O++O++O+O+O+O+OOO+OO+OO+OOOOOOOO.6################               ###############               ###############               ###############               ###############               ",
"###############               ###############               ###############               ###############               ###############               #4$$$$$$$$$$$$$$$$$$$$$$$$$25555555555555552$$$=$$=$==$=$==$=====================&=&==&=&=&=&=&=&&=&=&&=&&&&&&&&&&&&&&&&&%&%&&%&%&%&%%%&%&%%&%%%%%%%%%%&%7o77%77%77%7%777%777%77%7%777%77o7777o7o777.77.7.7.7.777.7O777O7777O777777+7+777+77+77+77X77X77X7X7777X77X77+777X7+7,7X7X7X7,7X7,+,7,+,77X7,+,+,7X7,+,7X,7,X7,XX,,7X,+,X7,+,X,7,X,+,X,X7,X,+,X,X,X,X,X,X,7,X,7,X,X,X,X,X,X,,X,X,X,,X,X,X,X,,X,,X,X,,X,,X,,,X,X,,:,,X,,:,X,,:,X,,X,:,X,,:,,:,X,,X,,X,,X,XXXXXXXXXXXXXXXXXXXXXXXXXXXXXXXXXXXXXXXXXXXXXXX+XX+XXX+XX+X+X+X+X+X++X+X+X++X++X++++X+++X+++++++X++++++++++++++++++O+++O+O+O+O+O+O+O+OO+OOOOOOOOOOOOO.4################               ###############               ###############               ###############               ###############               ",
"###############               ###############               ###############               ###############               ###############               #1$$$$$$$$$$$$=$$$$$$$$$$$$555555555555555555$$$=$=$=$=$=$==$=$=$========================&=&=&=&=&&=&&&&&=&&&&&&&&&&%&&&%&&&%&%&%&%%&%&%%%%&%%%%%%%%%%%%%o7.7%7%7%77%7%7&7%7%77%777%7o77o77%7o777o7o77o77.77.77.77O77O77O7O77O7O7+7777+777+77+77+77+77+7777X7X77X77X7X7X7,7X7+7X7,7X7X7,+77X7X7XX,7+7X7X7X,+,+7X,+X7,X7,7X7X,7X7,X,7X,+X,7X,X7X,X,7,X,+,X,7X,7,X,X,X,X,X,X,X,X,X,X,X,X,,X,X,X,,X,,X,X,X,X,,X,X,X,XX,X,,X,X,X,:,X,,X,X,,X,:,,X,X,X,X,X,X,:,X,:,XXXXXXXXXX:XXXXXXXXXXXXXXXXXXXXXXX+XX+XX+XX+XX+XXXX+XX+XX+XX+X+X+X+X+X+X+X+X+X++X++X+X++X+++++++++++++++++++++O++O+O++O+O++O+O+O+O+OO+OO+OO+OO+OO+OOOOO.1q###############               ###############               ###############               ###############               ###############               ",
"###############               ###############               ###############               ###############               ###############               ##$$$$$$$$$$$$$$$$$$$$$$$$$4555555555555555520$$=$$=$=$==$=$=======$==$=========&===&=&=&===&=&=&=&&=&=&&&&&&&&&&&&&&&%&&&%&&%&%&%&&%&%%%&%%%%%%%%%%%%%%%%&7o7%7%7&7%77%777%77o7%7%77.7o7o7o77o7o7.77.77.77.7.7.7.77.7O77O77O77+7O7O7+7+7+77+77+77+77+7X7++77+7X77X7X77X7+7X7X7X7+7X7X7+7XX7X7X77X7X,7X7,X7X7+,7X7,XX7XX+,X,+,X,X7XX,X7,XX,7X,X,X,XX,+,X7X,X,XX,+,X,X,X,X,X,X,X,X,X,X,X,X,XX,XX,X,X,X,X,X,X,X,X,X,,X,:X,X,X,X,X,:X,X,X,X,X,X,X,X,X,X,X,X,X,X,XXXXXX:XXXXXXXXXXXXXXXXXXXXXXXXX+XXXXXXXXXXXXXXX+X+XXXX+X+X+X+XX+X+X+X+X+X++X++X+++X++++++++++++X++++++++++++++++++++O++O++O+O+O+O+OO+OO+OOOOOOOOOOOOOOOoq ###############               ###############               ###############               ###############               ###############               ",
"###############               ###############               ###############               ###############               ###############               ##$$$$$$$$$$$$$$$$$$$$$$$$$0255555555555555552&$$=$$=$$=$==$=$=$=$=================&=====&=&=&=&=&&=&&&&=&&&&&&&&&&&&&&&%&&&%&&%&%&%%&%&%%&%%&%%%%%%%%%%%%%%o7.7%77%7%7%7%777%77o77%7o77o777o77.777o7.7.7.7777.77.7.77.7O77O7O7777O77777+77+7+77+7+7+777+77X77X7+77X77X7+7X77X77X7X7,7X7,77X,7X,+7X7X7,++7X,7X7X,+7,7,X7,+7X7X7X,X,7X,XX,7X,X,7X7X,7X,X,X,X,X,X,X,+,+,X,X,7X,X,X,X,X,X,X,X,,X,,X,X,X,X,X,X,X,X,X,X,X,X,X,X,X,X,X,,X,X,X,X,X,X,X,X,X,X,X,X,,XXXXXXXXXXXXXXXXXXXXXXXXXXXXXXX+XXXX+XX+XX+X+X+X+XX+X+X+XXX+XX+X+XX+X+X+X+++X++X+++X+++X++X+++X+++++++++++++++O++O+O+O+++O+O+O+O+O+O+O+OO+OO+O+OOOOOOOOOOO.# ###############               ###############               ###############               ###############               ###############               ",
"###############               ###############               ###############               ###############               ###############               ##$$$$$$$$$$$$$$$$$$$$$$$$$02555555555555555552$$=$=$===$=$=$=======$==================&==&=&=&=&=&&=&=&&&&=&&&&&&&&&&&&&&%&&&%&%&%&%&%%&%%&%%%%%%%%%%%%%%%%%%.7.7&7%7%7%7o%7o7%7%7o7o7o77%7o7o7o7o7o7.7.7.7..77.777.77O77O7O77O7O77OO7O7O7+777+77+77+7+7+7+7+77X7+7X7X77X77X7X7X7X7+7X7++,+7X7+7,+,7X+,+,7+,+,X7,X7XX+,+,X,X,X,7+,X7X7,7X,X7XX,X,XX,+,7X,+,+,+,+,X,X,X,+,X,X,X,X,X,X,X,X,XX,XX,X,X,X,X,X,X,X,X,X,X,X,X,X,X,X,X,X,X,X,X,X,X,X,X,X,X,X,X,X,XXXXXXXXXXXXXXXXXXXXXXXXXXXXXX+XXXXXXXXXX+XXXXXXXXX+XXXX+X++XX+X+X++X+X+X+X+X+X+++X+++X+++++++++++++++++++++++++++++++++O+O++O+O+O+O+OOO+OO+OOOOOOO+OOOOOOOO# ###############               ###############               ###############               ###############               ###############               ",
"###############               ###############               ###############               ###############               ###############               ##&$$$$$$$$$$$$$$$$$$$$$$$$=25555555555555555554$$$$=$$=$=$==$=$=$=================&=&==&==&==&=&=&=&&&=&&&&&&&&&&&&&&%&&&&%&%&&%&%&%%&%%&%%%&%%%%%%%%%%o%%%%%%%7.7o.7%7%7%7o7%7o7o7o7o7oo7o7o77o7.77.7o77.7.7.7.7.7.7.7.7O77OO7O7O7O7+77+77O+7+7+7+7+7+77+7+7+7+7+77+7+7X7X7+7X77X7X7X7X7+7X7X7X+7X+7X7X7XX7X7X+X7X,7,+7X7X7X7XX,+,X,XXX,+,X,+,+,+,+,XX,+,+,X,+,+,+,+,+,X,X,+,+,+,XX,XX,X,X,X,X,X,X,X,X,X,X,X,X,X,X,X,X,X,X,X,X,X,X,X,X,X,X,X,X,X,X,X,,XXXXXXXXXXXXXXXXXXXXXXXXXXXXX+XXXXX+X+XX+XXXX+X+X+X+XX+X+XX+XX++X+X+X+X+X+X++X+++X+++X++++X++++++++++++++++++++O++O+O+O+O++O+O+O+O+O+OO+O+OOOOO+OOOOOOOOOOOO.+# ###############               ###############               ###############               ###############               ###############               ",
"###############               ###############               ###############               ###############               ###############               ##7$$$$$$$$$$$$$$$$$$$$$$$$=255555555555555555528$=$=$=$=$==$=====$=$===$================&=&=&=&=&&&=&=&&=&&=&&&&&&&&&&&&%&&&&&%&%&%&&&%&%%%&%%%&%%%%%%%%%o%%%%%%%7.7%77%77%7o7o7o7o7o7o7o77o77o7.7o7o77.7.7.77.7.7.7.7O77.7.77O77O7O77O7O7+77O77+77+77+7+7+7+7+77X7+7X77+7+7X7+7X7+7X7X7X7X7X7+,7X7+,7X7+,7X+X7X7,X7++,+,+,X7X,7X7X7X7,X7X7+,+,+,+,X,+,+,X,+,+,X,X,+,XX,X7XX,X,X,X,X,X,X,X,X,X,XX,XX,X,X,X,X,X,X,X,X,X,X,X,X,X,X,X,X,X,X,X,X,X,X,X,X,XXXXXXXXXXXXXXXXXXXXXXXXXXXXX+XXXXX+XXXXXXXX+X+XXX+XX+X+XX+X+X+X+XX+X+X+X+++X+X++X+++X+++X++++++++X++++++++++++++++O+++++O++O+O+O+O+O+OO+OOOO+O+OOOO+OOOOOOOOO.,# ###############               ###############               ###############               ###############               ###############               ",
"###############               ###############               ###############               ###############               ###############               ##0$$$$$$$$$$$$$$$$$$$$$$$$$*55555555555555555552=$$$=$=$=$=$=$=$====================&=&====&=&=&==&&&&=&&&&&&&&&&&&&&&&&&&%&%&&%&%&%%%&%%&%%%&%%%%%%%%%%%%%o%%o%%%.7%%7%7%7%7%7%7%7%7o7o7o7o7o7o7o7.7o7o7.7.7.7.7.7O7.7.7O7O7.7O7O7O7O7O7O7O7+7O7+7+7+7+7+7+7+7++7+7+7++7+7X7X7X7X7X7+7X7X7X7X7+X7X7X+,+7X+7,7X,++7X,+7X7X7X,+XX,XX,XXX7X,X,+X7XX7X7XX,+X7XXX,+X7XX,+,XX,X,XXXX,+X,+X,+,XXX,XX,X,X,XX,XXX,XXX,XX,XX,XX,XX,XX,XX,XX:,XX,X:,XX,X:,X,XXXXXXXXXXXXXXXXXXXXXXX+XX+X+X+XXXX+XXXX+X+X+XXXXX+X+XX+XXX+X+X+X+X+X+X+X++X+X++++X++X+X++X++++++X+++++++++++++++O++O+++O+O++O++O+O+O+O+O+OO+O+OOOOOOOOOOOOOOOOOO.6# ###############               ###############               ###############               ###############               ###############               ",
"###############               ###############               ###############               ###############               ###############               ##4$$$$$$$$=$$$$$$$$$$$$$$$$*555555555555555555552$$$=$=$==$=$=====$==$============&=====&=&==&==&&&=&=&&=&=&&&&&&&&&&&&&%&&&&&%&&%&%&&&%&%%&%%%%%%%%%%%%%%%%%%%%%%%%.7%7%7%7%7%7o7%77o7o7o7o7o7o77o7o7.7o7.7.7.7.7.7.77O7O7.7O7O7O77O7O7O7O7O7+7O7O7+7+77+77+7+77+7+7+7+7X7+7+7+7+7+7X7X7X7X7X7X7+,X7+7X7X7X+X7+7,XX7+,+,+,X7+,7X7X7X7X,X7XX7X,X,X,X,X7X,X,7,+,X,X,+,X7,X+,X,7,XX,X,X,XX,X,XX,X,XX,X,XX,X,X,X,X,X,X,X,X,X,X,X,X,X,X,X,XX,X,X,X,X,XXXXXXXXXXXXXXXXXXXXXX+XXXXXXXXXXX+XXXX+XXXXXX+X+X+X+XX+XX+X+X+X+X+X+X++X+X+X++X+X++X++++++++++++++++++++++++++++++O++++O+++O+O+O+O+O+O+OOOO+OOOO+OOO+OOOOOOOOOOOO.5# ###############               ###############               ###############               ###############               ###############               ",
"###############               ###############               ###############               ###############               ###############               ##1$$$$$$$$$$$$$$$$$$$$$$$$$25555555555555555555524$$$=$=$=$==$=$=$====================&====&=&=&==&=&&=&&&&&=&&&&&&&&&&&&&%&%&&%&%&%&%%&%&%%&%&%%&%%%%%%%%%o%o%o%o%%%%.7%7%7%7o7o7o7%7%7o7o7o7o7o7.7o7.7.7..7.7.7.7.7..7.7.7O7.7O7O7O7O77O7+7O7O7+7O7+7+7+7+7+7+7+7+7+7+7+7+7X7X7X7X7+7X7X7X7X7X7X7+,+7X7X7X7X,+X7+7XX7X+7X+,X7XX,+,X,+X,X,+,X7X7XX7X,X,+XXXX,+X,+X,+X,X,XX7XX,X,+,+,+,XX,X,XX,X,XX,X,X,XX,X,XX,XX,XX,XX,XX,XX,XX,XX,X,X,XX,XX,XXXXXXXXXXXXXXXX+XX+X+XXXXX+XXXXXXXXXX+XXX+X+X+XX+XXX+XX+X+X+X+XX+X+X+X+X+X+X++X++++X+++X++X++++X++++++++++++++++O+++++O+O++O++O+O+O+O+O+O+O+OO+O+OOOOOOOOOOOOOOOOOO.*q ###############               ###############               ###############               ###############               ###############               ",
"###############               ###############               ###############               ###############               ###############               ###$$$$$$$$$$$$$=$$$$$$$$$$$525555555555555555555520$$=$=$==$=$=====$==$==$==========&===&=&==&=&=&=&=&&=&=&&&&&&&&&&&&&&&&&&&%&&&&%&%&&%%%%&%%%%%%%%%%%%%%%%%%%%%%o%o%%oo7%7%7%7%7%7%7o7o7o7o7o7o7o7o7o7o7.7.7.7.7.7.77.7.7.7O7.7O7O7O7OO7O7O7O7O7+7O7O7O7+7+7+7+7+7+7+7+7+7+7+7+7+7X7X7+7+7X7X7X7X7+7XX7XX7X7+7X+,XX7X+,X7X7XX7X7+X7X7X7+X7X+,XX7X,XX7X+,X,7XX7XX7XX,XX+,X,X,X7XXXXX,X+,X7X+,XXXX,XXX,XX,XXXX,XX,XX,XX,XX,XX,XX,XX,XXX,XX,XX,XXXXXXXXXXXX+XX+XXXXXXXXXX+XXXXX+X+X+X+XX+XX+XXX+XX+X+XX+X+XX+X+X++X+X+X+++X++X++X+X+++X+++++++++++++++++++++++++++++O+O+++++O+O+O+O+O+O+OOOOO+OOOOOOO+OOOOOOOOOOOOOOo#  ###############               ###############               ###############               ###############               ###############               ",
"###############               ###############               ###############               ###############               ###############               ###$$$$$$$$$$$$$$$$$$$$$$$$$0255555555555555555555527$$=$=$=$==$=$====$======================&=&=&=&&=&&&&&&=&&&=&&&&&&&&%&&&%&&%&%&%&%&%&%&%%&%&%%%%%%%%%%%%%%o%o%%o%o%%o.7%7%7%7%7o7%7o7o7o7o7o7o7o7o7o7o7.7o7.7.7.7..7.7O7.7O7.7O7O7O7O7O7O7O7O7O7O7+7+7O7+7+7+7+7+7+7X7+7+7+7X7++7+7X7X7X7++7X7+X7X7X7X7X7XX7X7+7X7X7+XX7XX7X,+,+XX,+,X7X,+X7,XX7X,XX,+XXX,X,X,X,+X,+,XXXXX,X,X,X,+,XX,X,XX,7,XX,X,+,XX,X,XX,XX,XX,XX,XX,XX,XX,XX,X,XX,X,XXXXXX+XX+X+XXXXXXX+XX+XX+XXXX+X+XXXXXXXX+XX+XX+X+X+XX+X+XX+X++X+X+X+X+X+X+X++X+++X+++X++++X++++X+++++++++++++++++O++O+++++O+O+O+O++O+O+O+OO+O+OOO+OOOOOOOOOOOOOOOOOOO..#  ###############               ###############               ###############               ###############               ###############               ",
"###############               ###############               ###############               ###############               ###############               ###$$$$$$$$$$$$$$$$$$$$$$$$$8255555555555555555555552=$=$=$=$=$===$=$==================&=&=&==&==&=&=&&=&=&=&&&&&&&&&&&&&&&&&&&&&%&&&%&%&%&%%&%%%%&%%%%%%%%%%o%%%%o%%o%%o%%%.%7%7%7%7%7%7%7o7o7o7o7o7.7o7.7o7.7.7..7.7.7.7.7.7.7O7.7.7.7O7O7O7O7+7O7+7O7O7+7O7+7+7+7+7+7+7+7++7++7+7+7X7++7X7+X7X7+X7X7X7X7+,+X7X7X7X+,XX7X7X+7XX+X7X7X7X++,XX+,XX+,XX+,X7X7,XX7XX7X+,X7XXX7,+,XX+,X7XXX+,XXXX,XXXX,+,XXX,X,XX,XX,XX,XX,XX,XX,XX,XX,XX,XX,XXXXXXX+XXXXXXXXX+XX+XXXXX+XXXX+XXXX+X+X+X+XX+XX+XX+XXX+X+XX++X+X+X+X+X+X++X++X+X++X+++X+++X+++++++++++++++++++++++O+++++++O+O++O++O+O+O+O+OO+O+OO+O+OOOO+OOOOOOOOOOOOO.OOO#  ###############               ###############               ###############               ###############               ###############               ",
"###############               ###############               ###############               ###############               ###############               ###%$$$$$$$$$$$$$$$$$$$$$$$$$*555555555555555555555522$$$=$==$=$=$===$==$===================&==&=&==&=&&=&&&&=&&&&&&&&&&&&&%&&%&&&%&%&%&%&%&%%%&%%%%&%%%%%%%%%%%%%%o%%o%o%o%oo.o7%o7%7oo7oo7%.o7o..7o..7o.7o...7o7..7..7..7.O7.O7.O7OO7O7OO7OO7OO7OO7O+7OO7+O7OO7+O+7++7++7+7++7+++7X+7++7+++7++7X7++7X+++X7+7X+X+XX7X7+7XX7X7XX7X7XXX7XX7X+7X7X+,++7X7X+,XX+,+X,+X,X+X,X7XXXXX7X,+X,X,X,+X,+,+X,XXXXXX,+XXXX,+X,+X,+X,XX,XX,XX,XX,XX,XX,XXXX+X+XXXX+XX+XXXXXXXX+XXXXX+X+XX+XXXX+XX+X+XX+XX+XX+X+X+X+XX+X+X+X+X++X+X++X+++++X++X+++X++++++X++++++++++++++++++++O+O+O+++O+O+O+O+O+O+OO+OOOO+OOOOOO+OOOOOOOOOOOOOOOOO.+#  ###############               ###############               ###############               ###############               ###############               ",
"               ###############               ###############               ###############               ###############               ###############  #7$$$$$$$$$$$$$$$$$$$$$$$$$*5555555555555555555555555$$$=$=$==$==$==$====$=========&====&==&==&=&=&=&=&=&=&&&&=&&&&&&&&&&&&&&&%&&&%&%&%&%&%&%%&%&%%%%%%%%%%%%%o%%%o%o%o%o%o%oo7o7%7oo7oo7o7o7o7o7o.7o7o7..7.7.7..7.7.7.7.7.7.7.7.7.7O7.O7O7O7O7O7O7O7O+7OO7+7+7O7+7+7+7+7++7+7+77++7++7X7+7++7X7+X7X7+7X7+X7X7X77X7+X7XX7XXXX7X+XX7,XX7X,+,XX7XX7X,XX7XXX7X+,X+,XX7X,+X,X,+,X,X+,XXXX+X,+,XXX,X+,+,X,+,X,X,+,XX,XX,XX,X+,X+,X+,XXX,XX,XX+XXXXXXX+XX+XXXX+X+X+XXXX+X+XXX+XX+X+XX+XX+XX+X+X+X+X+X+X+X++X+X+X+X+X+X+++X++X+X++X+++++++++++++++++++++++++++++++O+++++++O+O++O+O+O+O+OO+OO+O+OOOO+OOOOOOOOOOOOOOOO.OO..9###               ###############               ###############               ###############               ###############               ###############",
"               ###############               ###############               ###############               ###############               ###############  #0$$$$$$$$$$$$$$$$$$$$$$$$$525555555555555555555555520$$=$=$=$==$=====$===============&=====&=&=&=&=&&&&&=&=&&&&&&&&&&&&&&&%&&&%&%&&%&%&%%&%&%%%%%%%%%%%%%%%o%%%o%%%%o%%o%o%o%oo.oo7oo7oo7o7oo7o7o7o7o7o7o7o.7o7..7..7..7..7.O7.O7.O.7O7.7O.7OO7O7OO7O7O7+7OO7O+7+O7+O7++7+7++7++7+7+7++7++7X7++7++++7X7X+7X+7XX+7XX7X+7X7X7XX7X7X++7XXX7X+7XX7XXX+X,XX7XX,++X7XXXXX+,+XX+,+XXX,+X,+,XXXXX7,XXX,+,+XXXXX7XXXX,XXX,+X,+X,XX,XX,XX,XXXX+XXXX+XX+XXXXXXX+XXXXXXX+X+XXXX+X+XX+X+X+XX+XX+X+XX+X+X+X+X+X+X+X+X++X+X+++X+X++X+++X+++X++X+++X++++++++++++++++++O+O+++O+O+O++O+O+O+O+O+OO+OO+OO+OO+OOOOOOOOOOOOOOOOOOOOO.O.4###               ###############               ###############               ###############               ###############               ###############",
"               ###############               ###############               ###############               ###############               ###############  q-$$$$$$$$$$$$$$$$$$$$$$$$$0252555555555555555555555228$$$==$==$==$=$====================&=&===&=&=&=&=&=&&&=&&&=&&&&&&&&&&&&%&&&&&%&%&%&%&%%%&%&%%&%%%%%%%%%%%%%%o%o%%o%o%o%oo%ooo7%7oo7oo%7.o7o.o7o...o7.o7..o7.o7..7..7..7..7O.7.7O.7OOO7OO7OOOO7OO7OO7OO7+O7OO7+O7+O7+O+7++7++7++++7++7+++7+++7X7++X7+++7X+7+X7+X7X+XX7+X7X+XX7XX++XX+XX7XXX7+,+X7XX7X+X+,XX+,+,XXX+,X+XX7X+XX+XX+,+,XXXX7XXXXX,+,+,XX+,XX+,XXXXXXXXXXXXXXXX+,XX+XX+X+XX+XX+X+X+XX+X+X+X+XXX+X+X+XXX+XXXXX+X+X+X+XX+X+X+X+X+X+X+X+X+X+X++X+X+++X+++X++++++++++++++++++++++++++++++++++++O+++O++O++O+O+O+O+O+O+OO+OOOOOOOOOO+OOOOOOOOOOOOO.OOOo@###               ###############               ###############               ###############               ###############               ###############",
"               ###############               ###############               ###############               ###############               ###############   #$$$$$$$$$$$$$$$$$$$$$$$$$825552555555555555555555555*&$$=$=$=$=====$=$==$=============&===&=&==&=&=&=&&=&&&&=&&&&&&&&&&&&&&&&%&%&&%&%&%&%&%&%%%%&%%%%%%%%%%%%%%%%%%o%o%%o%o%oo%ooo.o7oo7o7oo7o.7o.7o7o7o.7o7.7..7..7..7.7..7..7.O7.O7O.7.7O7O7O7OO7OO7OO7OO7O+7+O7+O7+O7+7+7++7++7+7++7++7+7X+7X7++7+7++7X+7X+X7X+7X7X7X+X7X+7X7XX7X7X7X7XXX7XXX7XXXX,XX7,+X7X7XX7X7X,+X,+,XX,+,+,+,+X+X,XX,X7XXXXXXXXX,XXX7XXX,+,X,+,+,X,+,X,+X+XX+XXXX+XXX+XXX+XX+XX+XX+X+X+X+XXX+X+X+X++XX+X+XX+X+X+X+X+X+X+X+X+X+X+++X++++X++++X+++X++X+++++++++++++++++++++++O+O++O+O++O++O+O+O+O+O+O+OOOOO+OOO+OOO+OOOOOOOOOOOOOOO.OOO.O.o####               ###############               ###############               ###############               ###############               ###############",
"               ###############               ###############               ###############               ###############               ###############   #$$$$$$$$$$$$$$$$$$$$$$$$$$*525555255255555555555555522=$$=$=$==$=$=================&====&=====&=&=&=&=&&=&=&&&&&&&&&&&&&&&&%&&&&&%&&%&%&%&%%&%&%%%%%%%%%%%%%%%o%%o%%o%o%o%oo%oo%o%oooo7oo%7.%7oo7oo7...o7.....o7..7..7...7O.7O.7.O.7..7O7O.O.O7OO7O7OO7OO7+O7OO7+O7O+7O+7+O+7O+7++7++7++7+++7+7+X7+++X7+X7+++7+X7+X++++X7+X7XX+X7X+XX+XXXXX7XX7XX7X7++7XXX+XXXX7XXXXXX7X+X+XX+X+X+X+X+,X+X+XXXX,+,+,+,XX+,XX,X7XXX+XXXXX+XXXX+X+X+XX+X+XX+X+X+X+XX+XX+XX+XXX+XXX+X+XX+XX+XX+X+X+X+X+X+X+X+X+X+X+X++X+++X++X+X++X+X++++++++++++++X+++++++++++++++++++++O++++++O+O+O+O+O+O+OO+O+O+OO+OO+OOOOOOOOOOOOOOOOOOOOO.OOO.####               ###############               ###############               ###############               ###############               ###############",
"               ###############               ###############               ###############               ###############               ###############   #%$$$$$$$$$=$$$$$$$$$$$$$$$*5552555555552555555555555522$$$==$=$===$=$=$====$==============&=&=&==&=&=&=&&&&=&&=&&&&&&&&&&&&&&%&%&&%&%&%&%%&%%%%&%&%%&%%%%%%%%%%%%%%o%%o%o%o%o%oooo%o%oo7o7%o7o.7oo7oo7o7o.7o7.7o.7o.7..7..7...7.O7.O7.O.O7O7O7.O7OOO7OO7OO7O+7OO7O+7O+7O+7O+O7+O7+O7++7++7+++++7++7X7+++7X+7X+7+X7+7X7X7X+X+7X7X+X7X7X7X++XXX7XX+XXXXXX7X7X,+XXXX7X7XXXX7X,+,+,X7X,XX,+X,+,+,XX+XXXXX+X,+XXXXXXX,+,XX,+,X,++X+XX+X+XX+X+XX+XXX+XX+X+XX+XX+X+XX+X+X+X+X+X+X+X+X+X+X+X+X+X+X+X+X+X+X++X+X++X+++X+++++X+X++++++X++++++++++++++++++O++O++O++O+O+O++O+O+O+O+O+O+OO+OOO+OOOOOOOO+OOOOOOOOOO.O.O.OO.O.+####               ###############               ###############               ###############               ###############               ###############",
"               ###############               ###############               ###############               ###############               ###############   #8$$$$$$$$$$$$$$$$$$$$$$$$$225555255255555552555555555555$$=$=$=$=$======$============&==&====&==&=&=&&&=&=&&=&&&=&&&&&&&%&&&&&&&&%&&&%&%&&%&%&%%%%%%%%%%%%%%%%o%%o%%%%o%%o%o%oo%o%oooo%oooo7oo7oo7.o7..o7.o7o.o7.o7..7..7...7O..7..7.O7.7O.7.OO7OO7OO7OO7OO7OO7OO7OO7O+7OO7+7++7++7++7++7++7+7++7+++++7++7+X7+X7++XX7X++++7X+X+X7+X7X+X7X7X7+XX7X7X7X7+XXX++X7X7XXXXXX7XXX+X+X+XXX+X+X7X+XXX++,+,X7X+,+XXX+,XX,XXXX7XXXX++XX+XX+XXXX+XXX+XX+X+XX+XXX+X+X+X+X+X+X+XX+X+X+X+X+X+X+X+X+X+X+X+X++X+++++X+++X+++X++++X++++++++X+++++++++++++++++++O+++++O+++++O++O+O+O+O+O+O+OOOO+OO+OOOOOOO+OOOOOOOOOOOOOOOOOO.OO..9####               ###############               ###############               ###############               ###############               ###############",
"               ###############               ###############               ###############               ###############               ###############   #6$$$$$$$$$$$$$$$$$$$$$$$$$4252555555525552555555555555520$$=$==$===$=$====================&===&=&==&=&=&&&=&&&&&&&&&&&&&&&&%&&%&&&%&%&&%&%%&%&%&%&%%%%%%%%%%%%%%%%%o%o%o%%o%o%oo%oo%oooooo.oo7%.ooo7oo7oo.7o.7.........7..7...7..O7..7.O.O7.O7.O.7OO7OO7OO7OO7OO7O+OO+7O+O+OO+7O+O+O7+O+++7++++7++7+7++++++7+++++7++++7X7X+7+7X+X++X+7X+X+XX+7XXX+XX+XX7+XXX+XXXX7X7XXXX7XX7XX7XX,+X,+XXX7XXXX+X+XXXXXX7X,+X+X+XXXXXXX+XX+X+X+X+X++X+X+X+X+X+X+X+X+X+XX+X+XX+X+X+X+X+X+X+X+X+X+X+X++X++X+X+X++X+X+X++X+++X+++X++++X++++++++++++++++++++++++++++O+O+++O+O++O+O+O+O+O+OO+OO+O+OO+OOO+OOOOOOOOOOOOOOOOO.OO.OOO.OOo3####               ###############               ###############               ###############               ###############               ###############",
"               ###############               ###############               ###############               ###############               ###############   q@$$$$$$$$$$$$$$$$$$$$$$$$$82555252525552555555255255555220$$==$=$=$======$==============&===&==&=&=&=&=&=&&=&=&=&&&&&&&&&&&&&&&&%&&%&&%&%&&%&%%%%%%&%&%%%%%%%%%%%o%%%%%%o%o%o%o%oo%oooooooooooo7o7oo7o.o7.o7o.o7.7.7.7..7....7..7...O...7..7.O.7OO7.OOOO7OOOOO7+OO7O7OOO7O7+7O+OO+7++O+7+7+++7+++7+++++7+7+++7+7+++X7+++X7+X+X+7X7X7+X+X7++7XX+X7X++X7+XXX7+X7X7XXXXXX7XX7XXXXXXX+XX+X+,XXX+,X+,XX+,X7XXX+XX+,XX7X7XX+XX+XX+XX+X+XX+X+X+X+XX+XX+X+X+X+X+X+X+X+X+X+X+X+X+X+X+X+X+X++X+X+X++++X++X+++X+++X++++++++++++++++++++++++++++++++++O++O+++++O++O++O+O+O+O+O+OO+O+OO+OOOOOOOOO+OOOOOOOOOOOOO.OOO.OO.OO.Ooq####               ###############               ###############               ###############               ###############               ###############",
"               ###############               ###############               ###############               ###############               ###############    #$$$$$$$$$$$$$$$$$$$$$$$$$$*5255555552555252555555552555528$$=$====$=$=$====$=============&===&==&=&=&=&=&=&&&&&&=&&&&&&&&&&&&%&&&&&%&%&%&%&%&%&%&%%%%%%%%%%%%%%%%%o%o%o%o%o%o%oo%oo%o%ooooooooo.o7oo.7o.o.o.7o.o..o......7.7....7.7.7O.O.OOO7O.O.O7O7.OOO7O7OOO7OOO+7O+O+OOO7O7+7O+7+7O+O+7O+7++++7+7+++++7+++++7+7X+7X+++7+++X++X+X7X+X+X+X7X+X+X7XXX7X+XX+XXX+7X+7XXXXXX7X7X7X7XX7XX+X7XX+XX+X7XX+XXXXX7XX+XXXXXX+X++X+X+X+X+X+X+X+X+X+X+X+X+X+X+X+X+X+X+X+X+X+X+X+X++X+X+++X+X+X++X++X+X++X++X+++X+++X+X+++X+++++X++++++++++++++++++++++O++O+O++O++O+O+O+O+O+O+O+OOO+OOO+OO+OOOOOOOOOOOOOOOOOOOO.OOO.O.O..o#####               ###############               ###############               ###############               ###############               ###############",
"               ###############               ###############               ###############               ###############               ###############    #=$$$$$$$$$$$$$=$$$$$$$$$$$*555252525552555552525525555552*7$$==$=$=========================&===&=&=&=&=&&&&=&=&&&&&&&&&&&&&&&&&&&%&&&%&%&%&%%&%%%%&%%&%%%%%%%%%o%%%%%o%%%o%%o%o%oo%oooo%oooooooo.oo7oo.o7o7.o.o7.o7o7.o7......7....O..7.7.7.O.7.7.O.OOO7OOOOO7OOOO7OOO7O7O7+O+OOO+OOO+O+7O++O+O+7O++++++7+++X7+++++++++7++X+++7++7+++++X7X7++++X7+X+++X++X7X+X7XXXX++X++X+XXXXXXX+XXXX+XXXXXX7XXXXXXXXX7XXX7XX+X+X++X+X+X+X+X+X+X+X+X+X+X+X+X+X+X+X+X+X+X+X+X+X+X+X+X+X++X++X+X+++++X++X+++X++++++X++++++++++++++++++++++++++++++++++++O+O++O++++O++O+O+O+O+O+O+O+OO+O+OOO+OOOOOOOOOOOOOOOOOOOOOO.OOOO.OO.OO.O#####               ###############               ###############               ###############               ###############               ###############",
"               ###############               ###############               ###############               ###############               ###############    #o$$$$$$$$$$$$$$$$$$$$$$$$$22525555525255252555555555255555*&$$=$==$=$=$=$=============&==&===&===&==&=&=&=&&&&&=&&&=&&&&&&&&&&%&%&&%&&%&%&%&%&%&%&%%%%%%%%%%%%%%%%%%%%o%o%o%o%o%o%oo%ooooooooooooooo.7o.o.o.7o........7o..7.....7..7.O.O.O..7.OO.O7.7.O.O7OOOOO7OOOO7OOOOOOO7O+7O7+7+O7+O+7O+7++++7+7+7++++7+++7+++7+++++7+7X++++X+7X+7+X+X+X7X+X++X7X+X7X+X7X+X+7XX+X+X+X+X++X+X7X+X7XX7X7XXXX+X7XX7XXXXXXXX+X++X+X+X+X+X+X+X+X+X+X+X+X+X+X+X+X+X+X+X+X+X+X+X+X+X+X++X+X+X+X++X+X+X++X++X+++X+X++++X++X+++++++++++++++++++++++++++O+O++++++++O+O+O+O+O+O++O+O+OOO+OOOO+O+OOO+OO+OOOOOOOOOOOO.O.OOO.O.OO.O.O.,#####               ###############               ###############               ###############               ###############               ###############",
"               ###############               ###############               ###############               ###############               ###############    #8$$$$$$$$$$$$$$$$$$$$$$$$$425525252555255555525525255555252*&$$==$========$================&===&=&=&=&=&&=&=&=&&&&&&&&&&&&&&&&&&&&&&%&&%&%&%&%&%%%%%&%%&%%%%%%%%%%%o%%%o%%%o%o%ooo%oo%oo%oooooooooooooo7.o7oo..o7.o7........7.7..7.....7..7.O.O.7.O.OOO7OO.7O7OOOO7OOOO7O+7OO+OO+OO+OO+O+O+7+O+O7+O++O+++7+++++++7++++7+++++++7++7++++X+++7++X+7+X7X+X7+X+X+X+X++X+X7X+X+X+X+XX7XXXX+XX+XXX+X+X7XXXXXXXX+X+++X+X+X+X+X+X++X++X+X+X+X+X+X+X+X++X+X+X+X+X+X+X+++X+++X++X+X+++++X++X+++X++++++X+++++X++++++++++++X++++++++++++++++++O+++++O+O+O+O+O+++O+O+O+OO+O+OO+OO+O+OOOOOOOOOOOOOOOOOOOOOOOOOOO.OO.OO.O.O..6#####               ###############               ###############               ###############               ###############               ###############",
"               ###############               ###############               ###############               ###############               ###############    #5$$$$$$$$$$$$$$$$$$$$$$$$$02525255252552525255525555252555522=$$=$=$=$=$====$===============&=&===&=&=&=&&&=&&=&=&&&&&&&&&&&&&&&%&%&&%&&%&%&%&%&%&%&%%%%%%%%%%%%%o%%%%%%o%o%%o%o%oo%ooo%ooooooooooooooooo.o..7o.o..o....7o.........O7...O..O.7.OO.O7.O.O.OOO.OO7OOOOO7OOOOOO7OO7OOO7O+7OO+OO+O7+O+O+O+7+O++O7+++++++++++++++++X+++X++7+++X+X+++X+++++X+X+++++++X7X++X+X7X+X+X7XX+++X7X+X+X+X+XXXX++X++++X+X+X+X+X++X++X++X+X+X+X++X+X+X+X+X+X+X+X++X+++X++X+X++X+X++X+++X+X+X++++X++++X+X++++X++++++++++++X++++++++++++++++++++++++O++++++++O+++O+O+O+O+O+OO+OO+OO+OOO+OOOOOOOOOOOOOOOOOOOO.OO.OOO.OO.O.O.O.o1#####               ###############               ###############               ###############               ###############               ###############",
"               ###############               ###############               ###############               ###############               ###############     q$$$$$$$$$$$$$$$$$$$$$$$$$=*5252525255255555252555255555525522=$==$=====$=================&====&=&=&=&=&=&=&=&&&&&&=&&&&&&&&%&&&&&&&&&%&%&%&%&%%&%%%%%&%&%%%%%%%%%%%%%o%%%o%o%%o%o%oo%oooo%ooooooooooooooo.o.o.o..o7.o7.o.7...........7.O.7.O..O.O.O.7O.7O.7OOO.OOO7OOOOO7OOOOOO+7O+OOOO+O7O+O+O+7O+7++O++7+++++7+++7++7++7++7++++7++++X7+++7X+++++X++++X7+X7X++X++X+++X+X7+X+X+XX+XX++X+X+X7X+++XX++X+X+++X++++X+X++X++X+X++X++X+X++X++X+++X++X++X+X+X+X++X++X+X++X++X++X+++++X++X+X+++++X++++X++++++X+++++++++++++++++++++++O+O+++O+O+O+O++O+O+O+O++O+O+O+OO+OO+OO+OOOOO+OO+OOOOOOOOOOOOOOOOO.O.OO.OO.O.O.o######               ###############               ###############               ###############               ###############               ###############",
"###############               ###############               ###############               ###############               ###############               ######$$$$$$$$$$$$$$$$$$$$$$$$$$*25525525252522525552525525255555522$$==$=$====$=================&=======&==&=&=&&=&=&&&&&&&&&&&&&&&&&%&%&&&&&%&%&%&%%&%&%&%%%%%%%%%%%%%%o%%%o%%o%o%o%o%o%o%oooooooooooooooooooooo..7o.o.o.o...o...7..7...........O.7.O.O.O.O.OO.O.7OO7OOOOO7OOOOO7OOOOOOO7+O7+O+O7O+O++O+O+O+O+O+7O+++7+++++++++++++++++++++++++++++X7X+7X+++X++X++X++X7X+X+++X+X++++7X+X+X+X+X+X+XX++++X+++X+X++X+X+++X++X++X++X+X++X+X++X++X+X++X++X+++X+++X++X+++++X++X++++X+X+X+++++++X+++++++++++X++++++++++++++++++++++++O+++++O+++++O++O+O+O+O+O+OO+O+O+OO+OO+OOOOO+OOOOOOOOOOOOOOOOOO.OO.OOOOO.O.O.O.O...#     ###############               ###############               ###############               ###############               ###############               ",
"###############               ###############               ###############               ###############               ###############               ######%$$$$$$$$$$$$$$$$$$$$$$$$$2222525525252555525255525555525252525$$==$===$==$===$==============&=&=&=&=&==&&=&&&&=&=&&=&&&&&&&&&&&&&&%&%&%&&%&%&&%&%%%%%%%%&%%%%%%%%%%%%%%%o%%%o%o%o%ooo%o%oo%oooooooooo.ooo.oooooo7................7....7.O.7.O..O.7.O.7.O.7OOOO.O.O7OOOOOO7OOO+OO+7+OO+OO+OO+O+OO+OO+O+7+++O++O+O+O++7++++7++++7+++++7+++++++X7++++++++++++++X7X++++X7+X+X+++X+XXX++X7X+X+X+X+++X+X++X+++++X++++X+X+X++X++X++++X+++X++X+X++X++X++X+X++X++X+++X+X++X++++X+++++++X++X++++X++++++++++++++++++++++++++++++++O+++++O++O+O+O++O+O++O+O+O+O+O+OOOO+OO+OOO+OOOO+OOOOOOOOOOOOOOOOO.OO.O.O.OO.O.O.O..+#     ###############               ###############               ###############               ###############               ###############               ",
"###############               ###############               ###############               ###############               ###############               ######9$$$$$$$=$$$$$$$$$$$$$$$$$02552525252552252552525525252555555225$$==$=$=================&===&====&==&=&=&=&=&=&&&&&&&&&&&&&&&&&%&&&&&&&&%&%&%&%%&%&%&%&%%%%%%%%%%%%%%o%%o%%o%%o%o%o%o%oooooooooooooooooooooooo.oooo.o7o..7o....................7.O.O.O.OO.O.O.OOOOO.OOOOOOOOOO7OOOOOOOOOO7O+OO7+OO+O+7+OO+7+O+7++++O++O+7++++7++++7+++++7++++++++++X++7X++X7X++++X+X+X++X7X+X7X+++X+XX+X++++++X+++++X++X+X+++X+++++++X+++X++X+X++X++X+++++X++X++X++++X++++X+X++++X++X+X++X++X+++++++++++++X+++++++++++++++++++++++++++O+++O+O+++++++O++O++O+O+O+O+O+OO+O+O+OO+OO+OOOOOOOOOOOOOOOOOOOO.OOOOO.OOO.O.O.O.O.O..6#     ###############               ###############               ###############               ###############               ###############               ",
"###############               ###############               ###############               ###############               ###############               ######1$$$$$$$$$$$$$$$$$$$$$$$$$8*2252525252555525252552552555252525525$$======$=$=$=================&===&=&=&=&=&&&=&=&&=&&&&&&&&&&&&&%&&%&%&%&&%&%&%&%%&%%%%%&%%%%%%%%%%%%%%%%o%%o%%o%o%oo%o%o%oooooooooooooo.oo.oo.o.oooo.o.o.................O.O......O.O..O.O.7O.7.OOO.OO7OOOOOOOOOOOOO7OOOOOO+OO+7O+OO+O+O+O+O+OO+O++O+++++O+++++++++++++++++++++++++X+++++++++++++++++++X+++X+++++++++++X++X+++++X+++++++++X++X+X+X+++X+++X++++++X++++X+X++++X+++X+X+++X++++++X++++++++++++++++++++++++++++X+++++++++++++++++++++++O+++++++++O+O+O++O+O+O+O+O+O+O+OO+OOOOO+OOOOOOOOOOOOOOOOOOOOOOOOOOO.O.OO.O.O.O.O.O.O..o2q     ###############               ###############               ###############               ###############               ###############               ",
"###############               ###############               ###############               ###############               ###############               #######$$$$$$$$$$$$$$$$$$$$$$$$$$*25252525252225255252552525255525552524$$$=$====================&=&===&==&=&=&=&=&=&&&=&&&=&&&&&&&&&&&&&&&&&&&%&%&%&&%&%%%&%&%%%&%%%%%%%%%%o%%%%o%o%o%o%o%ooo%ooo%oooooooooo.oooooo.ooo.o.oo.o.o.o7o.....7...7......O.O.7..O7.O.O.O.OOO.O7OO.OOO7OOOO7OOOO+OO+O+O7OO+OO+OO+O+O+O++O++O7+O+++O+O+++O+++++++++++++7+++++++7+++++++++++++++++++X++++++X+X+X+++++++++++X+++++X+X+X+X+++X+++++X+X++X+++X+X+++X+X++++X+X+++X+++++X+++X+X++++X++X++X++X+++X++X++X++++++++++++++++++++++++++++O++++O+O+O+O+++O+O+O+O+O+O+O+O+OO+O+OO+O+OOO+OOO+OO+OOOOOOOOOOOOOO.OOOOO.OOO.OO.O.O..O.O.o#      ###############               ###############               ###############               ###############               ###############               ",
"###############               ###############               ###############               ###############               ###############               #######=$$$$$$$$$$$$=$$$$$$$$$$$$5252522525255525255525252552525525255224$$==$=$=$===$===============&==&==&==&=&&=&&=&&=&&&&&&&&&&&&&&&&%&%&%&&%&&%&%&%&%&%%%&%%%%%%%%%%%%%%%%o%%%%%o%%o%o%o%oo%ooooooooooooooooo.oooo.o.oo.o.o.o.o...............7......O..O..O.O.OO.OO.O.OOOOOOOOOOOOO7OOOOOOOOOOOOOOO+OOOOOO+OO+OO+O+O+7O+O++O++O+O+O+++++++++++++++++++++++++++++++++X+++++X+X++++++++++++++++++++X++++++++++X+++X+X+++++++++X++++X++++X+X+++++X+++++X+++X++++++X+++++++++++++++++++++++++++++++++++++++++++++++O++++O++++++++O+O+++O+O+O+O+O+O+OO+OOO+O+OOO+OOOOOOOOOOOOOOOOOOOOOOOOO.O.OO.O.OO.O.O.O.O...O#      ###############               ###############               ###############               ###############               ###############               ",
"###############               ###############               ###############               ###############               ###############               #######7$$$$$$$$$$$$$$$$$$$$$$$$$02252525252522525225525525255252555255224$$=======$===================&==&=&=&=&=&=&&=&&&=&&=&&&&&&&&&&&&&&&&&%&&%&%&%&%&%&%%%%&%%%%%%%%%%%%%%%%o%o%%o%o%o%oo%oo%o%oooooooooooooooo.o.ooo.oo.o.o.o.oo.................O...O..O..O.O..O.OO.O.O.O.OOOOOOOOOOOOOOOOOO+OO+OOOO+O+O+OO+O+O+O+O+O+O+O++O++++O++O+O+++++++++++++++++++++++++++++++++++++++++++++++X+++X++++++++++++++X++++++++++X++X+X++++X+X++X++++++X+++++X+X+++++++X+++++++++++++++++++++++++++++++++++++++++++++++++O++++O+++O+O+O+O++O+O+O+O+O+O+O+O+O+OO+O+OOOO+OOOO+OOOOOOOOOOOOOOOOO.O.OOO.OO.OO.O.O.O.O...O..9#      ###############               ###############               ###############               ###############               ###############               ",
"###############               ###############               ###############               ###############               ###############               #######5$$$$$$$$$$$$$$$$$$$$$$$$$=*2252252525252525522525525252552525525224$$$=$=$================&==&===&===&=&==&=&=&&=&&&&&&&&&&&&&&&&&&&&%&&&%&%&%&%&%%%&%&%%%%&%%%%%%%%%%o%%%%%%o%%o%o%o%oo%oooo%ooooooooooo.ooooooo.oo.o.o.o.o...o.o..................O...O.O..O.O.O.OO.OOOOO.O.OOOOOOOOO7OOOOOOOOO+7OOO7OO+OO+O+O+O+O+O+O+O+O+O++O++7++O+O++++++++++++++++++++++X+++++++++++++++++++++++++++++X++++++X++++++++X+++++++++++X+++++++++++X+++++X+++++++++X+++++X++++X++X+++X+++X++++++++++++++++++++++++++++O+++O+++O+O+++++O++O+O+O+O+O+O+O+O+OOOO+OOOOO+OOOOOOOOO+OOOOOOOOOOOOOOOOO.O.OO.OO.O.O..O..O.O..o5q      ###############               ###############               ###############               ###############               ###############               ",
"###############               ###############               ###############               ###############               ###############               ########$$$$$$$$$$$$$$$$$$$$$$$$$$@25252252525225252552525252525255525255225$$====$==$=================&==&=&==&=&&=&&=&&=&&&&&&&&&&&&&&%&&%&&&%&&&%&%&%&%&%%%%&%&%%%%%%%%%%%%%%%%o%o%o%%o%o%o%oo%o%ooooooooooooooooo.o.oo.ooo.o.o.o.oo.o..o..........O..O...O.O...O.O.O.OO.OO.O.OOOOOOOOOOOOOOOOOOOOOOOOOO+O+OO+OO+OO+OO+O+O+O+O+O+O+O++O+++O++++O+O+++++++++++++++++++++++++++++++++++++++++++++++++++X+++++++++X+++++X++++X+++++X++++X++X++++X+++++++++X+++++++++++++++++++++++++++++++++++++++++++++++++O++++++++O++++++O+O++O+O++O+O+O+O+OO+OO+O+OO+O+OOOO+OOOOOOOOOOOOOOOOOOO.OO.OOOOOO.O.O.O.O.O.O......o#       ###############               ###############               ###############               ###############               ###############               ",
"###############               ###############               ###############               ###############               ###############               ########$$$$$$$$$$$$$$$$$$$$$$$$$$5222225252225252252252525252525522525252525$$=$=======$============&==&===&=&=&==&=&&=&&=&=&&=&&&&&&&&&&&&&%&&%&%&%&%&%&%&%&%%%%%%&%%%%%%%%%%%o%%%%%%%o%%o%o%o%ooooo%ooooooooooo.ooooo.oo.o.ooo.o.o..o..o...o..................O..O...O..O.O.O.O.O.O.O.O.OOOOOOOOOOOOOOOOOOOOOOOOOOOO+OO+O+OO+O+O+O+O+O+O+O+O+O+O+++O+O+O+O++++++++++++++++++++++++++++++++++++++++++++++++++++++++++++++++++++++++++++++++++++++++++X++++++++++++++X++++++++++++++++++++++++++++++++++O+++++O+O+O+++O+O+O++O+O+O+O+O+O+O+O+O+O+OO+OO+OOOO+OOOOOO+OOOOOOOOOOOOOOOO.OOO.O.O.OO.O.O.O.O..O.O.O..#       ###############               ###############               ###############               ###############               ###############               ",
"###############               ###############               ###############               ###############               ###############               ########.$$$$$$$$$$$$$$$$$$$$$$$$$8*252522252525252525252525252525252525252525$$==$=$=====================&==&=&=&=&&=&&=&&&&&&&&&&&&&&&&&&&&&&%&&&&&%&%&%&%&%&%&%&%%%%%%%%%%%%%%%%%o%o%o%o%o%o%oo%o%ooo%ooooooooooooooooo.oo.o.o.o.o.o.o..o.o..o.................O..O.O.O.O.O.O.O.OOOOOOOOO.OOOOOOOOOOOOOOOOO+OO+OO+OOO+OOO+O+OO+O+O+O+O+O++++O+++O+O++++++++O+O++O+++O+++++++++++++++++++++++++++++++++++++++X++++++++++X+++++++++++X++++++++++++X+++++++++X++X++++++++++++++++++++++++++++++++++++++++++O++O+++++O+++O++O+O+O+O+O+O+O+O+OO+OOOO+OO+OOO+OOOOOOO+OOOOOOOOOOOOOOO.OOOO.OOO.OO.O.O..O..O.O......,#       ###############               ###############               ###############               ###############               ###############               ",
"###############               ###############               ###############               ###############               ###############               ########6$$$$$$$$$$$$$$$$$$$$$$$$$$*2222525222522522525252525252525252525525225$$=====$=================&==&==&==&=&=&=&&=&=&&=&&&&&&&&&&&&&&%&&&%&%&&%&%&%&%&%%%%%&%%&%%%%%%%%%%%%%%%%%%o%o%o%oo%o%oo%oooooooooooooo.oo.ooo.ooo.oo.o.o.o.o.o.....o.............O..O.......O..OO.O.O.O.O.O.OOOOOOOOOOOOOOO+OOOOOOOOOOOO+OOO+OO+O+O+OO+O+O++OO+O+O+O+O++O+O+O+O+++O+++O+++O++O++O+++++++++++++++++++++++++++++++++++++++++++++++X++X+++++++++X+++X++++++++++++++++++++++++++++++++++++++++++++++++++++O+O+O++O+++O+O++O+O++O+O+O++O+O+O+O+OO+OO+O+OO+OOO+OOOOOO+OOOOOOOOOOOOOOOO.OOOO.OO.O.O.O.O.O.O.O.O.....O.o4#       ###############               ###############               ###############               ###############               ###############               ",
"###############               ###############               ###############               ###############               ###############               ########q$$$$$$$$$$$$$$$$$$$$$$$$$$*25222225252252522252252525252525252525252525$$=$====$===========&=======&==&=&==&=&=&&&=&&&&=&&&&&&&&&&&&&&&%&&&%&&%&%&%%%&%&%%%%%%%%%%%%%%%%o%%%o%o%%%%o%o%oooo%ooo%ooooooooooooooooo.oo.o.oo.o.o.o.o...o.o....o................O.O.O...O..O.O.O.O.OOO.O.O.OOOOOOOOOOOOOOOOOO+OOOOOO+OOO+OOOOO+OO+OO+O+O+O+O+O++O+O+O++++O++++O+++O+++++++++O+++++++++++++++++++++++++++++++++++X++++++++++++++++++++++++++++++++++++++++++++++++++++++++++++++++++++++++++O+O+++++++++++O++++O++O+O++O+O+O+O+O+O+OO+OO+OOO+OOOO+OOOO+OOOOOOOOOOOOOOOOOOOOOO.O.OO.OOO.O.O.O.O.O...O.O....o q       ###############               ###############               ###############               ###############               ###############               ",
"###############               ###############               ###############               ###############               ###############               #########$$$$$$$$$$=$$$$$$$$$$$$$$$4222525222225222252525252525252525252525525222$$===$=================&=&==&==&=&=&=&&=&=&&&=&&&&&&&&&&&&%&&&&&&&%&&%&%&%&&%&%%&%&%&%&%%%%%%%%%%%o%%%%%o%o%%%o%%o%oo%ooo%oooooooooooooooooooooo.o.oo.o.o.oo...o.o...o....................O..O.O.O.O.O.O.O.OOOO.O.OOOOOOOOOOOOOOOOOO+OOOOOOOOO+O+OO+OO+OO+OO+O+O+O+O+O+O+O+OO++O+O++O+++O+O+O+O+++O++O+++++++++++++++++++++++++++++++++++++++++++++++++++++++++++++++++++++++++++++++++++++++++++++++++++++++O++++++O+O+O+O+O++O+O+O+O++OO+O+O+O+O+O+OO+O+OO+O+OOO+OOOOOOOOOOOOOOOOOOOOOOOOO.OO.OOO.OO.O.O.O.O.O.O..O.....O...#        ###############               ###############               ###############               ###############               ###############               ",
"###############               ###############               ###############               ###############               ###############               #########%$$$$$$$$$$$$$$$$$$$$$$$$$=*222222525225252225225225225252525252522552522$$=$===$====================&==&=&=&=&=&&=&=&&&&=&&&&&&&&&&&%&&%&&&%&&%&%&%&%&%%%%%%%%%%%%%%%%%%%%%%%o%%o%o%o%o%oo%oo%oooo%ooooooooo.oo.o.o.o.oooo.o.o..o..o.o....o.................O..O..O...O..O.O.O.OO.O.O.OOOO.OOOOOOOOOOOOOOOOOOOOOO+OOOOOO+OO+OO+OO+OO+O+O+O+O+O+O+O++O+O++O++O+++++++++++++++++O+++++++++++++++++++++++++++++++++++++++++++++++++++++++++++++++++++++++++++++++++++++++++++++++O++O++++O+O+O+++++++O++O++O++O+O+O+O+O+O+O+OO+O+OOO+OOOOO+OOOOO+OOOOOOOOOOOOOOOOOOOOOOO.OO.OO.OO.O.O.O...O..O..O......+#        ###############               ###############               ###############               ###############               ###############               ",
"               ###############               ###############               ###############               ###############               ###############        #0$$$$$$$$$$$$$$$$$$$$$$$$$$@2252522225222252522522522522525225252552252522$$===================&==&=&==&=&=&=&=&&=&&&&&=&&&&&&&&&&&&&&&&&%&%&&%&&%&%&%%&%&%&%&%%&%%%%%%%%%%%%%%o%%%%o%o%o%%o%oo%o%ooooooooooooooooooooo.o.oo.o.oo.o.o..o.o.....o......................O..O.O.O.O..OO.OOO.O.OO.OO.OOOOOOOOOOOOOO+OOOOOOO+OOOOO+OO+OO+O+OO+O+O+O+O++O+O+O++O++O++O+O+O+O+O+O+O+O++++O++O++++++++++++++++++++++++++++++++++++++++++++++++++++++++++++++++++++++++++++++++++++O++O+++++++O++++++++O+O+O++O++O+O+O+O+O++O+O+O+OO+OOO+O+OO+O+OOOO+OOOO+OOOOOOOOOOOOOOOOO.O.OO.OO.O.O.O.O.O.O.O.O.......O..o6#########               ###############               ###############               ###############               ###############               ###############",
"               ###############               ###############               ###############               ###############               ###############        q@$$$$$$$$$$$$$$$$$$$$$$$$$$222222252222522222522522522522525252522255252222=$=$===$===================&===&=&=&=&&=&=&&&&&&&&&&&&&&&&&&&&&&&&%&&%&%&%&%&%%%%%%%&%%%%%%%%%%%o%%%%%o%o%%o%o%oo%o%ooooooooooooooooooooo.ooo.o.oo.o.o.o.o.o...o.o....o............O..O.O...O..O..O.O.O.OO.O.OOOO.OOOOOOOOOOOOOOOOOOOOOOO+OOOO+O+OOO+OO+OOOO+OOO+O+O+O+O+O+O+O+O+O+O+++O++++++++++++O+++++++O+++++++++++++++++++++++++++++++++++++++++++++++++++++++++++++++++++++++++++++O++O++++++O+O+O++O+O+O+O++O++O+O+O+O+O+O+O+O+O+O+OO+O+OO+OOOOO+OOOO+OOOOOOOOOOOOOOOOOOOOO.O.OOOO.OOO.OO.O.O.O.O..O....O.O......%##########               ###############               ###############               ###############               ###############               ###############",
"               ###############               ###############               ###############               ###############               ###############         #$$$$$$$$$$$$$$=$$$$$$$$$$$0*2252222252252252252225225225252252252522252522*&$==$=================&=&==&=&==&=&=&=&&&=&=&=&&=&&&&&&&&&&&%&&%&&%&%&%&%&%&%&%&%&%%%%%%%%%%%%%%%%%%%%%%%o%o%o%o%oo%o%o%o%ooooooooooo.oooo.ooooo.oo.o.o..o.o.o.....o.....................O..O..O.O.O.O.O.O.OO.O.OO.O.OO.OOOOOOOOOOOOOOOOOOOOOOOOO+OOOOO+O+OO+O+OO+O+O+O+O+O+O+O+O++O+O++O+O+O+O+O+O++O+O+O++++O+O++O+++++++++++++++++++++++++++++++++++++++++++++++++++++++++++++++O+++O++++++++O+O+++++O++++O++++O++O+O++O+O+O+O+O+O+OO+OO+OOOO+OO+O+OOOOOOOOOOOOOOOOOOOOOOOOOOOOOOO.O.OO.O.OO.O.O.O.O..O...O.....O.....##########               ###############               ###############               ###############               ###############               ###############",
"               ###############               ###############               ###############               ###############               ###############         #7$$$$$$$$$$$$$$$$$$$$$$$$$=@22222522222252225225222522522252525252525252522*7$======$=========&======&==&=&=&=&=&=&=&&&&&&&&&&&&&&&&&&&&&&&&%&&&%&%&%&%&%%&%%%&%&%%%%%%%%%%%o%%o%o%o%%%o%o%o%oooo%ooooooooooooooooooooo.o.oo.oo.o.o.o..o.o.o....o.................O......O...O.O.O.O.O.OO.OO.OOOOOOOOOOOOOOOOOOOOOOOO+OOOOOOOO+O+OOO+O+OO+O+OO+O+O+O+O+O+O+O+O+O+O++O++O+++++++O++++++O+++++++++O++O+++O++++++++++++++++++++++++++++++++++++++++++++++O++O++O+++O+++O+O+O+O++++O+O+++O+O++OO++O++O+O+O+O+O+O+O+OO+OO+OO+O+OOO+OOOO+OO+OOOO+OOOOOOOOOOOOOOO.OO.OOOOO.OO.O..O.O.O.O.O..O....O.......o9##########               ###############               ###############               ###############               ###############               ###############",
"               ###############               ###############               ###############               ###############               ###############         #4$$$$$$$$$$$$$$$$$$$$$$$$$$@222222252252225222225252222525222522522525252522*8$==$=================&=====&=&=&=&&=&&&=&=&&=&&&&&&&&&&&&&&&%&&&%&&%&%&%&%&%%&%&%%%%&%%%%%%%%%%%%%%%%%%o%o%%o%oo%o%ooo%ooooooooooooo.oo.oooo.oo.oo.oo.o.o..o..o.o....o.................O.O...O.O..O..O.O.O.O.OOO.O.O.OO.OOOOOOOOOOOOOOOOOO+OOO+OOOOO+OOOOO+OOOO+OOO+O+O+O+O+O+O+O++O+O++O++O+O+O+++O+O+O++O+O+O+O++++++O+++O++O++O++O++++++++++++++++++++++++++++++O++O+++++++++++++O+++++++++O+O++++O++O++O+++O+OO+O+O+O+O+O+O+OO+O+OO+OO+OO+OOO+OOOOOOOOOOOOOOOOOOOOOOOOOOOOOO.O.O.OO.O.OO.O.O.O....O...O.........%-##########               ###############               ###############               ###############               ###############               ###############",
"               ###############               ###############               ###############               ###############               ###############          #$$$$$$$$$$$$$$$$$$$$$$$$$$52222222222222222525222252522225252522522522522522*0$$================&===&=&==&==&=&=&=&=&&&&=&&&&&&&&&&&%&&%&&&%&&&%&&%&%&%&%&%%%%&%%%%%%%%%%%%%%%%%%o%o%o%o%o%%o%oo%o%ooo%ooooooooooooooo.ooo.oo.oo.o.o.o.o.o....o.o...o...................O....O.O.O.O.O.OOO.O.OOOOOO.OOOOOOOOOOOOOOOOOOOOOOOOOO+OOO+O+O+OO+O+OO+OO+O+O+O+O+O+O+O+O+O+O+O+O++O++O+++++++O+++++++O+O+O++++++++++++++++O+O+O+O+O++O+O+O+O+O+O+O+O+O++++++O+O+O+O+O+O+++O+O+O+O++++O+O++O++O+O+OO+O++O+O+O+O+O+OO+O+OOO+OO+OOO+OOOOOOOOOOOOOOOOOOOOOOOOOOOO.O.O.OOOOO.O.O.OO..O.O...O.O...O...O.......%###########               ###############               ###############               ###############               ###############               ###############",
"               ###############               ###############               ###############               ###############               ###############          #&$$$$$$$$$$$$$$$$$$$$$$$$$8*2252222225222522222252222225225222252252522525252*4$$=$===============&=====&==&=&==&=&&=&=&&&&&=&&&&&&&&&&&&%&&&%&&%&&%&%&%&%&%&%%%&%%&%%%%%%%%%%%o%%%%%%o%%o%o%oo%oooo%oooooooooooooooooooo.oo.oo.oo.o.o.o.o.o.o....o................O..O....O..O..O.O.O.O..O.OOO.O.OOOOO.OOOOOOOOOOOOOOOOO+OOOOOOOOOOOOOOO+OO+O+O+OO+OO+O+O+O+O+O+O+O+O+O++O++O++O+O+O+++O+O+O++++++++O+O+O+O+O+O+O++++++++++++++++++++++++++++++O+O+O+++++++++++++O++++++++O+O++O+O+O+O+O+O+O+O+O+O+O+OO+OO+OOOO+OO+OOO+OOOO+OOO+OO+OOOOOOOOOOOOOOOOOOOOOOO.O.O.OOO.O..O.O..O.O....O............o+###########               ###############               ###############               ###############               ###############               ###############",
"               ###############               ###############               ###############               ###############               ###############          #0$$$$$$$$$$$$$$$$$$$$$$$$$$@2222222222222222522222525222252252522522525222522225$$==================&=&==&=&==&=&&=&&&=&=&&&&&&&&&&&&&&&&&&&%&&&&%&%&&%&%%&%%&%&%%%%%%%%%%%%%%%%%%%o%%%o%%o%o%o%o%o%ooooooooooooooo.ooo.ooo.o.oo.o.o.o..o.o.o..o....o...................O.O..O..O.O.O.O.OO.O.O.OOO.O.OOOO.OOOOOOOOOOOOOOOOOO+OOO+OO+OO+OOO+OOOOOO+OO+OO+O+O+O+O+O+O+O+O+OO+O+O+O+O++O+O++++++O+O+O+O+++++++++++++++O+O+O++O+O+O+O++O+O+O+O+O++O+++++++O+O+O+O+O+O++O+O+O+O+O++O+O+O+O+O+O+O+O+O+O+OO+O+OO+OO+O+OO+OOO+OOOOOOOOOOOOOOOOOOOOOOOOOOOOO.O.O.O.OOOO.O.O.O.O.O.O.O...O.O...O..........o6###########               ###############               ###############               ###############               ###############               ###############",
"               ###############               ###############               ###############               ###############               ###############          q@$$$$$$$$$$$$$$$$$$$$$$$$$$4*2222222222252222252522222252252222222522225252525222=$==$=================&==&=&=&=&=&=&=&&&&&=&&=&&&&&&&&&&&&&&&%&%&&%&%&%&&%%&%%%%%&%%&%%%%%%%%%%%%%%%o%%o%o%%o%o%ooo%o%o%oooooooooooooooo.ooooo.o.ooo.oo..o..o.o..o....o..............O.......O..O...O.O..OO.OO.O.OOO.O.OOOOOOOOOOOOOOOOOOOOOOOOOOOOOOOO+OOO+O+O+OO+OO+OO+OO+O+O+O+O+O+O++O+O+O+O++O+O++O+O+O+++O+++++O+O+O+O+O+O+O++++++O++++++++O++++++++++O+++O+O+O+++++O+++O++O++O+O+O+O+O+O+O+O+O+O+O+O+O+O+OO+O+OO+OO+OOO+OOO+OOOOOO+OOOOOOOOOOOOOOOOOOOOOO.OOOOOOOOO.O.OO.O.O.O.O..O..O..................%############               ###############               ###############               ###############               ###############               ###############",
"               ###############               ###############               ###############               ###############               ###############           #$$$$$$$$=$$$$$$$$$$$$$$$$$=@2222222222222222222222522222222525252252522252252222*=$=============&==&====&==&=&==&=&=&&=&=&&&&&&&&&&&&&&&&%&&&&&&&%&&%&%&%&%%&%&%&%%%%%%%%%%%%%%o%%%o%%o%%o%o%o%o%o%ooooooooooooooooooooooo.o.oooo.o.o.o.o.o..o..o..o....................O..O...O..O.O.O.O..O.OO.OO.OOOOO.O.OOOOOOOOOOOOOOOOOOOOOOOO+OOOOO+OOOO+OO+OO+OO+O+OO+O+O+O+O+O+O+O+O+O+O+O++O+O+O+O+O+O++O+O++O++++++++++++O+O++++O+O+O++++O+O+O+O++++O++++O++O+O++O+O+O+O+O++O++O+O+O+O+O+O+O+O+O+O+OO+O+OOO+OO+OO+OOOO+OOOO+OOOOOO+OOOOOOOOOOOOOOOOOOOOO.O.O.O.O.O.O.O.O.O.O.O...O..O..O..O...........############               ###############               ###############               ###############               ###############               ###############",
"               ###############               ###############               ###############               ###############               ###############           #7$$$$$$$$$$$$$$$$$$$$$$$$$$@22222222222222222222222252522522222225222252252252522*%$==================&===&==&=&=&=&&=&&=&&=&&&&&&&&&&&&&&&&&%&%&&&%&%&%&%&%&%%%%%&%&%%%%%%%%%%%%%%%%%%%o%%%o%o%o%oo%o%oo%oooooooooooo.ooooooo.o.o.oo.o.o.o.o..o....o..o.o......................O..O...O.O.O.O.O.OO.O.O.OOOOO.OOOOOOOOOOOOOOOOOO+OOOOO+OOOOO+OO+OOO+OO+OOOO+OO+OO+O+O+O+O+O+O++O+O+O+O+O+O++O++O+O+O+O++O+O+O+O+O+O+++O+O+O++O++O+O+++O++++O+O++O+O++O++O+O+O+++O++O+O+O+O+O+O+O+O+O+O+O+OO+OO+OOOO+OO+OO+OO+O+OOOOOOOOOOOOOOOOOOOOOOOOOOOOOOO.O.OO.OOOO.OO.O.O.O.O..O...O.....O..............o9############               ###############               ###############               ###############               ###############               ###############",
"               ###############               ###############               ###############               ###############               ###############           #4$$$$$$$$$$$$$$$$$$$$$$$$$$0*22222222222222225222522222222225252225252225225225222@8$==============&====&==&=&=&=&&=&&=&&&=&&=&&&&&&&&&&&&&%&&&&&%&&&%&%&%&%&%&%&%%%%%&%%%%%%%%%%o%%%o%%%o%o%%o%oo%ooo%o%oooooooooooooooooo.ooooooo.oo.o.o.o.o.o.o....o..................O.O.O....O.O.O.O.O.O.O.O.OOOO.OO.O.OOOOOOOOOOOOOOOOOOOOOOOOOOOOOO+OOOOOO+OOO+OO+O+OO+OO+OO+O+O+O+O+O+O+O+O+O+O+O+O+O+O++O++O+O+O+O+O++O++O+O++O+++O++O++O+O+O++O+O++O+O+O+O+O+O++O++OO+O+O+O+O+O+O+O+O+O+O+O+OO+O+OO+OO+O+OO+OOOOOOOOOOOO+OOOO+OOOOOOOOOOOOOOOOOO.O.OOOO.OO.O.OO.O.O.O..O.O..O.O..O..................%-############               ###############               ###############               ###############               ###############               ###############",
"               ###############               ###############               ###############               ###############               ###############            #$$$$$$$$$$$$$=$$$$$$$$$$$$=@222222222222222222222222222225222225222225225222522522*0$=$==============&===&===&=&=&=&=&=&=&&&&&&=&&&&&&&&&&&&%&&%&&%&%&%&%&%&%%&%%%&%%%%%%%%%%%%%%%o%%%%o%%o%o%o%%o%o%ooooo%ooooooooooooo.oooo.o.o.oo.o.o.o.o.o.o.o.o......o....................O......O..O.O.O.O.O.O.OO.OOO.OO.O.OOOOOOOOOOOOOOOOOO+OOOOOOOOOO+OOO+OO+OO+OO+OO+OO+O+OO+OO+O+O+O+O+O+O+O++O+O+O+O+O+O++O++O++O+O+O++O+O+O+O+O+O+O++O++O+O+O+O+O++O++O+O+O+O+O+O+O+O+O+O+O+O+O+O+O+OO+OO+OOO+OO+O+OO+OOOO+OO+OOO+OOOOOOOOOOOOOOOOOOOOOOOOOOOOO.O.OO.OO.O.O.O.O.O.O.O..O........O...............%#############               ###############               ###############               ###############               ###############               ###############",
"               ###############               ###############               ###############               ###############               ###############            #&$$$$$$$$$$$$$$$$$$$$$$$$$$*2222222222222222222222222522222225222525222225252252252*5$$================&==&=&==&==&=&&&&&=&&=&&&&&&&&&&&&&&&&&&&&%&&&%&%&%&%&%%&%&%%&%%%%%%%%%%%%%%%%o%%%o%%o%o%o%ooo%o%oooo%ooooooooooooooo.ooo.o.oooo.o.o.o..o..o..o.o....o................O...O.O.O.O.O.O.O.O.O.OO.OOO.OOO.OOOOOOOOOOOOOOOOOOOOOOOO+OOOOO+OOOOOOOOOO+OO+OO+OO+OOO+OO+OO+OO+O+O+O+O+O+O+O+O+O+O+O+O+O+O+O+O+O+O+O++O++O++O++O+O++O++O+O+O+O+O+O+O+O+O+O+O+O+O+O+O+O+O+O+O+OO+OO+OO+OO+O+OO+OOOO+OO+OOOOOOOOOOOOOOOOOOOOOOOOOOOOOOOOO.O.OOOOOO.OO.OO.O.O.O.O.O...O...O.O.O.................o+#############               ###############               ###############               ###############               ###############               ###############",
"               ###############               ###############               ###############               ###############               ###############            #0$$$$$$$$$$$$$$$$$$$$$$$$$$0*222222222222222222222222222225222222222222522222222522222=$=============&==&====&=&=&=&=&==&&=&&&&&&&&&&&&&&&&&&&%&%&&&%&&%&%&%&%&%%%%%%&%%&%%%%%%%%%%%%%%%o%%%o%%o%o%o%ooo%o%ooooooooooooooooooo.oooo.o.oo.o.o.o.o.o..o.....o....................O........O...O.O.O.O.O.O.OO.O.OO.OO.O.OOOOOOOOOOOOOOOOOOOO+OOOOOOOO+OO+OOOOOOOO+OO+O+OO+OO+OO+O+OO+O+O+O+O+O+O+O+O+O+O+O+O+O+O+O+O+O+O+O+O+O+O+O+O+O+OO+O++O+O+O+O+O+O+O+O+O+O+O+O+O+O+O+OO+OO+OO+OO+OO+OOO+OOOO+OOOOOOOO+OOO+OOOOO+OOOOOOOOOOOOOOOOO.OOOOO.O.O.OO.O.O.O.O.O.O..O.O..O......................oo4#############               ###############               ###############               ###############               ###############               ###############",
"###############               ###############               ###############               ###############               ###############               ##############$$$$$$$$$$$$$$$$$$$$$$$$$$$ 222222222222222222222222222222222222522522225252522225222*7$==========&======&=&=&=&=&=&=&&=&&=&=&=&&&&&&&&&&&&%&&&&&%&&%&&%&%&%&%&%&%&%%%%%%%%%%%%%%%%%%%%%%o%%o%o%o%%o%o%oooo%oooooooooooo.oooooo.ooo.o.oo.o.o.o.o.o.o.o.o...o....................O.O..O..O.O..O.O.O.O.O.O.OOOO.OO.OOOOOOOOOOOOOOOOOOOOOOOOOOOOO+OOOOOOO+O+O+OOOO+OOO+OO+OO+OOOO+OO+OO+O+O+O+O+O+O+O+O+O+O+O+O+O+O+O+O+O+O+O+O+O+O+O++O+O+O+O+O+O+O+O+O+O+O+O+O+O+O+OO+OO+OO+OO+OO+OO+OO+OOOO+OOOOO+OOO+OOOOOOOOOOOOOOOOOOOOOOOOOOO.OOO.O.OO.OOO.O.O.O.O.O..O.O........O..................o..%#q            ###############               ###############               ###############               ###############               ###############               ",
"###############               ###############               ###############               ###############               ###############               ##############=$$$$$$$$$$$$$$$$$$$$$$$$$$2*222222222222222222222222222222222522222225222222225225222*0$==============&========&=&=&&=&&=&&&&&&&=&&&&&&&&&&&&&%&&%&&&%&%&%&%&%%%&%%%&%&%%%%%%%%%%%%o%%o%%o%%o%%o%o%ooo%o%oo%oooooooooooooo.ooooo.o.ooo.ooo.o.o..o.o..o..o...o.o...................O...O...O.O.O.O.O.O.OO.O.OO.OOO.OO.O.OOOOOOOOOOOOOOOOOOOOOOOOOOO+OOOOOOOOO+OOO+OOO+OO+OO+O+OO+OO+O+OO+OO+O+O+O+O+O+O+O+O+O+O++O+O+O+O+O+O+O+O+O+O+O+O+O+O+O+O+O+O+O+O+O+O+OO+OO+OO+OO+OO+OO+OO+OO+OO+O+OOOO+OOOOOOOOOOOOOOOOOOOOOOOOOOOOOOOO.OOOO.OOO.OO.O.O.OO.O.O.O.O...O.O.O.O...O..................oO#             ###############               ###############               ###############               ###############               ###############               ",
"###############               ###############               ###############               ###############               ###############               ##############6$$$$$$$$$$$$$$$$$$$$$$$$$$0@2222222222222222222222222222225222222522222225225222222522*5$$==========&===&=&=&=&=&=&=&=&=&&=&&=&&&&&&&&&&&&&&&&&&&&%&%&&%&&%&%&%&%%&%%%%%&%%%%%%%%%%%%%%%%%%o%%o%o%o%o%ooo%ooo%ooooooooooooooo.oooooo.oo.o.o.o.o.o..o..o...o...................O.....O...O..O..O..O.O.O.O.OO.OO.OOO.OOOOO.OOOOOOOOOOOOOOOOOOOOOOOOOOOOOOOO+OOOO+OOO+OOO+OO+OOO+OO+OOOO+OO+OO+OO+OO+O+O+O+O+O+O+OO+O+O+O+O+O+O+O+O+O+O+O+O+O+O+O+O+O+OO+OO+OOO+OO+OO+OO+OO+OO+OOO+OOOOOOOOOO+OOOOOOO+OOOOOOOOOOOOOOOOOOOOOOOO.OOOO.O.OO.OO.OO.O.O..O.O.O..O.O.........................o.o..%6#             ###############               ###############               ###############               ###############               ###############               ",
"###############               ###############               ###############               ###############               ###############               ###############$$$$$$$$$$$$$$$$$$$$$$$$$$$ 22222222222222222222222222222222222222222252222222252522222*2=$===========&====&==&==&==&=&&=&&=&&&&&&&&&&&&&&&&&&&&%&&&&%&%&%&%&%&%%&%%&%&%%%%%%%%%%%%%o%%%%o%%o%o%%o%o%o%o%oo%ooooooooooooooooooooo.o.oo.oo.oo.o.o.o.o.o..o....o..o........................O..O..O.O.O.O.O.O.O.OO.O.OO.O.OOO.OOOOOOOOOOOOOOOOOOOO+OOOOOO+OOOOO+OOO+OOO+OO+OO+O+OO+OO+O+OO+OO+OO+O+O+OO+OO+OO+O+OO+O+O+O+O+O+O+O+O+O+O+O+OO+OO+OO+OO+OO+O+OO+O+O+OO+OO+OO+OO+OOO+OOO+OO+OO+OOOOOOO+OOOOOOOOOOOOOOOOOOOOOOOOO.OOO.O.OOOO.OO.OO.O.O.O.O.O...O....O..O..O...............o......%#q             ###############               ###############               ###############               ###############               ###############               ",
"###############               ###############               ###############               ###############               ###############               ###############&$$$$$$$$$$$$$$$$$$$$$$$$$$2*222222222222222222222222222222222222222222222252222222525222*7$============&====&=&=&=&&=&=&&=&&=&=&&&&&&&&&&&&&%&&&&%&&&&&%&%&%&%&%%&%%%%%&%%%%%%%%%%%%%%o%%%%%%o%o%%o%oo%oo%oo%o%ooooooooooooooo.oooo.oo.oo.oo.o.o.o.o.o..o.o......o..............O..O.O....O..O..O.O.O.O.O.OO.OOOO.OOOO.OOOO.OOOOOOOOOOOOOOOOOOOOOOO+OOOOOOOOOOOOOOOOOOOOOOOOO+OO+OOO+OO+OO+OOOOOO+OO+OO+OO+O+O+OO+OO+OO+OO+OO+OOO+OO+O+O+OO+OO+OO+OOOO+OOOOOO+OO+OO+OOO+OO+OOOOOOOOOOOOOOOO+OOOOOOOOOOOOOOOOOOOOOOOOO.OOOO.OOOO.O.OO.O.O.O.O.O.O..O.O..O.....O.....................o..ooO#              ###############               ###############               ###############               ###############               ###############               ",
"###############               ###############               ###############               ###############               ###############               ###############0$$$$$$=$$$$$=$$$$$$$$$$$$$8@2*22222222222222222222222222222222222252222252222522522222222*0$==============&====&=&==&=&&=&&=&&&&&&=&&&&&&&&&&&&%&&%&%&%&&%&%&%&%&%%&%&%%%%&%%%%%%%%%%%%%%%o%o%%%%o%o%%oo%oo%oooo%oooooooooo.ooooooooo.oo.oo.o.o.o.o..o.o.o...o.o........................O...O..O...O.O.O.O.O.O.O.OO.O.OOO.OO.OO.OOOOOOOOOOOOOOOOOOOOOOOOO+OOOOOOO+OO+OO+O+O+OO+OOOO+OO+OO+OO+O+O+OO+OO+OO+OOOOO+OO+OO+OO+OO+OO+O+OO+OOOOO+OO+OO+OO+O+OO+O+O+OO+OO+OOO+OOOOOOOO+OOO+OOOOO+OOOOOOOOOOOOOOOOOOOOOOOOOO.OOOO.OO.O.OO.OO.O.O.O.O.O.O..O...O...O.O....................o...o..o4#              ###############               ###############               ###############               ###############               ###############               ",
"###############               ###############               ###############               ###############               ###############               ################$$$$$$$$$$$$$$$$$$$$$$$$$$$ 2222*222222222222222222222222222222222222222222222222225225222*5$$======&==&=&==&=&==&=&=&=&=&=&&=&=&&&&&&&&&&&&&&&&&&&&&&&%&%&%&%&%&%&%%%%&%%%%%%%%%%%%%%%%o%%%%o%o%o%o%o%oo%oo%o%ooooooooooooooooo.oo.ooo.oo.ooo.o.o.o.o..o..o.....o.o.................O........O..O..O.O.O.O.O.O.O.OOOO.O.OOOOO.OOOOOOOOOOOOOOOOOOOOOOOOOOOOO+OOOOOOOOOOOOOOOOOOO+O+OOOOO+OO+OO+OO+OO+OO+OO+O+O+OO+OO+OO+OO+OO+OOO+OO+O+O+OO+OO+OO+OO+OOO+OOO+OOOOOO+OOO+OO+OOOOOOOOOO+OOOOOOOOOOOOOOOOOOOOOOOOOO.OOOO.O.OO.OOO.OO.O.OO.O.O.O.O.O..O.O........................o....o...o%#q              ###############               ###############               ###############               ###############               ###############               ",
"###############               ###############               ###############               ###############               ###############               ################&$$$$$$$$$$$$$$$$$$$$$$$$$$5*2*2222*2222222222222222222222222222222222222222222222222222222*2=$================&=&=&=&&=&&&&=&&&&&&&&&&&&&&&&&&&&&&%&%&&&&&%&%&%&%&%&%&%%&%%&%%%%%%%%%%%%%%%%%%%%o%%o%o%%oo%oooooo%oooooooooooooooooo.ooo.o.o.oo.o.o.o.o..o..o.o.....o.................O..O.O...O..O...O.O..O.O.O.O.O.OOOO.O.OOOOO.O.OOOOOOOOOOOOOOOOOOOOOOOOOO+OOOOOOOOOOOOOO+OOOOO+O+OOOOO+OOOOO+OO+OO+OO+OOO+OO+OO+OOO+OO+OO+OO+OO+OOO+OO+OO+OO+OOO+OOO+OOO+OO+OOOOOOOOOO+OOO+OOOOOOOOOOOOOOOOOOOOOOOOOOOO.OOO.OO.OOO.OOOO.O.O.O.O..O.O..O....O.....O.O..O...................o....oo+#               ###############               ###############               ###############               ###############               ###############               ",
"###############               ###############               ###############               ###############               ###############               ################6$$$$$$$$$$$$$$$$$$$$$$$$$$7@2222*2222*222222222222222222222222222222222222252225222522252222*8$=========&=&=&==&=&=&=&=&=&=&&=&=&=&&&&&&&&&&&&&%&&&&&&%&%&&%&%&%&%%&%%%&%%%%%%%%%%%%%%%%o%%o%o%o%%o%o%o%o%oo%o%ooooooooooooooo.ooooooo.oooo.oo.o.o.o.o.o.o.o...o..o...o......................O...O..O..O.O.O.O.O.O.O.O.O.OOO.O.O.OOOOOOOOOOOOOOOOOOOOOOOOOOOOOOOO+OO+OO+OO+OOOOOOOOOOOO+OOOOO+O+OOOOOO+OOOOO+OOO+OO+OO+OOO+OO+OO+OOOOO+OOO+OOOOOOOO+OOO+OOOOOOOOOOOO+OOOOOOOOOOOOOOOOOOOOOOOOOOOOOOOOOOOOOOOOO.OOO.OO.OO.O.O.O.O.O.O.O.O.O..O.O...O..O...................o.o.o...o.o.%3#               ###############               ###############               ###############               ###############               ###############               ",
"###############               ###############               ###############               ###############               ###############               ###############q#$$$$$$$$$$$$$$$$$$$$$$$$$$$@*2*2222*2222*2222222222222222222222222222222222222222222222222222*4$$============&====&==&=&=&&=&=&&&&&&=&&&&&&&&&&&&&%&&%&&%&%&&%&%&%&%%&%%%%&%%&%%%%%%%%%%%%%%%%%%%o%%o%o%o%o%ooo%o%o%oooooooooooooo.ooooo.o.oo.oo.oo.o.o.o..o.o..o.......................O..O...O...O..O..O.O.O.O.O.O.OO.OO.OO.OOOOOO.O.O.OOOOOOOOOOOOOOOOOOOOOOOOOOOOOOOOOOOOOOOO+OOOOOOO+O+OOOOOO+O+OOOO+O+OOO+OOOOO+OOO+OOOO+OOO+O+OOO+OOO+OO+O+OOOOOOOOO+OOO+OOOOOOOO+OOOOOOOOOOOOOOOOOOOOOOOOOOOOOOOOO.O.OOO.OO.OO.OO.O.OO.O.O.O.O..O..O....O..............................o.o..o%##               ###############               ###############               ###############               ###############               ###############               ",
"###############               ###############               ###############               ###############               ###############               ############### #%$$$$$$$$$$$$$$$$$$$$$$$$$$0@222*2222*22222222222222222222222222222222222222222222222522522222*2&$====&===&===&=&=&=&=&=&=&&&&=&&=&&&&&&&&&&&&&&&&&&&&&%&&&%&%&%&%&%&%&%&%%%&%%%%%%%%%%%%%o%%%o%o%%o%%o%o%oo%o%oooooo%oooooooooooooo.ooooooo.oo.oo.o.o.o.o.o..o...o.o..o.........................O..O..O..O.O.O.O.O.O.OO.O.OOO.O.O.OOOOOOO.OOOOOOOOOOOOOOOOOOOOOOOOOOOOOOOOO+OO+OOOO+OOOOOOOOO+OOOOOOO+OOOOOO+OOO+OOOOO+OOO+OOOOOOOOOO+OOOOOOOOOOOOO+OOOOOOOOOOOOO+OOOOOOOOOOOOOOOOOOOOOOOOOOOOOOOOOO.O.OOOOO.OOO.OO.OO.O.O.O.O.O.O.O.O...O..O....O...................o.o..o..o...o.o+##               ###############               ###############               ###############               ###############               ###############               ",
"###############               ###############               ###############               ###############               ###############               ############### #6$$$$$$$$$$$$$$$$$$$$$$$$$$$ *222*2*22*22*2*22*2222222222222222222222222222222222222222222522222@8$=========&====&=&=&=&&=&=&=&&=&&&&&&&&&&&&&&&&&&&&%&&&&%&&%&%&%&%%&%%%%&%%%%%%%%%%%%%%%%%%%%%%%o%%o%o%o%o%oo%o%o%oooooooooooooooooo.oo.o.oo.oo.oo.o.o.o.o.o.o.o...o...o.o................O..O.....O..O..O...O.O.O.O..O.O.O.OOO.OO.O.O.OOOOO.OOOOOOOOOOOOOOOOOOOOOOOOOOOOOOOOOOOOOOOO+OOOOOOOOO+OOOOOOOO+OOOOOOO+OO+OOOOOOOO+OO+OO+OOOOO+OOO+OOOOOOO+OO+OOO+OOOOOOOOOOOOOOOOOOOOOOOOOOOOOOOOOOOOO.OOOO.O.O.OO.OO.OO.O.O.O.O.O.O..O...O.O......O....O..............o.......o..o.o.o%3##               ###############               ###############               ###############               ###############               ###############               ",
"###############               ###############               ###############               ###############               ###############               ############### q#$$$$$$$$$$$$$$$$$$$$$$$$$$$4*2*22222*222222*2222*22222222222222222222222222222222222222222222222*5$$=========&=&==&==&=&=&=&&=&&&=&=&&=&&&&&&&&&%&&%&&%&%&&%&%&%&%&%%&%&%%%&%&%%%%%%%%%%%%%o%%%o%%o%%o%%o%%o%oooo%oooooooooooooooooooooooooo.oo.o.oo.o.o.o.o.o..o.o...o.........................O.......O..O.O.O.O.O.O.OO.O.O.O.OO.OOOOO.O.OOOO.OOOOOOOOOOOOOOOOOOOOOOOOOOOOOOOOOOOOOOOOOO+OOOOOOOO+OOO+OOOOO+OOOOOOOOOO+OOOOOOOOOOOOOOOOOOOOOOO+OOOOOOOOOOOOOOOOOOOOOOOOOOOOOOOOOOOOOOOOOOOO.O.OOOO.OOOOO.OO.O.OO.O.O.O.O.O..O.O..O......O.O........................o..o...o..o.o.%###               ###############               ###############               ###############               ###############               ###############               ",
"###############               ###############               ###############               ###############               ###############               ###############  #%$$$$$$$$$$$$=$$$$$$$$$$$$$= 22*2*2*222*2*2222*2222*222222222222222222222222222222222222222222222**%$====&=&=====&==&=&==&&=&&=&=&&&&&&&&&&&&&&&&&&&&&&&&&%&&&%&%&%&&%&%%&%%%%%%&%%%%%%%%%%%%%%%o%%%o%%o%%o%oo%o%oo%o%o%oooooooooooooooooo.oooo.ooo.oo.o.o.o..o.o...o......o.o....................O.O.O...O...O...O.O.O..O.OO.OO.OO.O.O.OOO.O.OO.OO.OOOOOOOOOOOOOOOOOOOOOOOOOOOOOOOOOOOOOOOOOO+OOOOOOOOOOOOOOOOOOOOOOOOOOOO+OOOOOOOOOOO+OOO+OOOOOOOOOOOOOOOOOOOOOOOOOOOOOOOOOOOOOOOOOOOOOOO.OOOOO.O.OO.O.OOO.OO.O.O.O.O.O.O.O.O..O..O.O.O.....O...................o...o..o.o..o.o.o7###               ###############               ###############               ###############               ###############               ###############               ",
"###############               ###############               ###############               ###############               ###############               ###############  #5$$$$$$$$$$$$$$$$$$$$$$$$$$$2*2*2*22*2*222*22*222*2222*22222222222222222222222222222222222252222222@0$=======&==&==&==&=&=&=&=&&&&=&&=&&&&&&&&&&&&&&&&%&%&&&%&&%&%&%&%%&%%&%&%%%%%%%%%%%%%%%%o%%%%o%%o%o%o%o%o%oo%ooooooooooooooooooo.oo.ooo.o.oo.oo.oo.o.o.o.o.o.o..o.o.o.....o........................O...O..O.O..O.O.O.O..O.OO.OO.OOO.OOOOOO.OOOOO.OOOOOOOOOOOOOOOOOOOOOOOOOOOOOOOOOOOOOOOOOOOOOOO+OOOO+OOOO+OO+OO+OOOOOOOO+OO+OO+OOOOOOOOOOOOOOOOOOOOOOOOOOOOOOOOOOOOOOOOOOOOOOOOO.OO.OOO.O.OOOO.OO.O.O.O.O.O.O.O.O.O..O...O..........O...................o.o...o...o..o.o..o.%1###               ###############               ###############               ###############               ###############               ###############               ",
"               ###############               ###############               ###############               ###############               ###############               ####$$$$$$$$$$$$$$$$$$$$$$$$$$$7 222*2*2*22*22*222*2222*2222*222222222222222222222222222222222222222222*2=$======&===&=&=&=&=&=&&=&=&&=&&&&&&&&&&&&&&&&&&&&&%&%&&%&%&%&%&%&%&%%%&%&%&%%%%%%%%%%%%%%%%%o%%%%o%o%o%o%oo%o%o%oo%oooooooooooooooooooooo.oo.o.oo.o.o.o.o..o.o.o......o................O.......O...O..O..O..O..O.O.O.O.O.O.O.OO.OO.O.O.OOO.O.OOOO.OO.OOOOOOOOOOOOOOOOOOOOOOOOOOOOOOOOOOOOOOOOOOOOOOOOOOOOOOOOOOOOOOOOOOOOOOOOOOOOOOOOOOOOOOOOOOOOOOOOOOOOOOOOOOOOOOOOOOOOOOO.OOO.OOOO.OOOO.O.OO.OOO.O.OO.O.O.O.O.O.O..O..O.O.O..O..........................o....o..o..o.o.oo#   ###############               ###############               ###############               ###############               ###############               ###############",
"               ###############               ###############               ###############               ###############               ###############               ####8$$$$$$$$$$$$$$$$$$$$$$$$$$$***2*2*22*2*2*22*22*2*222*22222*2222222222222222222222222222222222222222*@7$=======&===&=&=&=&=&=&&&=&&&=&&=&&&&&&&&&&&%&&&&&&&&%&&&%&%&%&%%%&%%%%%%%%%%%%%%%%%%%%o%%%%%o%o%%%o%%o%o%ooooo%ooo%oooooooooooooo.ooo.ooo.ooo.oo.o.o.o.o.o....o.o.o...o.o..................O..........O..O.O..O.O.O.O.O.O.O.O.O.OO.OO.OOOOO.O.OOOOOO.OOOOOOOOOOOOOOOOOOOOOOOOOOOOOOOOOOOOOOOOOOOOOOOOOOOOOOOOOOOOOOOOOOOOOOOOOOOOOOOOOOOOOOOOOOOOOOOOOOOOOOOOOOOOOOOOOO.OOOO.OOO.O.OO.O.OOO.OO..OO.O..O.O.O.O...O..O..............................o.o......o.o..o.o.o.o.%9#   ###############               ###############               ###############               ###############               ###############               ###############",
"               ###############               ###############               ###############               ###############               ###############               #####$$$$$$$$$$$$$$$$$$$$$$$$$$$0@*22*22*22*22*2*2*2222*22*22*2222*222222222222222222222222222222222222222@4$====&====&===&==&=&&=&=&&=&&&&&&&&&&&&&&&&&&&&%&&%&&%&%&%&%&%&%&%&%&%&%&%%&%%%%%%%%%%%%%o%%%%%o%o%%o%o%o%o%o%oo%oooooooooooooooooooooo.oo.o.oo.ooo.o.o.o.o.oo.o...o.......o...................O..O.O.......O.O..O.O.O..O.O.O.O.O.O.OO.O.O.OOO.O.O.OOOO.O.OOOOOOOOOOOOOOOOOOOOOOOOOOOOOOOOOOOOOOOOOOOOOOOOOOOOOOOOOOOOOOOOOOOOOOOOOOOOOOOOOOOOOOOOOOOOOOOOOOOOOOOOOOO.OO.OO.OOO.OOOO.OOO.O.O..OO.O.O.O.O..O..O.O..O...O.O..O..O.................o......o.o..o..o.o.o.o.o%qq   ###############               ###############               ###############               ###############               ###############               ###############",
"               ###############               ###############               ###############               ###############               ###############               #####&$$$$$$$$$$$$$$$$$$$$$$$$$$$ *2*2**22*2*2*22*2*2*22*222222*2222*22222222222222222222222222222222222222*2&$====&===&=&=&=&=&=&=&&=&=&=&&&=&&&&&&&&&&&&&&&&&&&&&&%&%&%&%&%%%&%%%%%%%%%%%%%%%%%%%%%%%o%%%%o%o%o%%o%oo%oo%ooo%oooooooooooooooo.ooooooooo.oo.o.oo.o.o.o...o.o.o..o..o....o........................O.O..O...O..O..O.O.O.O.O.O.OO.O.OO.OO.OOOOO.OO.OOOOOO.OOOOOOOOOOOOOOOOOOOOOOOOOOOOOOOOOOOOOOOOOOOOOOOOOOOOOOOOOOOOOOOOOOOOOOOOOOOOOOOOOOOOOOOOOOOOOOOOO.OO.O.OOOOOO.OOO.OO.O.OO.O.O.OO.O..O.O.O.O.O..O....O...O.............................o..o...o.o.o.o..o.o.ooO#    ###############               ###############               ###############               ###############               ###############               ###############",
"               ###############               ###############               ###############               ###############               ###############               #####4$$$$$$=$$$$$$$$$$$$$$$$$$$$4@***22**2*2*2*2*22*22*2*2*2*2222*22222*22222222222222222222222222222222222*@0$====&=&====&=&==&=&&=&&&&&&=&&&&&&&&&&&&&&&&&%&%&%&%&&&&%&%&&%&%&%&%&%&%%&%%%%%%%%%%%%%%%%o%%%%o%%o%o%%o%oo%o%ooo%ooooooooooooooooooo.o.oo.o.oo.o.o.o.o.oo..o..o..o....o........................O....O...O...O..O.O.O.O.O.O.O.O.O.O.OO.OO.O.OO.OO.O.O.OOO.O.O.O.OOOOOOOOOOOOOOOOOOOOOOOOOOOOOOOOOOOOOOOOOOOOOOOOOOOOOOOOOOOOOOOOOOOOOOOOOOOOOOOOOOOOOOO.OO.OOOOO.O.O.OO.OO.OO.OO.O.O.O.O.O.O.O..O.O..O..O.O...O...O...O...................o.o.....o.o..o..o.o.o.o.o%5#    ###############               ###############               ###############               ###############               ###############               ###############",
"               ###############               ###############               ###############               ###############               ###############               ######$$$$$$$$$$$$$$$$$$$$$$$$$$$$q*2*2*2*2*2*22*22*2*2222*222*2*222*2*222*22222222222222222222222222222222222*2&$======&=&==&=&=&=&=&=&=&&&&&&=&&&&&&&&&&&%&&&&&&&&%&%&%&%&%&%%%%%%%%%%%%%%%%%%%%%%%%%%%%%%o%o%%o%o%oo%o%oooo%oooooooooooooooooo.ooooooo.ooo.oooo.o.o.o..o.o.o..o..o....o.o.......................O.......O..O..O...O.O.O.O.O.O.O.O.OO.O.OO.OOO.OOOOO.O.OOOOOOOO.OOO.OOOOOOOOOOOOOOOOOOOOOOOOOOOOOOOOOOOOOOOOOOOOOOOOOOOOOOOOOOOOOOOOOOOOOOOO.OO.O.O.OOOOO.O.O.OOO.OO.O.OO.OO.O.OO.O.O.O.O.O.O..O..O..O....O..........................o......o.o...o.o.o.o.o.o.oooo#     ###############               ###############               ###############               ###############               ###############               ###############",
"               ###############               ###############               ###############               ###############               ###############               ######7$$$$$$$$$$$$=$$$$$$$$$$$$$$5@*2**2*2*2*2*2*22*2**2*2*2*222*2*2222*222*22*2222222222222222222222222222222*@0$===&==&==&=&=&=&=&=&&&=&=&=&&&&&&&&&&&&&&&&&%&&%&&&%&&%&%&%&&&%&%&%&%&%%&%%%%%%%%%%%o%%o%%%%%o%o%o%%o%oo%o%oo%o%o%oooooooooooooo.ooo.oooo.oo.o.oooo.o.o.o.o..o.o..o.o....o..o.............O.........O.O.....O..O.O.O...O.O.O.O.O.O..O.OO.OO.OO.O.O.OOOOO.O.O.OOO.OOOOO.OOO.OOOOOOOOOOOOOOOOOOOOOOOOOOOOOOOOOOOOOOOOOOOOOOOOOOOOOOOOOOOO.O.OOOOOOOOOO.O.OO.OOOO.OO.OO.OO.O.O.O.O..O.O.O.O.O..O..O..O....O......O...................o....o..o...o.o.o.o.o.o.o.oo.%9#     ###############               ###############               ###############               ###############               ###############               ###############",
"               ###############               ###############               ###############               ###############               ###############               #######$$$$$$$$$$$$$$$$$$$$$$$$$$$= **2**2*2*2*2*2**222*2*22*22*22222*2222*222222*2222222222222222222222222222222*2&$=====&==&=&=&=&&=&=&&&&&&&&&&&&&&&&&&&&&&&&&%&&%&&%&%&%&%&%%&%%%%%%%%&%%%%%%%%%%%%%%%%%%o%%%%%o%o%o%o%o%oo%oooooooooooooooooooooooooo.ooo.o.o.o.o.oo.o.o.o.o..o....o............................O.....O.O.........O.O..O.O.O.O.O.O.O.O.O.O.OO.OOO.O.O.OOOOO.O.OO.O.OOO.OOO.O.OOO.OOOOOOOOOOOOOOOOOOOOOOOOOOOOOOOOOOOOO.OOO.OO.O.O.O.OOOOO.O.O.O.O.OOO.OOO.O.O.OO.OO..O.O.O.O.O.O..O...O.O..O......O....O..O.......................o...o..o.o.o..o..o.o.oo.o.o% q     ###############               ###############               ###############               ###############               ###############               ###############",
"               ###############               ###############               ###############               ###############               ###############               #######&$$$$$$$$$$$$$$$$$$$$$$$$$$$**2**2****2**2*22**2*22*2*2*2*2*2*22*2*222*2*22222*2222222222222222222222222222*@0$==&==&=&==&==&=&&=&=&=&=&&=&=&&&&&&&&&&&&&&&&&&&%&&&%&%&%&&%&%&%&%&%%%&%%%%%%%%%%%%%%%%%%%o%o%%%o%o%o%oo%oo%o%oo%oooooooooooooo.ooooooo.oooooo.oo.o.o.o..o.o.o.o.o..o..o.o.o.o.....................O.......O.O.O..O..O.O..O.O.O.O.O.O.O.O.O.OO.O.OO.OOO.O.OOOO.OOOO.OOO.OOOOO.OOO.O.O.O.O.O.OO.OO.OOO.OOO.OOO.O.O.O.OOO.OOOOOOOOOOOO.O.OO.OOO.OOOO.OOO.O.OO.OO.O.O.OO.O.O.O.O.O.O.O.O...O....O.O...O.........................o.o...o..o.o..o..o.o.o.o.o.ooooO#      ###############               ###############               ###############               ###############               ###############               ###############",
"               ###############               ###############               ###############               ###############               ###############               #######4$$$$$$$$$$$$$$$$$$$$$$$$$$$8 *2**2*2**2**2**2*2*2*22*22*2*2*2*2*222*22222*2*222*2222222222222222222222222222@2&$======&=&=&=&=&&=&&&=&&&&&&&&&&&&&&&&&%&&%&%&%&&%&&%&%&%&%&%&%%%%&%%%%&%%%%%%%%%%%o%%o%%%%%o%o%%o%%o%oo%oooo%ooooooooooooooooooo.ooo.oo.o.o.oo.oo.o.o.o.o.o.o.o..o..o...............................O.O.......O..O....O..O.O.O.O.O.O.O.O.O.O.OO.OO.O.OOO.O.OO.O.OO.OOO.O.OOO.OOOOOOOOOOOOOOOOOOOO.OOO.OOO.OOOOOOOOO.OOO.O.O.O.O.O.OOO.OO.OOO.O.OO.O.OO.O.O..O.O.O..O.O.O.O..O..O...O....O..............................o.o.....o...o...o.o.o.o.o.ooo.oo.o%4#      ###############               ###############               ###############               ###############               ###############               ###############",
"               ###############               ###############               ###############               ###############               ###############               ########$$$$$$$$$$$$$$$$$$$$$$$$$$$$ **2*2**2*2*2**2*2*2*2**2*22*22*22*22*22*2*2*2222*2222*22*22222222222222222222222*@0$==&=&==&=&=&=&=&=&=&&&=&&&&&&&&&&&&&&&&&&&&&&&&&%&&%&%&%&%&%&%&%%&%&%%%%%%%%%%%%%%%%%%%o%%%o%%o%%o%o%%o%o%oo%o%o%ooooooooooooooooooooooooooo.oo.oo.oo.o.o..o..o..o...o...o..o.o........................O.O.O......O.O..O..O..O.O.O.O.O.O.O.O.O.O.OO.O.O.OO.OOOO.OO.O.OOO.O.OO.O.O.O.O.O.O.O.O.O.OOO.OOO.OOO.O.O.O.OOO.OOO.OOOOOOOO.OO.OOO.O.OO.O.O.O.O.O.OO.O.O.O.O.O..O..O.O...O....O...O..O..O....................o.......o..o.o.o.o.o.o.o.o.o.o.oo.oo%#q      ###############               ###############               ###############               ###############               ###############               ###############",
"               ###############               ###############               ###############               ###############               ###############               ########7$$$$$$$$$$$$$$$$$$$$$$$$$$$0 *****2***2*2***2**2*22*2*2*2*2*2*2*2*222*22*2*222*2222222*22222222222222222222222@2&$====&=&=&==&&=&&&=&=&&=&&=&&&&&&&&&&&&&&&%&%&&&%&&%&%&%&%%&%%&%%%%%&%%%%%%%%%%%%%%%%%%%o%%o%o%o%o%oooo%o%oooooooooooooooooooooo.oooo.o.o.oo.oo.oo.o.o.o.o.o.o.o..o..o......................................O.O.....O..O..O..O..O.O.O.O.O.O.O.O.O.O.OO.O.O.O.OO.OOOO.OOOOO.OOOO.OOOOOOO.OOO.OOO.O.OO.OO.O.OOOOOOO.O.OO.OO.O.O.O.OO.OO.O.O.O.O.O.O.O.O.O..O.O..O.O..O.O..O...O....O....O..............................o..o.o..o..o..o.o.o.o.oo.oo.oo.ooo8#       ###############               ###############               ###############               ###############               ###############               ###############",
"               ###############               ###############               ###############               ###############               ###############               ########q$$$$$$$$$$$$$$$$$$$$$$$$$$$$ ***2****2***2*2*2*2**2**2*2*2*2*2*2*2*2*22*2222*22*2*2*222*22*22222222222222222222*@0$====&==&=&==&=&=&&&=&&&&&&&&&&&&&&&&&&&&&&&&%&&%&&%&%&%&%&%&%%&%&%%%%&%%%%%%%%%%%%o%%%%%%%%%o%o%o%%%%ooo%o%o%o%o%oooooooooooooooo.ooooooo.oo.oo.o.oo.o.o.o.o.o.o.o..o.o.o.o..o.o........................O.....O.O...O..O..O.O.O..O..O.O.O.O.O.O.O.O.O.OO.O.O.O.O.O.O.O.OO.O.OO.O.O.O.OO.OO.O.OOOO.OO.OOO.O.O.O.OOO.OO.O.OO.O.OO.O.O.O.O.OO.O.O.O.O.O.O.O.O.O.O..O....O..O....O....O..........................o.o.o...o...o..o.o.o.o..o.o.o.oo.oo.ooo% q       ###############               ###############               ###############               ###############               ###############               ###############",
"               ###############               ###############               ###############               ###############               ###############               #########%$$$$$$$$$$$$$$$$$$$$$$$$$$$0 ****2*2**2**2***2**2*2*2**2*2*2*2*22*22*2*2*2*22*22222*2222222*222*2222222222222222@*%$===&=&=&=&&=&&=&=&&=&&=&&&&&&&&&&&&&&%&&&%&&%&&%&%&%&%&%&%%&%%%%&%%%%%%%%%%%%%%%%%%%%o%o%%%%%o%o%oo%o%oooooooooooooooooooooooooooooo.oooo.oo.ooo.o.o.o.o..o.o..o.o.............o.........................O......O.....O....O..O.O.O..O.O.O.O.O.O.O.O.O.OO.O.O.OO.O.O.O.OO.O.OO.OO.OO.OO.OOO.O.OOO.OO.OO.O.O.O.O.OO.OOO.OO.O.O.O.O.O.O.O.O.O.O.O.O.O.O..O..O.O..O.O......O.O..O.......O..................o........o...o..o..o.o.o.oo.o.ooo.oo.oo.oo+#        ###############               ###############               ###############               ###############               ###############               ###############",
"               ###############               ###############               ###############               ###############               ###############               #########1$$$$$$$$$$$=$$$$$$$$$$$$$$$$ *2***********2*2**2*2**2*2*2*2*2*2*2*2*2*22*22*222*2*222*2*2*22*22222*22222222222222*@5=$====&=&===&=&&&=&&=&&&&=&&&&&&&&&&&&&&&&&&&&%&&&&%&%&%&%&%&%&%%&%&%%&%%%%%%%%%%%%o%%%%%%o%o%%%o%%o%o%o%o%o%oo%o%oooooooooooooooo.oooo.ooo.oo.oo.ooo.o.o.o..o.o..o.o.o.o.o..o.....................O..........O.....O....O...O...O..O.O..O..O.O.O.O.O.O..O.O.O.O.OO.O.O.OO.OO.OO.OO.OO.OO.O.OO.O.OO.O.OO.OOO.OOO.O.O.O.O.O.O.O.O.O.O.O..O.O.O.O.O..O..O..O....O.....O.O...............................o.....o..o..o.o..o.o.o..o.o.o.oo.o.o.oo.ooo&1q        ###############               ###############               ###############               ###############               ###############               ###############",
"###############               ###############               ###############               ###############               ###############               ###############         #&$$$$$$$$$$$$$$$$$$$$$$$$$$$0 ****2**2*2*****2****2**2*2**2*2*2*2**2*2*2*2*2*2*22*2*2222222222*22222*22222222222222*@0$==&==&=&&=&=&=&&=&&=&&&&&&&&&&&&&&&&%&&%&%&&&%&%&&%&%&%&%%&%%&%%%%%%%%%%%%%%%%%%%%%%%o%%%%o%o%o%o%oo%o%ooo%ooooooooooooooooooooooooooo.ooo.o.oo.o.oo.o.o.o.o.o..o..o.....o..o.o.........................O....O.O...O...O...O.O..O...O..O.O..O.O.O.O.O.O.O.O.O.O.O.O.O.O.O.O..O.O.O.O.O.OO.O.O.O.O.O.O.O.O.O..O.O.O.O.O.O.O.O.O.O.O.O.O..O...O.O..O..O...O....O.O.....O......O....................o...o.o...o..o..o.o.o.o.o.o.o.oo.oo.ooo.ooooo.##########               ###############               ###############               ###############               ###############               ###############               ",
"###############               ###############               ###############               ###############               ###############               ###############         #4$$$$$$$$$$$$$$$$$$$$$$$$$$$$@***********2*2***2*2**2***2**2*2*2*22*2*2*2*2*2*2*2*22*2*2*2*2*22*22*22222*22*22222222**2&$==&=&==&=&=&&=&&&&=&&&=&&&&&&&&&&&&&&&&&&&%&&&%&%&%&%&%&%%&%%%&%&%%&%%%%%%%%%%%%%o%%%%o%%%o%%o%o%%%oo%o%oo%oo%o%ooooooooooooooooo.ooooo.ooo.o.oo.o.oo.o.o..o.o.o..o.o.o........o.o.............................O...O...O....O..O.O..O.O..O..O..O.O.O.O.O.O.O.O.O.O.O.O.O.OOO.O.O.O.O.O.O.O.O.O.OO.O.O.O.O.O.O.O.O.O.O.O.O.O.O.O.O.O..O.O.O....O..O...O...O............O......................o.........o..o..o.o.o..o.o.o.o.oo.oo.oo.oooo.o&-##########               ###############               ###############               ###############               ###############               ###############               ",
"###############               ###############               ###############               ###############               ###############               ###############          #$$$$$$$$$$$$$$$$$$$$$$$$$$$$8 **************2****2**2*2*2***2**2**2*2*2*2*2*2*22*2*22*22*2222*22*222*22222222*2222222*@4=$=&=&=&&=&=&&=&=&&&=&&&&&&&&&&&&&&&&&&%&%&&%&&&%&&%&%&%&%%&%&%%%%%%%%%%%%%%%%%%%%%%%%%%o%%o%%o%o%o%oo%oo%oo%ooooooooooooooooo.oooooo.ooo.oooo.oooo.o.o.o.o.o.o.o..o...o.o..o......o..............................O...O..O........O....O.O.O.O..O.O.O.O.O.O.O.O.O.O.O.O.O...O.O.O.O.O.O.O.O.O.O..O.O.O.O.O.O.O.O.O.O.O.O.O.O...O..O.O...O..O.O.....O...O...O..O..O........................o....o.o.o.o..o..o..o..o.o.o.o.ooo.oo.ooo.oo.ooooo###########               ###############               ###############               ###############               ###############               ###############               ",
"###############               ###############               ###############               ###############               ###############               ###############          #0$$$$$$$$$$$$$$$$$$$$$$$$$$$$*@*****2***2******2*********2*2**2**2*2**2*2*2*22*2*2*2*2*22*2*22*222*222*2*22*22222222222*@8$===&==&&=&=&&&=&=&&&&=&&&&&&&&&&&&%&&&&&&&%&%&%&%&%&%&%&%%%%&%&%&%%&%%%%%%%%%%%%%%o%%%o%%%o%%%o%o%%o%oo%oo%oo%o%oooooooooooooooo.ooooooo.o.oo.o.o.ooo.o.o.o..o.o.o.o....o..o..o...o.....................................O..O.O...O.O........O...O...O..O..O.O.O.O.O.O.O.O.O.O.O.O.O..O.O.O.O.O.O.O.O.O.O.O.O..O..O...O...O.O..O....O..O.....O.O...O..................................o....o........o..o.o.o.o.o.o.o.oo.o.o.oo.o.ooooooo%4###########               ###############               ###############               ###############               ###############               ###############               ",
"###############               ###############               ###############               ###############               ###############               ###############          q#$$$$$$$$$$$$$$$$$$$$$$$$$$$$7q************2*****2*2*2*2****2**2**2*2*2*2*2*2*2*2*2*2*2*2*22*22*222*2*2222*222*2*22222*2*@2&$==&==&=&=&=&&&&&=&&&&&&&&&&&&&&&&&&&%&%&&&&&&%&%&%&%&%&%&%%%%%%%%%%%%%%%%%%%%%o%%%%%%%o%%o%o%o%o%oo%oo%oo%oooooooooooooooooooooooo.oooooo.oo.ooo.o.oo.o.o.o.o.o.o.o.o...o.........o............................O...O....O....O.....O.O.O.O..O..O.O..O.O..O...O..O..O.O.O.O.O.O.O.O.O.O..O.O.O.O..O..O...O.O..O..O.O.O.O...O..O.O......O.......O....O...........................o..o..o....o.o.o.o.o.o.o.o.o.o.oo.oo.oooo.oooooo.ooooo%############               ###############               ###############               ###############               ###############               ###############               ",
"###############               ###############               ###############               ###############               ###############               ###############           #8$$$$$$$$$$$$$$$$$$$$$$$$$$$$*@**************2***********2**2*2*2*2**2**2*2*2*2*2*2*2*2*22*2*22*2*22222*222*222222*222222* 0$===&=&=&&=&=&=&&=&&&=&&&&&&&&&&&&&&&&&&&%&%&%&&%&%&%&%&%%&%&%&%&%%&%%%%%%%%%%%%%o%%o%%%o%%o%%o%o%%%o%oo%oo%oo%o%ooooooooooooooooooo.oo.ooo.oo.oo.oo.o.o.o.o..o..o.o.o.o..o.o.o.o...o..o...................O...............O.....O.........O..O....O...O..O.O..O..O..O..O...O....O..O..O..O..O..O..O.O.O.O..O.O..O......O..O......O.O....O.O.................................o.........o.o...o..o..o.o..o.o.o.o.oo.oo.o.oo.o.oooo.oo%9############               ###############               ###############               ###############               ###############               ###############               ",
"###############               ###############               ###############               ###############               ###############               ###############           q#$$$$$$$$$$=$$$$$$$$$$$$$$$$$=q******************2****2************2**2**2**2*2*2*2*2*2*22*22*22*2*2*2*22*222*22*2222222222@*7$==&=&=&&=&&&=&&&=&&&&&&&&&&&&&&&&&%&&%&&&&&%&&%&%&%&%&%%&%%%%%%%%%%%%%%%%%%%%%%%%%%o%%%o%%o%o%oo%oo%oo%oo%oooooooooooooooooooooooooooo.ooo.o.oo.oooo.o.o.oo.o..o..o..o.........o......o............................O......O.O...O.O.O..O.....O.O..O..O...O.O..O.O..O..O.O.O.O..O..O.O.O..O.O.O.O...O...O....O...O.O.......O.O......O...................................o....o.o..o.....o.o.o.o.o..o.o.o.ooo.oo.oo.ooooooooooooooo&#############               ###############               ###############               ###############               ###############               ###############               ",
"###############               ###############               ###############               ###############               ###############               ###############            #.$$$$$$$$$$$$$$$$$$$$$$$$$$$$2@********************2*****2*2*2*2*2**2**2**2*2**2*2*2*2*2*2*2*2*2*22*22*222*22*22222*22*2222*@5&$==&=&=&=&=&&=&&&&&=&&&&&&&&&&&&&&&&&&&%&%&&%&%&%&%&%&%%&%&%&%&%%&%%%%%%%%%%%%o%%%%%o%%o%o%%o%%o%%%o%oo%oo%o%oo%oooooooooooooo.oooooooo.ooooo.oo.o.oooo.o.o.o.o.o.o.o.o.o.o.o....o.o...o..............................O.............O.....O.......O....O....O...O..O.O....O..O..O......O........O...O....O...O.....O.O.O.....O..O...................................o....o....o..o.o.o..o..o.o.o.o.oo.o.o.oo.oo.oo.o.o.ooo.oooo%,#############               ###############               ###############               ###############               ###############               ###############               ",
"###############               ###############               ###############               ###############               ###############               ###############            q@$$$$$$$$$$$$$$$$$$$$$$$$$$$$$q***********************2***********2**2**2***2*2*2*2*2*2*2*2*2*2*22*2*22*2*22*22*2*222222*2222* 4====&=&&=&&=&&=&&&&&&&&&&&&&&%&&&&%&&%&&&&%&&%&&%&%&%&%%%%%%%%%&%%%%%%%%%%%%%%%%%%%%%%%%%o%%o%o%oo%o%oo%ooooo%oooooooooooooooooo.ooooooo.o.oo.o.oo.o.o.o.o.o.o.o.o..o.o..o..o.o.........o..................................O..O......O.O...O.O.....O....O....O........O...O..O..O.O.O...O.O.O....O...O....O...O...............................................o.o....o....o....o..o.o.o.o..o.o.o.o.ooo.oo.oo.ooooooooooooooooo&##############               ###############               ###############               ###############               ###############               ###############               ",
"###############               ###############               ###############               ###############               ###############               ###############             #%$$$$$$$$$$$$$$$$$$$$$$$$$$$$5 ************************2**2**2*2***2**2**2*2**2**2**2*2*2*2*2*2*22*22*2*22*22*222*2*2*22222*22*@0$==&&=&&=&&=&&&=&&=&&&&&&&&&&&&&&&&&&%&%&&%&&%&%&%&%&&%&%&%&%%%%%&%%%%%%%%%%%%%%o%%%%o%%%o%o%o%o%o%o%o%o%o%oooo%oooooooooooooooooo.ooooooooooo.o.oo.ooo.oo.o.o..o.o.o.o..o.....o..o.o....o.o...................................O.......O.....O.O..O.O....O.....O..O...O.....O.......O........O...O....O...O...O..O...O..O.................................o......o....o...o.o..o.o..o.o.o.o.oo.oo.o.oo.oo.ooo.o.ooooo.ooooo%O##############               ###############               ###############               ###############               ###############               ###############               ",
"###############               ###############               ###############               ###############               ###############               ###############             #1$$$$$$$$$$$$$$$$$$$$$$$$$$$$$q**********************************2*****2****2**2**2*2**2*2*2*2*2*2*2*222*22*22*22222*22*2*222*2*@*8$==&=&&&=&&=&&&&&&&&&&&&&&&&&&&&%&&&&&&%&%&%&%&%&%%%&%%&%%&%&%%%%%%%%%%%%%%%%%%%o%%%%o%%%%o%%o%o%oooo%oooo%oooo%ooooooooooooooooooo.oo.o.o.oooo.oo.o.o.o.o.o.o.o..o.o.o.o.o.o..o....o......o........................................................O....O.O...O..O...O.O...O.O.....O.O..O...O...O...................................................o....o..o...o.o..o..o.o.o..o.o.o.o.o.o.oo.oo.o.oo.oo.oooooo.oooooooo&@##############               ###############               ###############               ###############               ###############               ###############               ",
"###############               ###############               ###############               ###############               ###############               ###############              #%$$$$$$$$$$$$=$$$$$$$$$$$$$$$5 ******************************2******2***2*2**2*2*2**2*2**2*2*2*2*2*2*22*2*2*22*2**222*2222*22222*@2&$==&=&&=&&=&&=&&=&&&&&&&&&&&&&&&%&&%&&&&&&%&%&%&&&%&%%&%%%%%%&%%&%%%%%%%%%%%%%%%%o%%%o%o%%o%o%o%%o%oo%o%o%o%ooooooooooooooooooooooooooooooo.oo.oo.oooo.oo.oo.o.o.o..o..o.o..o...o...o..o....o..o.....................................O..O......O.....O.....O......O...........O.O................O..O..O.........................................o....o.......o....o.o.o..o.o.o.o.o.o.oo.oo.oo.ooo.ooooooooooooooooooo%O###############               ###############               ###############               ###############               ###############               ###############               ",
"###############               ###############               ###############               ###############               ###############               ###############              q@$$$$$$$$$$$$$$$$$$$$$$$$$$$$$q@**************************2*****2*****2*****2*****2***2*2*2*2*2*2*2*2*2*2*22**2222*2*22*2*22*22222* 5===&=&&=&&&=&&&&&&&&&&&&&&&&&&&&&&&%&%&%&&%&%&%%&%&%&%&%&%&%%%%%%%%%%%%%%%%%%%%%%%%o%%%o%%o%%o%o%o%o%ooooooo%oo%ooooooooooooooooooooooo.ooo.oo.oo.o.oo.o.o.o.o.o.o.o.o..o.o..o..o....o..o.......o..........................................O.....O...........O......O..O..........O..O..O...O..............................................o.o....o....o.o.o..o.o.o..o.o.o..o.o.o.ooo.oo.oo.oo.oooo.ooo.oo.oooooooooo&@###############               ###############               ###############               ###############               ###############               ###############               ",
"###############               ###############               ###############               ###############               ###############               ###############              q#%$$$$$$$$$$$$$$$$$$$$$$$$$$$$4 *** *******************************2******2****2*2**2**2***2***2*2*2*2*2*2*222*2**2*22*2222*222*2*22* 0====&&=&=&&=&&&=&&&&&&&&%&&&&&&%&&&&&&&%&&&%&%&%&%&%%&%%%%&%&%%&%%%%%%%%%%%%%o%%%%%o%%%o%%o%o%o%o%oo%o%o%oo%ooooooooooooooooooo.oo.oooo.ooooo.oo.o.oo.ooo.oo.o.o.o.o.o.o.o.o.o..o.o....o..o.o.....o..................................................O........O..........O.............................................................o......o...o.o...o..o..o.o.o.o.o.o.o.o.oo.o.o.oo.oo.oooo.oooooooooooooooooo%7################               ###############               ###############               ###############               ###############               ###############               ",
"###############               ###############               ###############               ###############               ###############               ###############               #q$$$$$$$$$$$$$$$$$$$$$$$$$$$$$q@**************************************2****2*****2**2**2*2*2*2***2*2*2*2*2**22*222*2*2*2*22*2*2222*2*@@8$==&&&&=&&&=&&&&&&&&&&&&&&&&&&&&%&%&%&&%&%&&%&%&%&%%&%&%%%%%%%%%%%%%%%%%%%%%%%o%%%%o%%o%%o%%o%%o%o%oo%o%oo%o%oooooooooooooooooooooooooo.ooooo.ooo.oo.o.o.o.o.o.o.o.o..o.o.o.o..o..o....o....o.o...o.............................................................................................................................o.o....o..o...o....o.o..o.o.o..o..o.o.oo.oo.o.ooo.o.oo.ooo.oooooo.oooooooooooooo&@q###############               ###############               ###############               ###############               ###############               ###############               ",
"               ###############               ###############               ###############               ###############               ###############               ############### #o$$$$$$$$$$$$$$$$$$$$$$$$$$$$8q**** *** ************************************2*2*****2**2***2**2*2**2*2*2*22**2*22*22*222*2*222*2*2222*@*7$=&=&&=&=&&&&&=&&&&&&&&&&&&&&&&&&&&&&%&&%&%&%&%&%&%%%&%&%&%&%%&%%%%%%%%%%%%%%%%%%%o%%%o%%o%%o%o%o%o%ooo%oooo%o%oooooooooooooooooo.ooooo.o.ooo.oo.oo.ooo.ooo.o.o.o.o.o..o..o.o..o..o.o...o.....o....o.o.o..................................................................................................................o.o......o..o...o..o.o.o..o.o.o.o.o.o.o.o.o.oo.ooo.o.ooo.ooo.ooo.oooooooooooooooooo%7##               ###############               ###############               ###############               ###############               ###############               ###############",
"               ###############               ###############               ###############               ###############               ###############               ############### q@$$$$$$$$$$$$$$$$$$$$$$$$$$$$$* ***** ***********************************2******2*2******2**2*2**2**2**2**2*2*2**22*2*2*222*2*2222*2222*@2%$=&=&&&&=&&&&&&&&&&&&&&&&&%&&&%&%&&&&%&%&%&%&%&%&%&%%%%%%%%%%%%%%%%%%%%%%%%%o%%%%%o%%o%o%o%o%%o%o%o%oo%o%oooooooooooooooooooooooooooooooo.ooo.oo.oo.oo.o.oo.o.o.o.o.o.o.o.o.o.o..o..o...o.....o........o..o.......................................................................................................o..o......o..o......o..o..o..o.o.o.o..o.o.o.oo.oo.o.o.o.ooo.oooo.ooooooo.oooooooooooooooo&###               ###############               ###############               ###############               ###############               ###############               ###############",
"               ###############               ###############               ###############               ###############               ###############               ###############  #o$$$$$$$$$$$$$$$$$$$$$$$$$$$$$q@* ******** **************************2**************2*2**2**2**2**2**2**2*2*2*22**2*22*2*2*22*2*22*2*2*2* 5%$=&&=&&&=&&&=&&&&&&&%&&&&&&&&&&&%&%&&&&%&%&%&%&%%&%&%&%&%&%&%%%%%%%%%%%%%%%%o%%%%o%%%%o%o%o%o%o%o%o%ooo%o%oo%o%oooooooooooooooooo.oooooooooo.ooo.o.oo.oo.ooo.o.o.o.o.o.o..o.o.o.o..o.o..o.o....o..o...o....o..o.............................................................................................o.o..o...o..o...o..o.o.o..o..o..o.o.o..o.o.o.oo.o.o.oo.oooooo.oooo.ooooooooooooooooooooooooo%7###               ###############               ###############               ###############               ###############               ###############               ###############",
"               ###############               ###############               ###############               ###############               ###############               ###############  q $$$$$$$$$$$$$$$$$$$$$$$$$$$$$0q*** ** ****** ********************************2***************2**2**2*2*2**2*2**22*2**22*2*2*2*2*22*222*22* 5&$=&=&&&&=&&&&&&&&&&&&&&&&%&&%&&&&&%&%&%&%&%&%&%%&%%%%%%%%%%&%%%%%%%%%%%%%%%%%%%%%o%%%%%o%o%%o%o%oo%o%ooo%ooooooooooooooooooooooooo.ooo.ooooo.oooo.oo.oo.o.oo.o.o.o.o..o.o..o..o.o...o..o..o.o.....o...o.......o...................................................................................o..o.o.........o.....o....o..o..o.o.o.o.o..o.o.o.o.o.o.ooo.oo.oo..o.ooo.oooooo.oo.ooooooooooooooooo%&####               ###############               ###############               ###############               ###############               ###############               ###############",
"               ###############               ###############               ###############               ###############               ###############               ###############   #.$$$$$$=$$$$$=$$$$$$$$$$$$$$$$ @****** ** ******* ************************2******2****2**2*2**2**2**2****2*2**2**2*22**2*22*22*22*2*2*22*2** 5&$=&&=&&&&&=&&&&&&&&&&&&&&&&&&%&%&&&&&%&%&%&%&&%&%&%&%&%&%%%%%%%%%%%%%%%%%%%o%%%%%o%o%%o%%o%o%o%%o%oo%oo%o%oo%o%ooooooooooooooooooooooooo.ooo.o.oo.oo.o.oo.oo.oo.o.o.o.o.o.o.o.o.oo.o..o.o....o.o.....o..o.o...o.o.o..o..o...............................................................o...o.o........o..o..o...o.o...o.o..o..o.o.o.o.o.o.o.o.o.oo.ooo.o.oo.oo.ooooo.ooo.ooooooooooooooooooooooooo%8####               ###############               ###############               ###############               ###############               ###############               ###############",
"               ###############               ###############               ###############               ###############               ###############               ###############   qq$$$$$$$$$$$$$$$$$$$$$$$$$$$$$&q@* ******** ** *************************************2***********2****2*2****2*2*2**2*2*2*2*22*2*2*22*22*2222** 4&==&=&&=&&&&&&&&&&&&&&&&&&%&&&&&%&%&&%&%&%&%%&%%&%%%%%%%&%&%%%%%%%%%%%%%%%%%o%%%%%%%o%%o%o%o%o%oo%o%o%ooo%ooooo%ooooooooooooooooo.ooo.ooooooooo.oo.ooo.oo.oo.oo.oo.o.o.o.o..o.o..o.o...o.o.o....o.o........o.............o.o..o............................................o...o..o.o....o.....o.o..o.....o...o..o.o.o.o.o.o.o.o..o..o.o.o.o.oo.o.oo.oo.oo.oo.oo.ooooooooo.ooooooooooooooooooo%o%%&#####               ###############               ###############               ###############               ###############               ###############               ###############",
"               ###############               ###############               ###############               ###############               ###############               ###############    #7$$$$$$$$$$$$$$$$$$$$$$$$$$$$$5 *** * ** ********* *** ********************************2****2****2*2**2*2*2**2**2*2**2*2*2**2*22*2*2*2*2*2*22** 4====&&&&&&=&&&&&&&&&&&&&&&%&&%&&&&%&&&%&%&%&%&%%&%&%&%%%%%&%%%%%%%%%%%%%%%%%%o%%o%%%o%%o%%o%o%%o%ooo%o%oo%o%ooo%ooooooooooooooooooooooo.oo.ooo.oooo.oo.oo.oo.oo.oo.o.o.o.o.o..o..o.o.o..o.o.o.o....o.o.o....o..o.o.o.o.........o.o.o.o.o..o..o...o..........o...o..o.o.o...o.........o.....o....o...o.o..o.o..o...o..o..o.o.o..o.oo.o.o.o.oo.oooo.o.oo.oo.ooooooo.oo.oooooooooooooooooooooooooo%8#####               ###############               ###############               ###############               ###############               ###############               ###############",
"               ###############               ###############               ###############               ###############               ###############               ###############    qq$$$$$$$$$$$$$$$$$$$$$$$$$$$$$$q@****** *** ** ***** ************************************2****2**********2**2**2**2*2*2**2*2*2**2*22*2*2*22*22**@ 4===&=&&&&&&&&&&&&&&&&&&&&&&&%&%&&%&%&&%&%&%&%&%%&%%&%&%%%%&%%%%%%%%%%%%%%%%%%%%%o%%o%%o%o%o%o%o%o%ooo%ooooo%ooo%oooooooooooooooooooooooooooooo.o.oo.oo.oo.o.oo.oo.o.o.o.o.oo.o.o.o.o.o..o..o..o.o.....o.o...o........o..o.o..................o...o.o.o.o....o..............o.o..o....o.o...o....o...o.o...o.o.o.o.o.o..o..o.o.o.o.oo.ooo.oo.o.oo.oo.ooooo.oo.ooooooooooooooooooooooooo%o%oo%%&######               ###############               ###############               ###############               ###############               ###############               ###############",
"               ###############               ###############               ###############               ###############               ###############               ###############     #7$$$$$$$$$$$$$$$$$$$$$$$$$$$$$0q@* * *** ******* ***** *** *************************************2**2*2*2****2**2*2**2**2*2*2*2*2*2**22*2*2*2*2222@ 6===&&=&&&&&&&&&&&&&&&&&&%&&&&%&&%&&%&%&%&%&&%&%&%%%%&%&%%%%%%%%%%%%%%%%%o%%%%%%%%%o%%o%%o%o%o%o%o%oo%o%o%oo%ooo%ooooooooooooooooooooooooo.oooooooo.oo.o.ooo.o.o.ooo.oo.o..o.o.o.o..o.o.o.o.o.o.o.o.o.....o...o.o.o..o....o..o..o..o..o.o.o...o..........o....o.o..o..o.o....o...o.o.....o..o.o..o.o...o.o..o.o.o..o.o.oo.o.o.o.o.oo.o.oo.o.o.oo.ooooo.ooooooooooooooooooooooooooooooooo%oo&9######               ###############               ###############               ###############               ###############               ###############               ###############",
"               ###############               ###############               ###############               ###############               ###############               ###############     q#$$$$$$$$$$$$$$$$$$$$$$$$$$$$$$* @**** *** * ***** *********** ******************************************2****2***2**2*2**2*2*2*2*22**2*2*2*2*2*2*2@ 6===&&=&&&&&&&&&&%&&&&&&&&%&&&&&%&&%&%&%&%&%%%%&%&%%%%%&%&%%%%%%%%%%%%%%%%o%%%o%%%%o%%o%%o%%o%o%o%oo%oooo%ooooooo%ooooooooooooooo.oo.oooooo.oo.oooo.ooo.o.ooooo.o.oo.o.oo.o.o.o.o.o.o.o..o.o..o.o..o.o.o..o.......o..o....o........o..........o..o..o....o.........o...o.....o....o.o.o..o..o.o.o.o.o.o.o.o..o.oo.o.o.o.oo.ooo.o.oo.oo.oooooo.oo.o.oooooooo.ooooooooooooooooooo%o%oo%oo%%%#######               ###############               ###############               ###############               ###############               ###############               ###############",
"               ###############               ###############               ###############               ###############               ###############               ###############      #6$$$$$$$$$$$$$$$$$$$$$$$$$$$$$$#@*@@**** **** * **** ** *** ******************************2***********2****2****2**2***2*2**2*2*2**22*2*2*2*2*222*2*@ 4&==&&&=&&&&&&&&&&&&&&&&&&%&%&&&%&&&%&%&%&&%&%&%%&%&%%%%%&%%%%%%%%%%%%%%%%o%%%%o%%o%%o%o%o%o%o%%o%oo%o%oo%o%o%ooooooooooooooooooooooo.oooooooo.oooo.ooooo.o.o.oo.o.ooo.o.o.o.o.o.o..o.o.o.o.o.o.o.o.o.o.o.o.o.o..o..o.o..o.o.o.o....o.o.o.o..o..o..o.o...o.o.o.o...o..o.o.o..o.o..o..o.o.o.o..o..o.o..o.o.o.o..o.o.o.o.oo.o.oooo.oo.ooo.o.oooooooooooo.oooooooooooooooooooo%ooooo%oo%o&4#######               ###############               ###############               ###############               ###############               ###############               ###############",
"               ###############               ###############               ###############               ###############               ###############               ###############       #=$$$$$$$$$$$=$$$$$$$$$$$$$$$$$4q@*@* **** * **** ******* **** *** ***************************2***2*****2****2******2*2***2****2*2***2*2*2*2*2**22222*@ 5&$=&&&&&&&&&&&&&&&&%&&&&&&%&%&&%&&%&%&%&%&%%&%%%%&%&%%%%&%%%%%%%%%%%%%%%%%%%%%%%%o%%%o%%%o%o%o%o%o%oo%oooooo%oo%ooooooooooooooooooooooooooooo.oooo.o.oo.ooo.oooo.o.ooo.o.o.o.o.oo.o.o..o..o.o.o.o..o..o.o.o.o..o...o.o..o..o..o.o.....o....o...o...o.....o..o.o..o..o..o.o..o.o.o.o..o.o.o.o.o.o.oo.o.o.o.oo.oo.ooo.o.oo.o.o.oo.oo.ooooo.oooooo.oooooooooooooooooooooooooo%o%oo%oo%.########               ###############               ###############               ###############               ###############               ###############               ###############",
"               ###############               ###############               ###############               ###############               ###############               ###############       #2$$$$$$$$$$$$$$$$$$$$$$$$$$$$$$  @@@** *@***** ** ** * ******** ****** ***********************************2**2**2*2*****2**2*2*2**22*2*2*2*2*22*2***22** 5%$=&&&&&&&&&&&&&&&&&&&%&&&&%&&%&%&%&%&%&%&%&%&%%%%&%&%%%%%%%%%%%%%%%%%%%%o%%%%%%%o%%o%o%%%o%o%o%o%oo%o%o%oo%oooo%ooooooooooooooooooo.oo.oooooo.oooo.ooo.oo.o.o.oo.o.oooo.oo.o.o.o.o.o.oo.o..o..o.o.o.o.o.o.o.o.o.o..o..o..o.o..o.o.o..o.o..o..o.o..o.o..o.o..o..o.o.o..o.o.o..o.o.o..o..o.o.o.o..o.o.o.oo.o.oo.o.ooo.oo.ooo.ooooooo.oooooo.ooooooooooooooooooooooooo%o%oooo%oo%%&@########               ###############               ###############               ###############               ###############               ###############               ###############",
"               ###############               ###############               ###############               ###############               ###############               ###############        #o$$$$$$$$$$$$$$$$$$$$$$$$$$$$$&#@*@@@*@*@*@* ***** **** ** ****** ****** **************************2***************2*2**2**2***2***2*2*2*2*2**22*22*2*2** 27$=&&&&&&&&&&&&&&&%&&&%&&&&%&&&%&%&%&%&%&%&%&%&%%%%%&%&%%%%%%%%%%%%%%%%%%o%%o%%%%o%%o%o%o%%o%o%o%oo%ooo%oo%oo%ooooooooooooooooooooooooooooooooooooo.ooo.ooo.oo.oo.o.o.oo.oo.o.o.oo.o..o.o.o.o.o.o..o..o..o..o.o.o..o.o.o..o.o.o.o.o.o..o.o.o.o.o.o.o.o..o.o.o.o..o.o.o.o..o.o..o.o.o.o.o.o.o.oo.oo.oo.oooo.oo.oo.oo.ooo.ooo.o.ooooooooooooooooooooooooooooooo%o%ooooo%o%oo%o%&7#########               ###############               ###############               ###############               ###############               ###############               ###############",
"               ###############               ###############               ###############               ###############               ###############               ###############        qq$$$$$$$$$$$$$$$$$$$$$$$$$$$$$$5q@**@* * *@**@** **** ** ***** ***** ********************************************2*******2**2*2**2*2****2**2*2*2*2*2*22*2** 28$=&&&&&&&&&&&&&&&&&&&&%&&&&%&&&&%&%&%&%&%%&%%&%&%%%%%&%%%%%%%%%%%%%%%%%%%%%%o%%%o%%%o%o%o%o%o%o%oo%oo%ooo%ooo%o%ooooooooooooooooooooooo.oooo.ooooo.ooo.oo.ooo.ooo.oo.oo.ooo.oo.o.oo.o.o.o.o.o.o.o.o.o.o.o.o..o.o.o..o.o..o..o..o.o.o.o.o.o..o.o.o.o.o..o.o.o.o.o.o..o.o.o.oo.o.o.o.o.o.o.oo.oo.oo.oo.o.o.oo.oo.ooo.oooooooooo.oooo.oooooooooooooooooooooooooo%o%o%oooo%oo%&##########               ###############               ###############               ###############               ###############               ###############               ###############",
"###############               ###############               ###############               ###############               ###############               ###############               ##########8$$$$$$$$$$$$$$$$$$$$$$$$$$$$$$# @@ **@*@* **@*** ******* * *** ****** *** ********************************2*2*****2**2*******2****2*2**2*2*2*2*2*2*2*2*2*2*@*8==&&&&&&&&&&&&&&&%&&&%&%&&%&%&%&&%&%&%&%%&%%%%&%&%%%%&%%%%%%%%%%%%%%%%o%%%%%o%%o%o%%o%%o%o%o%o%o%o%oo%ooo%ooooo%oooooooooooooooooooooooo.ooooooooooooooo.o.oo.oo.oo.oo.o.oo.ooo.oo.oo.oo.o.o.o.o.o.o.o.o.o.o.o.o.o.o.o.o.o.o.o..o..o..o.o.o..o.o.o.o.o..o.o..o.o.o.o.o.o..o.oo.oo.oo.oo.oo.oo.oo.o.oooo.ooo.oooooo.oo.ooooooo.oooooooooooooooooooooo%o%oo%oooo%oo%o%o%%&9#         ###############               ###############               ###############               ###############               ###############               ###############               ",
"###############               ###############               ###############               ###############               ###############               ###############               ###########$$$$$$$$$$$$$$$$$$$$$$$$$$$$$$8#@@** * *@* * * **@* * * **** *** ** ******** ** ***********************2*****************2*2***2*2**2*2*2**2**2*2*2*2*2*2*2**@@0===&&&&&&&&&&&&&&%&&&&%&&&%&&%&%&%&%&%&%&%&%%%%&%&%%%&%%%%%%%%%%%%%%%%o%%%%%%%%%o%%o%o%%o%o%o%o%oo%o%o%oo%o%oo%oo%oooooooooooooooooooooooooo.oooo.oo.ooooooo.oo.oo.oo.oo.o.o.o.oo.o.o.o.o.o.o.o.o.o.o.o.o.o.o.o.o.o.o.o.o..o.o.o.o.o.o..o.o..o.o.o.o.o.o.oo.o.o.o.o.o.ooo.o.oo.oo.oo.oo.oo.oo.ooo.o.ooo.ooo.o.ooooooooo.oooooooooooooooooooooooo%ooooo%oo%o%oo%o%o%o%%#q         ###############               ###############               ###############               ###############               ###############               ###############               ",
"###############               ###############               ###############               ###############               ###############               ###############               ###########4$$$$$$$$$$$$$$$$$$$$$$$$$$$$$$5q@ *@*@* **@*@*@*@**@**** ***** ***** ** ********* *****************************2**2**2******2****2*****2*2**2**2**2*2*2*2*2*2*@ 6&==&&&&&&&&&&&&&&&&%&&%&&%&&%&%&%&%&%&%&%&%&%%%%%&%%%%&%%%%%%%%%%%%%%%%%%%o%%%%%o%%%o%%o%%o%o%o%ooooo%oooooooo%ooo%ooooooooooooooooooooo.oooo.ooooooo.oo.ooooo.oo.oo.oooo.ooo.oooo.ooooo.oo.o.o.o.o.o.o.o.o.o.o.o.o.o.o.o.o.o.o.o.o.oo.o.oo.o.o.o.o.o.o.o.oo.oo.oo.o.o.oo.o.oo.oo.o.oo.oo.oo.oooooo.ooooooooooo.oooooooooooooooooooooooooo%oo%oo%o%oo%oo%oo%oo%o%%&4#          ###############               ###############               ###############               ###############               ###############               ###############               ",
"###############               ###############               ###############               ###############               ###############               ###############               ############=$$$$$$$$$$$$=$$$$$$$$$$$$$$$$$  @ * * * * * * * *@*@*@*** * *** * ****** *** ****** *************************************2****2****2*2****2*2**2*2*2*2*2*2*2*2*@ 5%$=&&&&&&&&&&&&%&&&&&%&&&%&&%&%&%&%&%&%%&%%&%&%%%%&%%%%%%%%%%%%%%%%%%%o%%%%%o%%o%o%%o%%o%o%o%o%o%o%o%o%o%o%ooo%ooooooooooooooooooooooooooooooooooooooooooo.ooooo.oo.o.oo.o.o.o.oo.o.o.oo.oooooo.oo.oo.o.o.o.o.o.o.o.o.oo.o.o.o.o.o.o.o.o.o.o.o.o.o.oo.o.o.o.oo.oo.ooo.oo.oo.oo.ooo.oo.oo.oooo.o.ooooo.oooo.oooooooooooooooooooooooooooooo%ooo%oooo%oo%o%o%%o%o%%.#           ###############               ###############               ###############               ###############               ###############               ###############               ",
"###############               ###############               ###############               ###############               ###############               ###############               ############@$$$$$$$$$$$$$$$$$$$$$$$$$$$$$$$# @@* *@* **@** *@* *@*@*@**** ***** * **** **** ****** *******************************2****2****2*2***2*2***2*2**2**2**2*2*2*2*2** *8==&&&&&&&&&&&&&%&&&&%&&%&&%&%&%&%&%&%%&%%%%&%&%%%%%&%%%%%%%%%%%%%%%%%%%o%%%%%%%o%%o%o%%o%o%%o%o%oo%ooo%oo%ooo%oo%oooooooooooooooooooooooooo.oo.ooo.oo.ooo.oooooooo.ooooo.oo.o.oo.oo.oo.o.o.oo.oo.oooo.oo.oo.oo.oo.o.oo.oo.oo.o.o.oo.o.oo.oo.oooo.oooo.ooo.oo.oo.o.oo.oo.o.oo.ooo.oooooo.oooooooooooooooooooooooooooooooooooooooo%oo%oooo%oo%o%oo%oo%o%o%o%o%&*q           ###############               ###############               ###############               ###############               ###############               ###############               ",
"###############               ###############               ###############               ###############               ###############               ###############               #############o$$$$$=$$$$$$$$$$$$$$$$$$$$$$$$0q@* * * * * * ** ** * *@*@*@** ** ***** ***** *********** ************************************2*****2****2*2***2**2*2*2*2**2*2*2*2**@@0===&&&&&&&&&&&&&%&&%&&&%&&&%&%&%&%&%&%&%&%%%%&%&%%%%%%%%%%%%%%%%%%%%%%%%%%%o%%%o%%%o%o%%o%o%o%o%oo%oo%oo%o%oooo%oo%oooooooooooooooooooooooooooooooooooooo.oo.o.ooo.o.ooo.oooo.oo.oo.oo.o.o.oo.oo.o.oo.oo.oo.oo.oooo.oo.oo.oooooo.oooo.oo.oo.o.o.o.oo.o.oo.oo.ooo.oo.oooo.ooo.oooo.o.ooo.oooooo.ooo.oooooooooooooooooooooooooooo%ooo%o%o%oo%oo%o%o%o%o%o%%%7#            ###############               ###############               ###############               ###############               ###############               ###############               ",
"###############               ###############               ###############               ###############               ###############               ###############               ##############$$$$$$$$$$$$$$$$$$$$$$$$$$$$$$$2q@@* * *@* * * * **@* * *@*@*** ** ***** ***** ** ** ****** *****************************************2*****2*2**2***2**2*2**2*2*2*2**@q4%$=&&&&&&&&&&&&&%&&%&&%&%&%&%&%&%&%&%%&%&%&%%%%&%&%%%%%%%%%%%%%%%%%%o%%o%%%o%%o%o%%%o%o%%o%o%o%o%o%oo%ooo%o%ooo%oooooooooooooooooooooooooooooooooooooooooooooooooooo.ooo.o.oo.oo.o.oooo.oo.o.o.oo.oo.oo.oo.oo.o.oo.oo.oo.o..o.o.o.oo.oo.oo.ooo.o.oo.o.oo.oo.o.oo.oo.oooo.ooo.ooooooooooo.ooooooooooooooooooooooooooooo%oo%o%oo%o%ooooo%oo%o%o%o%o%o%%o%%#q            ###############               ###############               ###############               ###############               ###############               ###############               ",
"###############               ###############               ###############               ###############               ###############               ###############               ##############4$$$$$$$$$$$$$$$$$$$$$$$$$$$$$$$q @ @* * * *@* *@* * *** * *@@**@*** * *** * ** ************** ********************************2**2******2****2***2**2*2**2*2**2*2*2*2*@ 28==&&&&&&&&%&&&&&&%&&%&&&%&%&%&%&%&%&%%%%%%&%%%%%%&%%%%%%%%%%%%%%%%%%%%%%%%%%%%o%o%%o%o%o%%o%o%oo%oo%o%oooo%ooooo%o%ooooooooooooooooooooooo.ooo.oo.ooo.oooooo.oo.ooo.ooooooo.oooo.o.oo.oo.oooo.oo.oo.oo.oo.oo.o.oo.oo.o.oo.oooo.o.o.oo.oo.o.ooo.oooo.oo.oooooooooooo.ooooooooooooooooooooooooooooooooooooooooooooo%ooo%ooo%oooo%o%o%oo%o%o%%o%o%%o%%&4#             ###############               ###############               ###############               ###############               ###############               ###############               ",
"###############               ###############               ###############               ###############               ###############               ###############               ###############%$$$$$$$$$$$$$$$$$$$$$$$$$$$$$$&# @@ * * * * * * * * * *** * *@*@*@****@******** ** * ** ******* ***********************************2**2***2***2**2****2**2*2**2*2*2*2*2* @0==&&&&&&&&&%&&&&&&&&%&&%&%&%&%&%&%&%&%&%%&%&%%&%%%%%%%%%%%%%%%%%%%%%o%%%%%o%%%%o%%o%%o%o%%o%%%o%oo%oo%o%o%o%oooooo%ooooooooooooooooooooooooooooooooooo.oooooooooooo.oo.oooo.ooooo.ooo.oo.o.oo.oo.o.oo.oo.oo.o.oo.oooo.oo.o.oo.ooo.oo.oooo.ooo.o.oooooo.o.o.oo.ooooooo.ooo.oo.oo.ooooooooooooooooooooooooooo%oo%ooo%oo%oo%o%oo%oo%o%%o%o%o%o%o%%%&O#              ###############               ###############               ###############               ###############               ###############               ###############               ",
"###############               ###############               ###############               ###############               ###############               ###############               ###############q$$$$$$$$$$$$$$$$$$$$$$$$$$$$$$$4q@@* * * * @* * ** *@* * **** * *@*@@*@*@*@** ** **** ***** ****** *****************************************2*****2*2**2**2**2**2**2*2**2*@ 4%$=&&&&&&&&%&%&%&%&&%&&&%&%&%&%&%%&%%&%%%%&%%%&%%&%%%%%%%%%%%%%%%%%%%%o%%%%o%%%o%%o%%%o%o%oo%o%%o%o%oooooo%o%o%ooo%oo%ooooooooooooooooooooooooooooooooo.ooooo.ooooooooo.ooooo.ooo.oooooooooo.oooo.oo.oo.oooo.oo.o.oo.oooo.ooo.oo.oooo.ooo.ooooo.oo.ooooooooooooo.ooooooooooooooooooooooooooooooooooooo%ooo%oooo%oooo%oo%oo%oo%%o%o%o%o%o%%%%o%&#q              ###############               ###############               ###############               ###############               ###############               ###############               ",
"###############               ###############               ###############               ###############               ###############               ###############               ################0$$$$$$$$$$$=$$$$$$$$$$$$$$$$$$$@q@ @@@@* * *@* * * * * * @ **@* * **@*@*@*@****** **** * *** ****** ************************************2*****2*****2**2**2*2*2*2*2**2*2***@ *0===&&&&&&&&&&&&&%&&%&&%&%&%&%&%&%&%&%&%%%&%%%%%%%%%%%%%%%%%%%%%%%o%%%%%%%%o%%%o%%o%o%%o%%o%oo%o%o%o%o%ooo%oo%oooo%ooo%oooooooooooooooooooooooooooooooo.oooooooo.ooooooo.oooooooo.o.o.o.oooo.oooooooooo.oooo.ooooooo.oooo.oooooo.oooo.oooo.ooooooooooooo.oo.oooooooooooooooooooooooooooooooooooooooooo%ooo%o%oo%o%oo%o%o%%%o%o%o%%o%%%o%o%%&4#               ###############               ###############               ###############               ###############               ###############               ###############               ",
"###############               ###############               ###############               ###############               ###############               ###############               ###############q#&$$$$$$$$$$$$$$$$$$$$$$$$$$$$$$$# @* *  * *@ * * *@* ** *** * **@** *@*@*@*@*@*@**** *********** ****** *****************************2******2*****2*****2****2****2*2*2**222**@ 5o==&&&&&&&&%&%&&&%&%&&%&%&%&%&%&%%&%%&%%%&%&%&%&%%%%%%%%%%%%%%%%%%%%o%%%%%o%%o%o%%o%o%o%o%%o%o%o%o%oo%oo%oo%o%ooo%oooo%oooooooooooooooooooooooooooooooooooo.oooo.ooooooooo.ooooooooooo.oooo.oo.o.o.oooo.ooooo.o.oooo.oooooo.ooo.ooooooooooooooo.oo.oooooooooooooooooooooooooooooooooooooooooo%o%o%oo%o%ooo%oo%oo%oo%o%oo%o%o%%o%o%o%%%%&.##               ###############               ###############               ###############               ###############               ###############               ###############               ",
"###############               ###############               ###############               ###############               ###############               ###############               ############### q@$$$$$$$$$$$$$$$$$$$$$$$$$$$$$$$8# @ * * @ * * * * * * * * * * * * *@* *@*@@@*@*@***** * ** ** ***** **** *************************************2****2*2***2****2*2***2*2*2**2*2** *0===&&%&&&&&&%&&&&%&%&%&%&%&%&%&%%&%%&%%%%%%%%%%%%%%%%%%%%%%%%%%%%%%%%%%%%%%%%%o%%%o%o%o%o%o%o%oo%o%o%oo%oo%o%ooo%oooo%oooooooooooooooooooooooooooooooooooooooooo.ooo.ooooooooooooooooooooooooooooo.oooo.ooooooo.oooo.oooooooooooo.oooo.oo.oooooooooooooooooooooooooooooooooooooooooo%oo%oooooooo%ooo%o%oo%o%o%%%o%o%%o%%o%o%%%%%%o%%&q##               ###############               ###############               ###############               ###############               ###############               ###############               ",
"###############               ###############               ###############               ###############               ###############               ###############               ###############  #8$$$$$$$$$$$$$$$$$$$$$$$$$$$$$$$5q@* @ * * @ * * * * * * *@* *@* ** ** *@*@*@* ** * ***** ******* ********** ***********************************2******2***2*2***2*2***2**2*2**2**@ 57==&&&&&%&&&%&%&&&&&%&%&%&%&%&%&%&%&%&%&%&%%&%&%%%%%%%%%%%%%%%%%o%%o%%o%%%o%%%o%%o%%%o%o%o%o%%o%o%oo%oo%oooo%oo%o%ooo%o%oo%ooooooooooooooooooooooooooooooooooooooooooooo.oo.ooo.oooo.oooooooooooooooooooooooooooooooo.oooooo.oooo.ooooooooooooooooooooooooooooooooooooooooooooo%ooo%ooo%o%o%o%oo%oo%oo%o%o%oo%o%o%o%%o%%%o%o%o%%%&9###               ###############               ###############               ###############               ###############               ###############               ###############               ",
"###############               ###############               ###############               ###############               ###############               ###############               ###############  q#=$$$$$$$$$$$$$$$$$$$$$$$$$$$$$$$q @@@@ * * * @@@ * * * * * * * * *@* ** *@* **@@*** * **** * ** ** ** ** **** ******************************************2****2*****2*2**2**2*2*2**** @0&==&&&&%&&&&&%&%&%&%&%&%&%&%%&%%%%%%%%%&%%%%%%%%%%%%%%%%%%%%%%%%%%%%%o%%%o%%%o%%o%%o%%o%o%o%o%o%o%o%oo%o%o%oooo%oooooo%ooo%oooooooooooooooooooooooooooooooooooooooooooooooooooo.oooo.oo.oo.oooo.oooo.oo.ooooo.oooooo.ooooooooooooooooooooooooooooooooooooooooooooooooooo%ooooo%oo%o%oooo%oo%oo%oo%%o%o%o%%o%o%%o%o%%o%%%%%%%%%o####               ###############               ###############               ###############               ###############               ###############               ###############               ",
"               ###############               ###############               ###############               ###############               ###############               ###############               ####1$$$$$$$$$$$$$$$$$$$$$$$$$$$$$$$=# @ *@ * @ * * * * * * * * * ** * *@* * * ** ** * ***@*@@*** ******************* *******************************2***2*****2****2*2****2**2**2**2*2*2*@q57==&&&&&%&%&&&&&&&%&%&%&%&&%&%&%&%&%&%%%&%%&%&%%%%%%%%%%%%%%%%%%%%%%%%%%%o%%%%%o%%o%o%%o%o%o%o%o%oo%o%ooo%o%oo%o%o%ooo%ooooo%oooooooooooooooooooooooooooooooooooooooooooooooooooooooooooooooooo.oooooooooooooooooooooooooooooooooooooooooooooooooooooooooooooooooooo%ooo%o%ooo%oooo%o%oo%oo%o%%o%o%o%o%o%o%%o%%%o%%%o%%%%%%=1q   ###############               ###############               ###############               ###############               ###############               ###############               ###############",
"               ###############               ###############               ###############               ###############               ###############               ###############               #####7$$$$$$$$$$$$$$$$$$$$$$$$$$$$$$$0# @  @ * * @ * @@@@@@* * *@* @* * * **@*@* *@ *** * *@**@*@** * * ** ** ** ****** ******************************************2****2*2***2**2**2*2***2*** @4%==&&&&&&%&%&%&&%&%&%&%&%&%&%&%%%%&%&%%&%%%%%%%%%%%%%%%%%%%%%%%%%o%%%%%%o%o%%%o%%%o%o%%o%o%o%o%%ooo%o%ooo%ooo%oo%oooo%o%ooo%ooooooooooooooooooooooooooooooooooooooooooooooooooooooooooooooooooooooooooooooooooooooooooooooooooooooooooooooooooooooooooooo%oo%o%oooo%ooo%o%oo%o%ooo%o%o%%o%o%o%o%o%%o%%%o%%%o%%%o%%%o%%%&8#    ###############               ###############               ###############               ###############               ###############               ###############               ###############",
"               ###############               ###############               ###############               ###############               ###############               ###############               ######$$$$$$$$$$$$=$$$$$$$$$$$$$$$$$$$5q @ * @ * @@@ * * *  * * @ * * * * * * * * ** * *@*** *@*@*@***** ***** ***** ***** *@*******************************2***2****2*****2**2***2***2*2*2*2**@ *0&==&&&&%&&&&%&&%&%&%&%&%&%&%&%&%%%%%%%&%%&%&%%%%%%%%%%%%%%o%%%%%%o%%%%%%%o%%o%o%%%o%o%%o%%o%o%%%o%o%o%oo%oo%ooo%o%oooo%ooo%o%oo%ooooooooooooooooooooooooooooooooooooooooooooooooooooooooooooooooooooooooooooooooooooooooooooooooooooooooooooooooooo%ooo%ooooo%o%oo%oo%oo%ooo%o%oo%o%o%o%o%o%o%%o%o%o%%o%%o%%%%%%%%%%%#q    ###############               ###############               ###############               ###############               ###############               ###############               ###############",
"               ###############               ###############               ###############               ###############               ###############               ###############               ######1$$$$$$$$$$$$$$$$$$$$$$$$$$$$$$$$*q @ @@ @ * * @ @ * * @@* * * * * * * * *** ** ** * **@* *@*@*@**** *@***@* ****@****** *****************************************2****2**2**2*2***2*2*2*2**@q28==&&&&%&%&&%&%&%&%&%&%&%&%&%%&%&%&%%%&%%%%%%%%%%%%%%%%%%%%%%%%%%%%%%%%%%%%%%o%o%%%o%%o%o%o%o%o%o%oo%o%o%oo%oo%oo%o%oo%ooooo%oo%oo%oooooooooooooooooooooooooooooooooooooooooooooooooooooooooooooooooooooooooooooooooooooooooooooooooooooooo%oo%oooo%ooo%o%oooo%oo%oo%o%o%o%o%%%o%o%o%o%%%o%o%%%%%%%o%%%%%%%o%%%%%&2#     ###############               ###############               ###############               ###############               ###############               ###############               ###############",
"               ###############               ###############               ###############               ###############               ###############               ###############               #######8$$$$$$$$$$$$$$$$$$$$$$$$$$$$$$$$qq @ @ @@ @ @ * * @ * @ * * * @* *@* *@* * * ** *@* * **@*@*@*@*@@***@*@***** **@**@*****@*@*********************************2*****2*****2****2*2****2**2*2**@q57==&&&&&%&&&&&%&%&%&%&%&%%&%&%%%%&%%%&%%&%&%%%%%%%%%%%%%%%%%%%%%o%%o%%%%%%%%%o%o%%o%o%%%o%o%o%o%%o%o%oo%o%oo%o%ooo%oo%o%ooooo%ooooo%oo%oooooooooooooooooooooooooooooooooooooooooooooooooooooooooooooooooooooooooooooooooooooooooooo%oo%oo%oooo%ooo%o%ooo%o%oo%oo%oo%o%o%o%oo%o%o%o%o%o%%%%o%o%o%%%%%%%o%%%%%%=9#      ###############               ###############               ###############               ###############               ###############               ###############               ###############",
"               ###############               ###############               ###############               ###############               ###############               ###############               ########=$$$$$$$$$$$$$$$$$$$$$$$$$$$$$$$$#  @ *  * * * @ * * * * * @* * * * * * * *@* *@* *@*@* * * *@*@**@@@*@*@*@**** **** *******@*****************************2******2****2****2*****2*2**2**2***2**  4o==&&&&%&%&&%&%&%&%&%&%&%%&%&%%&%%%&%%%%%&%%%%%%%%%%%%%%%%%%%%%%%%o%%o%%o%%%%o%%%%o%o%o%o%o%o%o%o%o%o%o%oo%oo%oo%ooo%o%o%ooo%o%ooo%oo%oo%ooooooooooooooooooooooooooooooooooooooooooooooooooooooooooooooooooooooooooooooo%oo%o%oooo%oooo%o%oo%o%ooo%o%ooo%o%o%o%%o%o%o%o%%o%%%o%%%o%%o%%%%%%%%%%o%%%%%%%%%&o#q      ###############               ###############               ###############               ###############               ###############               ###############               ###############",
"               ###############               ###############               ###############               ###############               ###############               ###############               ########q$$$$$$$$$$$$$$$$$$$$$$$$$$$$$$$$7# @@  @ @  @ * @ @ * @ @ * @ * * * * * * * * * * * * *@*@** *@* ***@*@**@*@@**** ****@* ***@*@**@**************************************2****2*2****2**2**22***2*@ @0&==&&&&&%&&&%&%&%&%&%&%&%%&%%&%&%%%&%%%%%&%%%%%%%%%%%%%%%%%%%%%%%%%%%%%%o%%%%o%%o%%%o%%%o%o%o%o%%o%o%o%oo%o%oo%o%oooooo%o%ooo%ooooo%oooo%oo%oo%ooooooooooooooooooooooooooooooooooooooooooooooooooooooooooooooo%oo%o%oo%ooooo%o%ooo%oo%oo%ooo%o%ooo%o%o%o%%o%o%o%%o%%o%o%o%%o%o%%%%%o%o%%%%o%%%%%%%%%%%& q       ###############               ###############               ###############               ###############               ###############               ###############               ###############",
"               ###############               ###############               ###############               ###############               ###############               ###############               #########6$$$$$$$$$$$$$$$$$$$$$$$$$$$$$$$$0# @ @ @ @@ @ @@@ * @* * @@* @@ * * * * * * * *@* *@* * * ** *@*@@@*@*@@****@*@*** * **** ****@****@********************************2*****2*****2*2**2**2**2*2*2*2*@ *0%==&&&%&%&%&%&%&%&%&%&%&%%%%%&%&%%&%%%%%&%%%%%%%%%%%%%%%%%%%%%o%%%%%%%%o%%%%o%%o%%o%o%%o%%o%o%o%o%o%%%oo%o%oo%o%o%o%ooo%o%oo%o%ooo%o%oo%ooooo%o%oo%oo%oooo%oooooooooooooooooooooooooooooooooo%oo%oo%oo%o%oooo%ooooooo%o%oooo%o%oo%oo%oo%oo%o%o%o%o%o%o%o%o%o%o%o%o%%o%%o%%%%o%o%%%%%%o%%%%%%%%%%%%=6#        ###############               ###############               ###############               ###############               ###############               ###############               ###############",
"               ###############               ###############               ###############               ###############               ###############               ###############               ##########%$$$$$$$$$$$=$$$$$$$$$$$$$$$$$$$$5# @ @ @ @ @ @  * @ @ @ * @ * @@@ * * * * *@* * * * **@*@* ** * ** *@*@*@@@*@*@*@*****@**** ***@*@***@**************************2******2****2*2******2**2**2***2*****@ *0%==&&&&&%&&%&%&%&%&%&%&&%&%%%&%%%&%&%%%&%%%%%%%%%%%%%%%%%%%%%%o%%o%%%%%o%%%%%o%%o%%o%%o%o%%o%o%o%oo%%o%oo%oo%o%oo%o%oooo%ooo%o%ooo%oooo%o%ooo%oo%oooo%oooo%oo%o%oo%oo%oo%o%oo%oo%oo%oo%o%oo%ooooo%oooo%o%ooo%o%o%o%ooo%o%ooo%oo%oo%o%o%ooo%o%o%o%o%o%%o%%o%o%%%o%%o%%%%o%%%%%%%%%%%%%%%%%%%%%%&O#q        ###############               ###############               ###############               ###############               ###############               ###############               ###############",
"               ###############               ###############               ###############               ###############               ###############               ###############               ###########$$$$$$$$$$$$$$$$$$$$$$$$$$$$$$$$$*q @ @ @ @ @ @@ @ * * @ * * * * * @@@@@@@ * * * * * @ * *@@*@** **@* *@***@*@*@**@@*@** ****@*****@***@**@*************************************2*2****2**2**2**2*2*2***@ *0%==&&&%&%&&%&%&%&%&%%&%%&%%%&%%%%%&%%%&%%%%%%%%%%%%%%%%%%%%%%%%%%%%%%%%o%%%%%%%o%%o%%%o%%o%o%o%%o%o%%%o%%oo%o%oo%o%o%oo%ooo%o%oo%o%oooo%oooo%oo%o%oo%oooo%oooo%oo%oo%oooo%oo%ooooo%ooooooo%o%oo%o%ooo%o%ooo%oooo%o%ooo%o%oo%o%oo%o%o%%%o%o%o%o%o%o%%o%%%%o%o%%%%%o%%%%%%%o%%o%%%%%%%%%%%%%&&#q         ###############               ###############               ###############               ###############               ###############               ###############               ###############",
"               ###############               ###############               ###############               ###############               ###############               ###############               ###########-$$$$$$$$$$$$$$$$$$$$$$$$$$$$$$$$$qq @ @ @ @ @ @ @@ @  * @ @ @ @ @ * * * * * @@@* *@* ** * * * *@* * *@* * *@*@*@@**** **** ** ** ***@**@****@***************************************2*****2**2*2**2*2*2***@ @6%==&&&&%&%&%&%&%&%&%&%&%&%%&%&%%&%%%%%&%%%%%%%%%%%%%%%%%%%%%%%o%%o%%%%%%o%o%%o%%o%o%o%o%%o%%o%o%oo%o%o%o%o%o%o%o%oo%o%o%ooo%oo%oo%o%oo%o%oo%oooo%oo%o%ooo%oo%oo%oooo%oo%oooo%o%oo%o%o%o%ooo%oooo%oo%oo%oo%o%oo%oo%oo%oo%o%o%%o%o%o%o%o%o%o%o%%%o%%o%o%%%%%%o%%%%%%%%o%%%%%%%%%%%%%%%%%%&5#          ###############               ###############               ###############               ###############               ###############               ###############               ###############",
"               ###############               ###############               ###############               ###############               ###############               ###############               ############7$$$$$$$$$$$$$$$$$$$$$$$$$$$$$$$$$#q @ @ @ @ @ @  @@ * @ * * * * * @ * * * * * @* * * *@* * *@@* ***@* **@*@@*@**@@@*** *@*****@**@******@****@*************************2********2****2*****2***2****2*2***2*@ @6%==&&&%&%&%&%&%&%%&%%&%&%%%%%%%&%%%%%&%%%%%%%%%%%%%%%%%%%%%%%%%%%%o%%%%%%%%%o%%%%o%%o%%o%o%%o%%o%o%o%o%o%o%o%o%o%oo%o%o%oo%oo%ooo%oo%oo%oo%o%oo%ooo%o%oo%oo%oo%o%oo%oo%o%ooo%ooo%oooo%o%oo%o%oo%oo%oo%oo%o%o%o%o%o%%o%o%o%o%%o%o%%%o%%%o%%o%%o%%%%o%%o%%%%%%o%%o%%%%%%%%%%%%%%%%%%%&8#           ###############               ###############               ###############               ###############               ###############               ###############               ###############",
"               ###############               ###############               ###############               ###############               ###############               ###############               #############$$$$$$$$$$$$$$$$$$$$$$$$$$$$$$$$$7#   @  @ @ @ @ @ @ @ @ @ @ @ @ * * @ * @@ * * * * *@ * *@* * @* * ** * *@*@* *@*@* **@**@* **@**@*@* ****@*****@************************2**2*********2*2***2***2*2***2*2**2**@ @47==&&&%&%&%&%&%&%&%%%&%&%&%&%%&%&%%%%%%%%%%%%%%%%%%%%%%%%%%%%o%%%%%%%%o%%%%%o%%o%%o%%o%%o%o%o%%o%%%o%o%o%o%o%o%%o%oo%o%oo%o%o%o%oo%ooo%ooo%oo%o%ooo%oo%ooo%ooo%oo%oo%oo%oo%o%oo%o%oooo%o%oo%oo%o%o%o%o%o%o%o%%o%o%o%o%o%o%o%%o%o%o%o%%o%%o%%%o%%%%%%%%%o%%%%%%%%%%%%%%%%%%%%%%%&o#q           ###############               ###############               ###############               ###############               ###############               ###############               ###############",
"               ###############               ###############               ###############               ###############               ###############               ###############               #############q$$$$$$$$$$$$$=$$$$$$$$$$$$$$$$$$$0#  @ @  @ @ @ @ @ @ @@ * @ * @ @ * * @* * @ * * * * *@ * * ** * * **@* * *@*@* **@* *@* *** ** ******@*@**@*@***@*******************************2*******2***2****2*2***2**2**2*@  58&==&&%&%&&%&%&%&%%&%%%%%%&%%%%&%&%&%%%%%%%%%%%%%%%%%%%%%%%%%%o%%o%%%%o%%%%%%%%%o%%o%%%%o%o%%o%o%%o%o%o%o%o%o%o%%o%o%%oo%oo%o%oo%o%o%o%oo%ooo%o%oo%oo%oo%o%oo%oo%oo%oo%oo%o%oo%o%%oo%o%o%o%o%o%o%o%o%o%o%o%o%o%o%%o%%o%%o%%o%%%%%o%%%o%%%%%%%o%%%o%%%%%%%%%%%%%%%%%%%%%%%%%&&@q            ###############               ###############               ###############               ###############               ###############               ###############               ###############",
"               ###############               ###############               ###############               ###############               ###############               ###############               ##############0$$$$$$$$$$$$$$$$$$$$$$$$$$$$$$$$$5# @   @ @  @ @ @ @ @ @ @ @ @ * @ @ * @ @ *@@@ * * * * * * * * *@@* * *@*@* * ** *@***@** **@**@*@* **@**@****@*****@************************2*****2******2***2*2****2**2*2*2***2**@q20%==&&&%&%&%&&%&%%&%&%&%%%&%%%%%%%%%&%%%%%%%%%%%%%%%%%%%%%%%%%%%%%%%%%%%o%%o%%o%%%o%o%%%%o%%o%o%%%o%%o%%o%o%o%o%o%o%%o%%o%o%%%o%oo%o%o%o%oo%oo%o%o%o%o%oo%oo%oo%oo%oo%oo%o%o%oo%%o%o%o%o%o%o%o%o%o%o%o%o%o%%o%o%%o%%o%%o%%o%o%%%o%%%o%%o%%%%%%%%%%%%%%%%%%%%%%%%%%%%%%%%=6#             ###############               ###############               ###############               ###############               ###############               ###############               ###############",
"###############               ###############               ###############               ###############               ###############               ###############               ###############             q#o$$$$$$$$$$$$$$$$$$$$$$$$$$$$$$$$$*q @ @  @ @  @ @ @ @ @ @ @@ @ @@ *  @* * @ * * @ * * * *@* * *@ * *@* * *@*@* ** * * **@*@**@**@**** **@**@***@*@****@**@****************************2***********2*2**2*****2*2****2*@ @47==&&&%&%&%&%&%&%&%%&%%&%&%&%&%%%%&%%%%%%%%%%%%%%%%%%%%%%%%%%o%%%o%%%%%%%%%%o%%%%%o%o%%o%%%o%o%o%%o%o%o%o%o%o%o%o%o%o%o%oo%o%%o%o%o%o%%o%%o%o%o%o%o%%o%%o%%o%%o%%o%%o%o%o%%o%o%o%o%%o%o%o%o%o%o%%%o%%o%o%%%o%%o%%o%%%%%%%%%%%%%%%%%%%%%%o%%%%%%%%%%%%%%%%%%%%%%%%&%=7###############               ###############               ###############               ###############               ###############               ###############               ###############               ",
"###############               ###############               ###############               ###############               ###############               ###############               ###############              q#=$$$$$$$$$$$$$$$$$$$$$$$$$$$$$$$$$qq   @  @  @ @  @ @ @ @ @ @ @ * @ *  @ * * @ @@@@@ * * @ @@@* *@* * *@* * *@* *@**@** @*@* *@*@*@@***** **@*@****@*@**************************************2***2****2****2*2*2**2*2**2**@ q58&==&&%&%&%&%&%%&%&%%%%%%%%&%&%%%%%&%%%%%%%%%%%%%%%%%%%%%%%%%%%%%%%o%%%%%%%%%o%%%%o%%%o%%o%%%%o%%o%%o%%%o%%o%o%o%o%o%o%%o%o%o%o%o%o%o%o%o%o%o%o%o%o%o%o%o%o%o%o%o%o%o%o%o%o%o%o%o%o%o%o%o%%%o%o%%o%%%%o%%o%%o%%%%o%o%%%%o%%o%%o%%%%%%%%%%%%%%%%%%%%%%%%%%%%%&%%&%################               ###############               ###############               ###############               ###############               ###############               ###############               ",
"###############               ###############               ###############               ###############               ###############               ###############               ###############               #q$$$$$$$$$$$$$$$$$$$$$$$$$$$$$$$$$$qq @  @  @  @ @   @ @ @ @ @ @ @ @ @* @ @ * * @ * * @@@* * @ * * * * * *@* * *@* * * ** ***@* *@**@@@**** ***@*@*****@*@*@*@********************************2****2***2*2*****2*2**2**2*2*** q*6o==&&&&%&%&%&%%&%&%&%&%%%%%&%&%%%&%%%%%%%%%%%%%%%%%%%%%%%%%%%%%%%o%%%%o%%%%%%%%%o%%%o%%o%o%%o%%o%%o%o%o%o%%o%%o%o%o%%o%o%o%o%o%o%o%o%o%o%o%o%o%o%o%o%o%o%o%o%o%o%o%o%o%o%%%o%%%o%%%o%%o%%o%%o%%o%%%o%%%%%%%o%%%%%o%%%%%%%%%%%%o%%%%%%%%%%%%%%%%%%%&%%&%%%%&& q###############               ###############               ###############               ###############               ###############               ###############               ###############               ",
"###############               ###############               ###############               ###############               ###############               ###############               ###############               ##5$$$$$$$$$$$$$$$$$$$$$$$$$$$$$$$$$$#q @  @  @  @  @ @  @ @ @ @ @ @ @@  @ * @ @ * @ @ * @ * *@* * * *@@@* * *@*@* @*@*@*@**@ *@***@@**@*@@*** *@**@*@*@*********@*@**@*******************2******************2*2****2**2**2*2*2**@  50%==&&&%&%%&%%&%%%%%&%&%%%%%&%%%%%&%%%%%%%%%%%%%%%%%%%%%%o%%%%%%%o%%%%%o%%o%%%%o%%%%%%%%%%o%%o%%o%%%%%%o%%o%o%%o%o%o%%%o%o%%o%%o%o%o%%%o%o%o%o%o%o%o%o%o%%o%%o%%%o%%%o%o%%o%%o%o%%o%o%%%%%o%%%o%%%%%%o%%%%%%%%%%%%%%%%%%%%%%%%%%%%%%%%%%%%%%%%%%%%%%&%&=5# ###############               ###############               ###############               ###############               ###############               ###############               ###############               ",
"###############               ###############               ###############               ###############               ###############               ###############               ###############               ###8$$$$$$$$$$$$$$$$$$$$$$$$$$$$$$$$$$#q    @   @ @ @  @ @  @ @ @ @ @  @@ @ @ * * @@* * @* @@  * @@@@ * * * * * * ** * * * @** * @*@*@*@*@*@*@***@*@**@*@*@*@*@**********@*************************2**2**2*2****12***2**2**2*2*2*2***@ @58&==&&&%&%&%&%&%%%%&%&%%%&%&%%%%&%%%%%%%%%%%%%%%%%%%%%%%%%%%%%%%%o%%%%%%%%%%%%o%%o%o%%%%%%%o%%o%o%o%%o%%%o%%o%%%o%o%%%o%%o%%o%%%o%o%%%o%%%o%%%o%%%o%o%o%o%o%o%%o%%o%%o%%o%%%%o%%%%o%%%%%%%%%%o%%%%%%%o%%o%%%%%%%%%%%%%%%%%%%%%%%%%%%%&%%&%&%%&%%%&=9#  ###############               ###############               ###############               ###############               ###############               ###############               ###############               ",
"###############               ###############               ###############               ###############               ###############               ###############               ###############               ####&$$$$$$$$$$$=$$$$$$$$$$$$$$$$$$$$$$#q @  @ @     @ @  @ @  @ @ @ @ @ @ @ @  @ *  @ * @ * @*@ * * * @@@@* * * *@ * *@*@** *@**@* * *@*@*@*@*@@***@*@****@****@*@***@***************************************2****21**2**2****2**2*2****@ @48&==&&%%&%&%&%&%%%%&%%%%%%&%%%&%%&%%%%%%%%%%%%%%%%%%%%%%%%%%%%%%%%%o%%o%%%%%%%%%%%%o%o%%%%%%%%%o%%%o%%o%%o%o%%%o%o%%o%%o%%o%%o%%o%%o%o%%o%%o%o%%%o%%%%%%%o%%o%%%%%o%%%%o%%%%o%%%%o%%o%%o%%%o%%o%%%%%%%%%%%%%%%%%%%%%%%%%%%%%%%%%%%%%%%%&%%%&%&.#q  ###############               ###############               ###############               ###############               ###############               ###############               ###############               ",
"###############               ###############               ###############               ###############               ###############               ###############               ###############               #####$$$$$$$$$$$$$$$$$$$$$$$$$$$$$$$$$$=#q       @ @    @  @ @ @  @ @ @ @ @ @ @@ @ @* @ @ * *  * @@ * * * @@@@@@@@*@*@ * * @* * * **@*@* *@*@*@**@@@**@* *@**@*@***@*@****@**@**********************************2****2***2**2*2**2**2*2******@q267==&&&%&%%&%&%&%%&%&%&%%%%%%%%%%&%%%%%%%%%%%%%%%%%%%%%%%%%%%%%%%%%%%o%%%o%%%o%%%%%%%o%%o%%%%%o%%%%%%%%%%%o%%%%o%%o%%%o%o%%%o%%o%%%%o%%o%%%%o%%o%o%o%%%%o%%o%%%%%o%%%%%%%%%%o%%%%%%%%%%%%%%%%%%%%%%%%%%%%%%%%%%%%%%%%%%%&%%&%%&%&%&%%%&%%&%#q   ###############               ###############               ###############               ###############               ###############               ###############               ###############               ",
"###############               ###############               ###############               ###############               ###############               ###############               ###############               #####@$$$$$$$$$$$$$$$$$$$$$$$$$$$$$$$$$$=#q  @ @    @ @  @  @   @ @ @ @ @ @ @ @ @ *  @ * * @ @@ * @@@@ * * * * * * @ *@*@@* *@*@*@*@@* ** *@*@*@@***@*@**@**@***@*@*****@********@**********************1***2******2***2**1**2**2**2**2*2*22****@ q507==&&&&%%&%%&%%%%%%%&%&%&%&%%%%%%%%%%%%%%%%%%%%%%%%%%%%%%%%%%%%%%%%%%%%%%%%%%%%%%%%%%%o%%%%%%o%o%o%%o%%%o%%o%%%o%%%%%o%%o%%%o%o%%%%%%o%%o%%%%%%%%o%%%%%%%o%%%%%%%o%%o%%%%%%%%%%%%%%%%%%%%%%%%%%%%%%%%%%%%%%%%%%%&%%%%%%&%%%%%%%%&%%&=@#    ###############               ###############               ###############               ###############               ###############               ###############               ###############               ",
"###############               ###############               ###############               ###############               ###############               ###############               ###############               ######4$$$$$$$$$$$$$$$$$$$$$$$$$$$$$$$$$$=#q     @     @  @  @ @  @  @  @ @ @ @ @ @ @ @ @ @@ * @ * @ * @@ * * * * *@* @ * *@ * * * * ** **@* *@*@@@@*@*@*@*@*@@****@*@*@**@*@**@*****************************************2*2***1*2**2**2*2**22*2*2**@ q268&==&&&%%&%&%&%&%%%%%%%%&%&%&%%&%%%%%%%%%%%%%%%%%%%%%%%%%%%%%%%%%%%%%o%%o%%o%%%%o%%%o%%o%%%%%%%%%%o%%%%%%o%%%o%%o%%%%%o%%%%%o%o%%%%%%%%%%%o%%%%%%%%%%%%%%o%%%%%%%%%%%%o%%%%%%%%%%%%%%%%%%%%%%%%%%%%%%%%%&%%%%%&%%&%%%&%&%&%&%%&=4#     ###############               ###############               ###############               ###############               ###############               ###############               ###############               ",
"###############               ###############               ###############               ###############               ###############               ###############               ###############               #######7$$$$$$$$$$$$$$$$$$$$$$$$$$$$$$$$$$&#q      @ @  @   @   @  @  @ @  @ @ @ @ @ @ @ * @ @ * @ *@ * @@@@ @ * * @ *@* * *@*@@* *@* *@* * ** * ***@*@*@*@*@**@*@@**@**@*****@****@*@**@**********************1*****2*******2*2***2**2****2***2*2*2*2**@@q*48%==&&&%%%%%%%&%&%&%%%%%%%%%%%%&%%%%%%%%%%%%%%%%%%%%%%%%%%%%%o%%%%%%%%%%%%o%%%%%%%%%%%%%%%o%%%%%%%%%%%%%%%%%%%%o%%%%%%%%%%%%o%%%%%%%o%%%%%%%o%%o%%%o%%%o%%%%%%%%%%%%%%%%%%%%%%%%%%%%%%%%%%%%%%%%%%&%%%&%&%%%&%%%&%%%%%%%%&=8#      ###############               ###############               ###############               ###############               ###############               ###############               ###############               ",
"###############               ###############               ###############               ###############               ###############               ###############               ###############               ########=$$$$$$$$$$$=$$$$$$$$$$$$$$$$$$$$$$7#q            @   @   @ @  @ @ @  @ @ @ @ @ @ @ * @ @@  @@ * @ *@@@ @@@* @ * *@ @ * *@@@*@@@*@*@* ***@ *@*@*@*@*@*@@***@*@*@*@*@*@**@**********@*********************2*****2*********2**1**2*2**2*2***2*2*2*2*2*@@ @50o==&&&%&%%%%%%&%&%&%&%%&%%%%&%%%%%%%%%%%%%%%%%%%%%%%%%%%%%%%%%%%%%%%%%%%%%%%%o%%o%%o%%%%%%o%%o%%%o%%o%%%%%%%%%o%%o%%%%%%%o%%o%%%%%%o%%%%%%%%%%%%%%%%%%%%%%%%%%%%%%%%%%%%%%%%%%%%%%%%%%%%&%%&%%%%%%%%%&%%%&%%%&&%&&%&&o#q      ###############               ###############               ###############               ###############               ###############               ###############               ###############               ",
"###############               ###############               ###############               ###############               ###############               ###############               ###############               #########$$$$$$$$$$$$$$$$$$$$$$$$$$$$$$$$$$$8#q q@ q@   @   @  @ @   @  @   @ @  @ @ @ @ @ @ @ *  *@@ @ * * @ @* * @ *@@@@ *@* * * * * * * *@*@@ **@* * *@*@*@*@*@@*@***@**@**@***@*@*@**@*********************************2***2****2*2***2**2**2*2**2*2*2*2*2***@  268&==&&&%&%%%%%%%%%&%%%&%%%%&%%&%%%%%%%%%%%%%%%%%%%%%%%%%%%%%%%%%%%%%%%%%%%%%%%%%%%%%o%%%%%%%%%%%%%%%o%%%o%%%%%%%%o%%%%%%%%%%%%%%%%%%%%%%%%%%%%%%%%%%%%%%%%%%%%%%%%%%%%%%%%%%%%&%%%&%%%%%%&%&%&%&%%%&%%&%&%%&%%&&%#q       ###############               ###############               ###############               ###############               ###############               ###############               ###############               ",
"###############               ###############               ###############               ###############               ###############               ###############               ###############               #########q$$$$$$$$$$$$$$$$$$$$$$$$$$$$$$$$$$$8#q     q@            @  @  @ @  @ @  @ @ @ @ @ @  @@  @@ @ @ @* * @ * *  * *@ @@* * * *@@@@* * *@*@@ *@*@*@@*@*@*@**@*@@*@*@*@*@**@******@****@**@*********************************2******2*1*2**2***2**2**2**2*2*2*2**@@ @507&==&&&%&%&%&%%&%%%&%%%%%%%&%%%%%%%%%%%%%%%%%%%%%%%%%%%%%%%%%%%%%%%%%%%%%%%%%%%%%%%%%%%%%%%%%%%%%%%%%%%%%%%%%%%%%%%%%%%%%%%%%%%%%%%%%%%%%%%%%%%%%%%%%%%%%%%%%%%%%%%%%%&%%%%&%%%&%&%%%%%%%%%&%&%&%%&%&%&%&&&@#        ###############               ###############               ###############               ###############               ###############               ###############               ###############               ",
"###############               ###############               ###############               ###############               ###############               ###############               ###############               ##########1$$$$$$$$$$$$$$$$$$$$$$$$$$$$$$$$$$$0#q  q@  q    @  @ @  @   @    @   @ @  @ @ @ @ @ @ @ * @ * *  @ @ * @ * * @ * * @@@@* * *@@@@@* * **@* * ** * *@*@@*@**@*@**@**@*@*@*@@****@**@******@*******************1*****1*******2***2**1**2*2**2**2**2*2*2*2*2*2*2**@@ @507&==&&&%%%%%&%%%&%&%&%%%%&%%&%%%%%%%%%%%%%%%%%%%%%%%%%%%%%%%%%%%%%%%%%%%%%%%%%%%%%o%%%%%%%%%%%%%%%%%%%%%%%%%%%%%%%%%%%%%%%%%%%%%%%%%%%%%%%%%%%%%%%%%%%%%%%%%%%%&%%%%&%%%&%%%%%&%&%&%&%&%%%%%&%%%&%&&=2#         ###############               ###############               ###############               ###############               ###############               ###############               ###############               ",
"###############               ###############               ###############               ###############               ###############               ###############               ###############               ###########4$$$$$$$$$$$$$$$$$$$$$$$$$$$$$$$$$$$0#q  q  @  @q          @  @ @  @ @   @  @  @ @ @ @ @  @@ @ @ * * @ * * @@@* * @@@@ @@@@* * * * *@* * *@*@@@*@*@* *@*@@@*@*@@*@**@*@****@@*@*****@*@*****@**************************1*2*******2*2***1*2**2*2*2**2*2*2*2*2*2*2*2**@@ @507&==&&&%&%&%%%%%%&%%%%%%%&%%&%%%%%%%%%%%%%%%%%%%%%%%%%%%%%%%%%%%%%%%%%%%%%%%%%%%%%%%%%%%%%%%%%%%%%%%%%%%%%%%%%%%%%%%%%%%%%%%%%%%%%%%%%%%%%%%%%%%%%%&%&%&%%%%&%%%%&%%%&%&%%%%&%%%&%&%&&%&&&&%&&=4#          ###############               ###############               ###############               ###############               ###############               ###############               ###############               ",
"               ###############               ###############               ###############               ###############               ###############               ###############               ###############          q#8$$$$$$$$$$$$$$$$$$$$$$$$$$$$$$$$$$$0#q @  q q  q@   @  @        @    @ @ @ @ @  @ @ @ @ @ @ @@ @ @ @@ @ * @  @ * * @* * @ * * *@@* @@@@* * ** * *@** *@**@*@**@*@@***@*@@****@*@*@******@****@*******************2********1**2*****2*2***2*1***2*2**1*2*2*2*2*2*2*2*2**@@q@568%===&&&&%&%%%&%&%&%%%%%%%&%&%%&%%%%%%%%%%%%%%%%%%%%%%%%%%%%%%%%%%%%%%%%%%%%%%%%%%%%%%%%%%%%%%%%%%%%%%%%%%%%%%%%%%%%%%%%%%%%%%%%%%%%%%%%%&%%&%%%%%%%%&%%&%&%%&%&%%%&%&%%&%&%%%&%&%&%%&%&=9############               ###############               ###############               ###############               ###############               ###############               ###############               ###############",
"               ###############               ###############               ###############               ###############               ###############               ###############               ###############           q#.$$$$$$$$$$=$$$$$$$$$$$$$$$$$$$$$$$$8#q q @q@q@q   q     @ @ @   @ @    @   @ @ @  @ @ @ @ @ @ @ @@ @@@ @ *@@@@ @ * @@ *@@ * * * @*@* * *@* @*@* * **@* *@*@@@*@**@@@*@**@*@**@****@*@*****@****@********************************2*****2***2*2****2*2**2**2**2*2*2*2*2*2*2**@@ q*508%==&&&&%%%%%&%&%%&%%%%%%%%&%%&%%%%%%%%%%%%%%%%%%%%%%%%%%%%%%%%%%%%%%%%%%%%%%%%%%%%%%%%%%%%%%%%%%%%%%%%%%%%%%%%%%%%%%%%%%%%%&%%&%&%%%%%%&%&%&%&%%%%%%%&%%%&%&%%&%&%%&%&&%&%&%&%&%=7#############               ###############               ###############               ###############               ###############               ###############               ###############               ###############",
"               ###############               ###############               ###############               ###############               ###############               ###############               ###############            q#&$$$$$$$$$$$$$$$$$$$$$$$$$$$$$$$$$$$&#q  q q     q@q@q@q      @     @ @  @  @   @ @  @ @ @ @ @ @ @ @ @ * @  * @@@ * *@@ *@@@@@@@* @ * *@@ ** * *@*@@@@* *@@**@*@*@**@*@*@*@*@*@*@*@***@*@****@****@*********************************2****2****2*2**2*2**2*12*2*2*2*2*22*2*22*22**@@  2407%===&&&&%%&%%%&%&%&%%%%%%%%&%%&%%%%%%%%%%%%%%%%%%%%%%%%%%%%%%%%%%%%%%%%%%%%%%%%%%%%%%%%%%%%%%%%%%%%%%%%%%%%%%%&%%&%&%%%%%%%%%&%&%%%%%%%%%%&%&%&%%&%%&%%&%%&%&%&%&%&%&%&%&=.##############               ###############               ###############               ###############               ###############               ###############               ###############               ###############",
"               ###############               ###############               ###############               ###############               ###############               ###############               ###############             q#$$$$$$$$$$$$$$$$$$$$$$$$$$$$$$$$$$$$=##     q  @q  q           @ @     @  @  @  @ @ @  @ @ @ @ @ @ @ @ @@@@ @ * @ @ @ *  * @ * @* *@@@@*@@ *@*@@ *@* *@* *@ *@@*@@@*@*@*@*@**@**@*@*@***@*@****@****@*******************2**2*****1***2****2*1***2**2*2*2*2**2*2**2*2*2*2*2*2*222*22***@@  25687&===&&&&%%%%%&%&%&%%%%%%%&%&%%&%%&%%%%%%%%%%%%%%%%%%%%%%%%%%%%%%%%%%%%%%%%%%%%%%%%%%%%%%%%%%%&%%%&%&%&%%%%%%%%&%&%&%&%%%%&%&%&%&%&%%%&%%&%&%&%&%&&&%&%&%&%&%&%&%&&%###############               ###############               ###############               ###############               ###############               ###############               ###############               ###############",
"               ###############               ###############               ###############               ###############               ###############               ###############               ###############              q#$$$$$$$$$$$$$$$$$$$$$$$$$$$$$$$$$$$$$##q q q@qq  q@  q@q@q@q@     @ @   @  @  @ @   @ @  @ @ @ @ @ @ @@  @ @@ * @@@@@ *@@ * @@@ * * * @ @*@@@ @*@@@* *@*@*@*@*@@**@*@*@*@*@@**@*@***@*@***@*@****@****@**********************2*********2***2*21**2***2***2*2**12*2*2*2*2*22*2**22*2222*22***@@  25687&===&&&&&%%%&%&%&%%%%%%%%%%%%&%&%&%%&%%&%%&%%&%%&%%%%%%%%%%%%%%%%%%%&%%&%%&%%&%%&%&%&%%%&%%%%%%%%&%&%&%%%%%%%%%&%&%%%%%%%&%%&&&&=&&&%%&%&%%&%&%&%&%&%&%&&&&q###############               ###############               ###############               ###############               ###############               ###############               ###############               ###############",
"               ###############               ###############               ###############               ###############               ###############               ###############               ###############               #@$$$$$$$$$$$$=$$$$$$$$$$$$$$$$$$$$$$$$q#q  q      q    q     q        @   @  @   @ @  @ @ @ @ @ @ @ @  @@ *  @ @@  * @ @ * * * * @@@ *@* @ *@*@ * *@* * * * *@*@@@*@*@*@*@**@@**@*@*@**@*@***@*@****@****@**************************1**********2***1**2*2**2*2**2*2*2*2*2*2*2*2*2*2*2*2*222*222****@@  25607o&===&&&&&&%&%&%&%&%%&%%%%%%%%%%%%%%%%%%%%%&%&%&%&%&%&%&%&%%%%%%%%%%%%%%%%%%%%%&%%%&%&%&%&%%%%%%&%&%&%&%%%%&%&&&&&&==&%70428&&&%&%&&%&%&%&%&%&&%&&=*################               ###############               ###############               ###############               ###############               ###############               ###############               ###############",
"               ###############               ###############               ###############               ###############               ###############               ###############               ###############               ##5$$$$$$$$$$$$$$$$$$$$$$$$$$$$$$$$$$$$$ #q   q q  q@q q@   q @q@   @    @       @   @ @  @  @  @ @ @ @ @ @ @* @ * * @ * @@@ * @@ * @* @ *@*@ * *@* @@@@*@*@* * *@*@* *@*@*@@**@*@**@**@***@*@***@*@****@*****@********************2******2***2****2*2**2**2***2*2**2*1*2*2*2*2*2*2*2*222*2*2*2*22222222***@@@  *54087%&===&&&&&&&%&%%&%&%&%&%&%&%&%&%&%%%%%%%%%%%%%%%%%%&%&%&%%&%&%&%&%&%&%%%&%%%%%%%%%&%&%&%%%%&%&&&&&&==&%78652*****o&&%&%&%&%&%&%&&%&&&%&&=5# ###############               ###############               ###############               ###############               ###############               ###############               ###############               ###############",
"               ###############               ###############               ###############               ###############               ###############               ###############               ###############               ###4$$$$$$$$$$$$$$$$$$$$$$$$$$$$$$$$$$$$$*#qqq  q q     q q@  q  q@q       @ @ @  @ @   @  @  @ @  @ @ @ @ @  @@  @ @@ @ @ @@ @@@@@@ @* * @ *@ * @@*@* * * *@*@* * *@*@@@*@*@@@*@*@@**@*@@**@**@****@*@***@*****@**********************2*********2********1*2*2***2**2*2*2*2*2*2*2*2*2*1*22222*22*2*2*2222222222****@@@  *540087o%&====&&&&&&&%&%%%%%%%%&%&%&%&%&%&%&%&%&%%%%%%&%%%%%%%%%%%%&%%%&%&%&%&&&&&&&=====&%7806452***22255525&&&%&%&%&%&%&&&%&&%&%&&=4#  ###############               ###############               ###############               ###############               ###############               ###############               ###############               ###############",
"               ###############               ###############               ###############               ###############               ###############               ###############               ###############               ####6$$$$$$$$$$$$$$$$$$$$$$$$$$$$$$$$$$$$$2#q q q @q qq    q q@   q@q@q@               @  @  @  @ @ @ @ @ @ @ @ @ @@ @ @@@@@ @@ * @ * @@ * * @@@* * @ *@@@* * * *@* * *@*@* **@*@@**@@*@***@*@*@*@*@****@***@*@*****@************************2*****2**2*2*2****2*2**2**2**2*1*2*2*2*2*2222**2*2*22*222*2*2*2*2*22222222222****@@@@  *25460877o%&&=======&&&&&&&&&&&&&&&&&&&&&&&&&&&&&&&&&&&&&=&=====&&%%77880645*@****2222525525552*4=&&&%&%&%&%&&%&%&%&&&&&=6#   ###############               ###############               ###############               ###############               ###############               ###############               ###############               ###############",
"               ###############               ###############               ###############               ###############               ###############               ###############               ###############               #####0$$$$$$$$$$$$$$$$$$$$$$$$$$$$$$$$$$$$$5#q q qq    q q@q  q      q  q@q @  @ @ @ @   @  @ @  @  @ @  @ @ @ @ @ @ @ @  @ * @ @ * @@@ * @@@@ * @@*@@ * * *@@@*@@@*@*@ * *@* *@*@@@**@*@@@**@*@**@*@*@**@*@*****@****@*************************************2*****2**2**2**2*2*2*2*2*2***2*212*2*22*2*222*222222*22*22222222222222222*2***@@@@@@@  **255446000888888877777oooo77778888000000644552*@@@******2222252555255255255252*8=&&%&%&&%&&&%&&&&&&%&%&=6#q   ###############               ###############               ###############               ###############               ###############               ###############               ###############               ###############",
"               ###############               ###############               ###############               ###############               ###############               ###############               ###############               ######8$$$$$$$$$$$$$=$$$$$$$$$$$$$$$$$$$$$$$0#q q   qq q@q q  q@q q q@   q@   q        @   @    @  @  @ @ @ @ @ @ @ @ @ @* @ @@ * @ * @@ @* @ * @* @ @*@@@@ * * * *@@@@*@*@@@*@*@@**@@@@***@*@*@*@*@*@**@****@*@****@*****@***************1***********1***2***2*21**2**2**2**2**2**2*2*22*2*2*212*12*22*1222*2*22*2222*2*222222222222222222222222222222*2**************@**@@@@***************222222525252525252525522525252525252*7=&&%&%&&%&&%&&%&%&%&&&&=9#q    ###############               ###############               ###############               ###############               ###############               ###############               ###############               ###############",
"               ###############               ###############               ###############               ###############               ###############               ###############               ###############               #######8$$$$$$$$$$$$$$$$$$$$$$$$$$$$$$$$$$$$$0#qqqqq  q q   q  q  @q q    q  @   q@      @   @ @  @  @   @  @  @ @ @ @ @  @@ @ @ @@@ @@ * @ *@ * @@* * @@@*@@@@@@* * *@@@@*@* * *@* **@*@@@*@*@*@*@*@*@**@*@****@*@****@****@*******************1*******2*********2**1**2**2**2*12**2*2**2*2*2*2*22*2*222*2*2221222*2*2222*22*222*22222222222222222222222222222222222222222222222222252525252225252252225252525252525252525255222&=&%&&%&&%&&%&&%&&&&&%&&=8#q     ###############               ###############               ###############               ###############               ###############               ###############               ###############               ###############",
"               ###############               ###############               ###############               ###############               ###############               ###############               ###############               ########7$$$$$$$$$$$$$$$$$$$$$$$$$$$$$$$$$$$$$8#qq  qqq q q q q  qq  q@q q@  qq  @q    @   @    @  @   @  @ @ @ @ @ @ @ @ @ @ @ @@  @@ @ @@@@ @@ * @ * * @ * * * @@@@* * * @@@*@* *@* *@@*@*@@*@*@*@*@*@*@**@*@@***@*@****@*****@*******************2********1**2*****2***2**2**2**21*2*2*2*2*2*2*2*22*2*2*22*22*2*22222122222222222222222222222222222222222222222222222252252252252522222522522522522525225252525252525525252*4=&%&&%&&%&&&&&%&&&%&%&&&=7#q      ###############               ###############               ###############               ###############               ###############               ###############               ###############               ###############",
"               ###############               ###############               ###############               ###############               ###############               ###############               ###############               #########.$$$$$$$$$$$$$$$$$$$$$$$$$$$$$$$$$$$$$=##qq  q qq   q q   q  q @q q@ @q q@  @q      @      @ @  @   @  @  @ @ @ @ @ @ @ @@@ @@@ @ @ * @@ @@@@ @* * @@@@* * * *@* ** * *@*@@@*@*@@*@*@*@@*@*@*@*@*@*@***@*@***@*@***@*****@*************************2*****2*2***2**1**2**2**2**2*2*2*2*2*2*2*2*2*22*2*2*22212*2*22*2*22*222*22222222222222222222222222222225225222222252222222525222522522525252252252252522525225522*0=&&&&%&&&&&%&%&&&%&&&&&&=7#q       ###############               ###############               ###############               ###############               ###############               ###############               ###############               ###############",
"               ###############               ###############               ###############               ###############               ###############               ###############               ###############               ##########%$$$$$$$$$$$$$$$$$$$$$$$$$$$$$$$$$$$$$$ #qqq q  qqq q  qq q  qq   qq q@ q q  q@       @ @     @   @  @  @ @  @ @ @ @ @ @  @  @ * @@ @ * * @ * @@ @* @@ * * * @@@@@@@*@@@@@*@@@@* *@@*@*@*@*@*@*@**@*@@***@*@****@***@*@*****@*******************************2***2*2***2**2**2*2***2*2*2*2*2*2*2*2*2*22*2*2*222*22222*22222*222*22222222222222222222222222222222225222225225222225225222522222525252252252525252522*7=&&&%&&&&%&%&&&&%&&&&&&&=.#q        ###############               ###############               ###############               ###############               ###############               ###############               ###############               ###############",
"###############               ###############               ###############               ###############               ###############               ###############               ###############               ###############         q#%$$$$$$$$$$$$$$$$$$$$$$$$$$$$$$$$$$$$$$5#qqq qq q q qq  q q   q q    q  @q@q  q@q@q@q    @ @   @  @  @    @ @  @ @ @ @ @@ @ @ @ @ * @ @ * * @@@@@ * *@@@@@@@* * *@@ * *@* *@* *@* *@@*@@*@*@*@*@@****@@**@*@*@**@*@****@*@***@****************1********************2***2**2***2*2***2*2*2*2*2*2*2*2*2*22*22*22*2*2222*22222*222222*222222222222222222222222222222222222222252222222522252525222525225252525252222%=&&%&&&%&%&&&&%&&&&&%&&&=.###########               ###############               ###############               ###############               ###############               ###############               ###############               ###############               ",
"###############               ###############               ###############               ###############               ###############               ###############               ###############               ###############          q#&$$$$$$$$$$$=$$$$$$$$$$$$$$$$$$$$$$$$$$0##qqq qq q q qq q  qq q@q q    q   q@ q      q@     @   @  @  @ @ @  @ @ @ @ @  @ @ @ @@ @ @@@@@ @ * @ @@@@ @ * @@@ @* * @* *@@ *@@@@*@@*@@*@@*@@*@@*@*@*@@@*@*@*@***@*@***@*@**********@*******************2*******1***2***2**2***2*1**2*2***2*2*2*2*2*2*2*22*22*2*2*22*2*22212*22222*22222222222222222222222222222252222522522522252525222252222252522225252225225225&&&%&&&%&&&&&&&&&&&&&&&&&=o############               ###############               ###############               ###############               ###############               ###############               ###############               ###############               ",
"###############               ###############               ###############               ###############               ###############               ###############               ###############               ###############           q#&$$$$$$$$$$$$$$$$$$$$$$$$$$$$$$$$$$$$$$=##qqq q qq q q qq   q q   q q   q  q @q q@  @q   @q  @     @  @   @   @  @  @ @  @ @@ @ @@   @ @@ @@ * @ * * @@@ *@@ * *@ *@ *@@ *@* *@@* * *@*@@*@*@*@@***@*@*@*@@****@*@****@*@**@*****@**********************2***2***********2***2*2***212***2*2*2*2*2*2*2*2*2*22212*22*2*2222*22222*222222222222222222222222222222222222222222222222252522525222252522525252522*4=&&&&&%&&&&%&&%&&&&%&&&&&=o#############               ###############               ###############               ###############               ###############               ###############               ###############               ###############               ",
"###############               ###############               ###############               ###############               ###############               ###############               ###############               ###############            q#%$$$$$$$$$$$$$$$$$$$$$$$$$$$$$$$$$$$$$$$@#q qqqq qq q q qqq q  qq q@q q     q  @q q  q@q  @  q@ @   @  @  @ @ @ @ @ @ @@ @  @ @ @ @@@ @ * @ @ * @@ @* @@@ @@@@ @* @* @@*@@ * *@@@*@* * *@@* *@*@@@*@*@*@**@*@@*@**@*@****@**@*@*****@***************1***********2**1*2****2***2*2***2*21**2*2*2*2*2*2*2*22*2*2212*22*2*222*2*22222*2*22222222222222222222222222222222222252222522222222222522522522252222*8=&&&%&&&&&&&&&&&&&&&&&&&&=.##############               ###############               ###############               ###############               ###############               ###############               ###############               ###############               ",
"###############               ###############               ###############               ###############               ###############               ###############               ###############               ###############             q#o$$$$$$$$$$$$$$$$$$$$$$$$$$$$$$$$$$$$$$$5#qq q qq q q q q q qq  q q q@qq q@q q   @q      q @     @     @      @   @ @  @ @@  @ @ @  @ @ @@@@ @ @@@ @ * * * @@* @@@@* * * *@@ * * *@*@*@@*@*@@*@*@*@@*@*@@*@**@*@**@*@*@***@*****@****@********************************2****2**1*2*2***2*2***2*2*2*2*2*2*2*2*2*222*2222*2*2222*2*22222*22222222222222222222222522225225222252222522525252522522522522522*o=&&&&&&&%&&%&&&&&&&&&&&&&=.###############               ###############               ###############               ###############               ###############               ###############               ###############               ###############               ",
"###############               ###############               ###############               ###############               ###############               ###############               ###############               ###############              q#.$$$$$$$$$$$$=$$$$$$$$$$$$$$$$$$$$$$$$$$8##qqqq qqqqq qq q q qq q q q    q    q q@q@q@q @  q   @q  @ @   @ @   @ @   @ @  @@ @ @ @@ @ @@ @ @ * @ @@@ @ * @@@ @@@@@ @@@@@@@@*@@@*@@@ * *@@@@* *@@*@*@*@*@*@*@*@*@*@*@**@*@**@*@****@*****@************************2******2***2*****2*2***2*21**2*2*2*2*2*2*22*2**2*2*2*2222*22222*22222*2222222222222222222222222222222222225222222222222222222522522*5&=&&&&&&&&&&&&&&&&&&&&&&&&=7################               ###############               ###############               ###############               ###############               ###############               ###############               ###############               ",
"###############               ###############               ###############               ###############               ###############               ###############               ###############               ###############               ##7$$$$$$$$$$$$$$$$$$$$$$$$$$$$$$$$$$$$$$$$##qqqqq q qq q qq q q q q  qqq  q q    q   q  q  @ q@q @ q   @   @ @    @ @   @   @ @ @  @ @  @@ @@ @@@ @ * @@ @@ *@ * *@@ * * * @@* @@@*@*@@* *@@*@*@@* *@*@*@*@*@*@*@*@*@**@**@***@*@****@****@****************1********1*********2*2****2*2***2*2***2*2*2*2*2**22*22*2*22*2*22*2*2222*22222*2222222222222222222222222222222222222522522522525252222522*0=&&&&%&&&&&&&&&&&&&&&&&&&&$7#q###############               ###############               ###############               ###############               ###############               ###############               ###############               ###############               ",
"###############               ###############               ###############               ###############               ###############               ###############               ###############               ###############               ###8$$$$$$$$$$$$$$$$$$$$$$$$$$$$$$$$$$$$$$$$@#qq qqqqq qqq q qq q q qq   q q   q q  q   q@  q      q@ @ q @     @ @   @ @ @ @ @ @ @ @  @ @ @ @ @ @ * @@ @ * @@ * @  *@@@ * * * @* * @@ * *@@* * @@*@*@@*@@*@@*@*@*@*@*@*@***@*@***@*@****@*****@************************2**1********2*****2**2**2*2**2*2*2*2*2*2*22*22*22*2*222*2*222*2*22222*2222222222222222222222222222222222222222222222222522*2%=&&&&&&&&&&&&&&&&&&&&&&&&&=8#q ###############               ###############               ###############               ###############               ###############               ###############               ###############               ###############               ",
"###############               ###############               ###############               ###############               ###############               ###############               ###############               ###############               ####8$$$$$$$$$$$$$$$$$$$$$$$$$$$$$$$$$$$$$$$$4##qqq qqqq qqqq q qq q qqqq  q qq   q  q@q q q@q@q     q  @ q @ @    @ @   @ @   @ @ @ @@  @ @ @ @@ @ @ @@@@ @@ @ @*@@ @ *@@@@@@@* * *@*@@@* *@*@** * *@* *@*@*@*@*@*@*@*@*@@**@**@****@*@****@****@**************************2****2****2*2***2**2***2**2**2*2*2*2*2*22*2*2*22*2*222*2*2222*2*2222*222222222222222222222222222222222225225222522522*4==&&&&&&&&&&&&&&&&&&&&&&&&&$9#q  ###############               ###############               ###############               ###############               ###############               ###############               ###############               ###############               ",
"###############               ###############               ###############               ###############               ###############               ###############               ###############               ###############               #####0$$$$$$$$$$$$=$$$$$$$$$$$$$$$$$$$$$$$$$$$8##qqqq qqqqqq qqqq q qq   qq q   qq q q q    q  q@q@q @   q@   q  @     @    @ @   @ @  @@ @  @ @ @ @ @@ @ @@ @@@@ @ *@@@ @ * @@ @@@@@ * * * @@@@ *@*@@@*@* *@@*@@*@*@*@*@*@*@*@*@*@*@***@*@****@*****@************************2*****2*****2**2**2*2**2*2*2**2*2*2*2**2*2*22*2*22*2*2222*22222*2222222222222222222222222222225222252222222522222**7=&&&&&&&&&&&&&&&&&&&&&&&&&==0#q   ###############               ###############               ###############               ###############               ###############               ###############               ###############               ###############               ",
"###############               ###############               ###############               ###############               ###############               ###############               ###############               ###############               ######6$$$$$$$$$$$$$$$$$$$$$$$$$$$$$$$$$$$$$$$$$q#qqqqqq q qqq q qqq qqqq q qqq   q q   q q@  q   q  q  @  q@ @  q@ @   @ @   @ @   @ @  @ @@  @ @ @ @ @ @ @@ @ @@ @ @ * * @@@@* * * * * *@*@ *@*@@@* *@@@*@*@@*@*@@*@*@*@*@*@*@*@*@*@*@***@*@****@****@*******************************2*******2***2****2*2**2*2*2*22*2*2*2*22*22*22*2*22*22222*22*22*2222222222222222222222222222222222222252*5&=&&&&&&&&&&&&&&&&&&&&&&&&&=$6#q    ###############               ###############               ###############               ###############               ###############               ###############               ###############               ###############               ",
"###############               ###############               ###############               ###############               ###############               ###############               ###############               ###############               #######4$$$$$$$$$$$$$$$$$$$$$$$$$$$$$$$$$$$$$$$$$4##qqqqqqqqqqqqqqq qq q q qq  qqq q  qq   qqq   q@q @q qq@  q q @  q @   q@ @    @ @   @ @  @@ @  @@ @ @* @ * @@ * @@@ @@ * *  * @@@@@@@@@ @*@@@ *@@@* *@@* @*@* *@*@@*@*@*@*@***@*@***@*@***@*@****@****@**********************1**2******2*2***2***2*2****2*2***2**2*2*2*2*2*2*22*2*22*22*2*22*22*22222*2222222222222222222222222222222222*@0=&&&&&&&&&&&&&&&&&&&&&&&&&&&$4#q     ###############               ###############               ###############               ###############               ###############               ###############               ###############               ###############               ",
"###############               ###############               ###############               ###############               ###############               ###############               ###############               ###############               ########5$$$$$$$$$$$$$$$$$$$$$$$$$$$$$$$$$$$$$$$$$=##qqqqqqqqq qq qqq qqq q qqq q q qq  qq    q q   q   @q q@  @q q@  q@ @    @ @    @ @  @ @  @ @@  @ @  @ @ @ @ @@ @ * @@ @ *@@@ * @@@ * *@ @* * * *@* *@@*@ *@*@* *@*@*@@*@*@@@*@*@@**@**@****@*@****@****@**************************2******2***2****2*2****2*2**2*2*2*2*2*2*2*2*22*22*2*222*22222*222222*222222222222222222222222252222*2&=&&&&&&&&&&&&&&&&&&&&&&&&&&==5#       ###############               ###############               ###############               ###############               ###############               ###############               ###############               ###############               ",
"###############               ###############               ###############               ###############               ###############               ###############               ###############               ###############               #########@$$$$$$$$$$$$$$$$$$$$$$$$$$$$$$$$$$$$$$$$$$5##qqqqqqqqqqqqqqqqq qqq  q q q q qq   q q q@q q  q q    q q @   q@  q  @   q@ @  @  @    @ @  @@ @  @ @ @ @@ @ @@@ @ @@@@ @ @@@ * @* * @* @@@@@@* @@* * **@@@@@*@*@@@*@*@@***@*@***@*@**@*@@***@*@****@****@*********************************1**2*2***2*2*2**2*2**2*2*2*2*2*2*2*2*2*222*2*22*2*222*2*22222222222222222222222222222222@0==&&&&&&&&&&&&&&&&&&&&&&&&&&==*#        ###############               ###############               ###############               ###############               ###############               ###############               ###############               ###############               ",
"###############               ###############               ###############               ###############               ###############               ###############               ###############               ###############               ###########$$$$$$$$$$$=$$$$$$$$$$$$$$$$$$$$$$$$$$$$$$8##qqqqqqqqqqqq q qqq qqqq qq qq q qqq q q q   q q@q q q@   q  @  q@ @q  @ @   @  @  @ @   @ @  @ @@  @ @ @ @ @  @@@@ @ @@@@ @@@ * @@@@@ *@@* * @*@@@@*@@ *@* *@@@*@* *@*@@@@*@*@@@*@*@*@***@*@***@*@****@****@*************************2***********2****2**2**2*2***2*2*2*2*2*2*2*2*2*222*2222*2*2222*22*222*222222222222222222222**%=&&&&&&&&&&&&&&&&&&&&&=&&&=&=&q#         ###############               ###############               ###############               ###############               ###############               ###############               ###############               ###############               ",
"               ###############               ###############               ###############               ###############               ###############               ###############               ###############               ###############          q#&$$$$$$$$$$$$$$$$$$$$$$$$$$$$$$$$$$$$$$$$$$*##qqqqqqq qqqqqqqqqqqq qqq q qq q q q q q qq   q q@q  qq@q@q q    q @q  q @     @  @  @ @   @ @  @@ @ @ @ @@ * @  * @@ @ * @ @@ * @ *@@ @ * *@ * *@@ @*@@@* *@* @@*@*@@**@*@@***@*@**@*@@***@*@***@*@****@****@*******************2******2**2**2****2**2**2**2**2*2**2*2*2*2*2*2*22*2**22*2*22222*22*222*2222222222222222222222@4==&&&&&&&&&&&&&&&&&&&=&&&&=&&$o############               ###############               ###############               ###############               ###############               ###############               ###############               ###############               ###############",
"               ###############               ###############               ###############               ###############               ###############               ###############               ###############               ###############           q#.$$$$$$$$$$$$$$$$$$$$$$$$$$$$$$$$$$$$$$$$$$8##qqqqqqqqqqqqqqq q qqq qqqq q qq q q q q  qq    q q@q q q @q@q  @q  @q@ q @ @q  @  @   @ @  @ @  @ @ @ @ @ @ @ @ @ @@ * @@@@ @@@@@ @ *@@@@ *@@@ * *@@ * *@@@*@*@@@* *@@*@*@@@@*@*@@**@*@@**@**@****@*@****@****@*******************************2*2*****2**2**2**2*2***2*2*2*2*2*2*222*2*22*2*2*22222*222*222*22222222222222*@8==&&&&&=&&=&&=&&=&&=&&&&=&&&=$7#############               ###############               ###############               ###############               ###############               ###############               ###############               ###############               ###############",
"               ###############               ###############               ###############               ###############               ###############               ###############               ###############               ###############            q#8$$$$$$$$$$$$$$$$$$$$$$$$$$$$$$$$$$$$$$$$$$$@##qqqqqqqqqqqqqqqqqqqqqq q qqq qq qq q qq   qqq   q      q q @q q@ q@q  @ q  @     @ @   @ @   @ @ @ @ @ @ @ @@ @@ @ @ @ @ @@ @ @ *@@ @ @* @ *@@@* @*@@* * * * *@@*@@* *@@**@*@@**@@*@***@*@*@*@*@***@*@****@****@*************************2********2**2***2**2***2*2*2**2*2*2*2*2**2*2*2*22*22*2*22*2222*2222*2222222222*2&=&&&&=&&&&&&&&&&&&&&&&=&&&&&=$9##############               ###############               ###############               ###############               ###############               ###############               ###############               ###############               ###############",
"               ###############               ###############               ###############               ###############               ###############               ###############               ###############               ###############             q#4$$$$$$$$$$$$$$$$$$$$$$$$$$$$$$$$$$$$$$$$$$$0##qqqqqqqqqqqqqqqqqq qqqqqq qq qq qq q qqqq   qq  q q q    qq   q    @q q@  q@ @q@q  @ @   @ @   @ @  @ @ @ @ @ @ @@ @ * * @@@@@@ @ *@@ @@@@ @ * *@ * @*@@@*@* * *@* *@*@@@*@*@@@**@*@@@*@*@*@*@**@****@*@****@****@****************************2*******2***2**2**2**2*2**2*2*2*2*2*2*2*2*22*22*2*222*2222*2222*222222* 0==&&&&&&&&&&&&=&&=&&=&&&&&=&==$4###############               ###############               ###############               ###############               ###############               ###############               ###############               ###############               ###############",
"               ###############               ###############               ###############               ###############               ###############               ###############               ###############               ###############              q#1$$$$$$$$$$$=$$$$$$$$$$$$$$$$$$$$$$$$$$$$$$$$q##qqqqqqqqqqqqqqqqqqqqq qqq qq qq q qq   qqq   q q q  q q@   q@   q q@ q@q@ q    @      @   @ @   @ @  @ @ @ @ @ @ @@ @ @@ @ @ @@@ @ * * @@*@@@ @* *@@ *@@ @@*@* *@* * ** *@@**@*@@***@*@***@*@*@*@*@***@*@****@****@*******************************2***2***2**2**2***2*2**2*2*2*2*2*2*2*2*2*222*2*22*2*222*222*22*@2&=&&&=&&=&&&=&=&&&&&=&&&&=&=&&==2################               ###############               ###############               ###############               ###############               ###############               ###############               ###############               ###############",
"               ###############               ###############               ###############               ###############               ###############               ###############               ###############               ###############               ##q$$$$$$$$$$$$$$$$$$$$$$$$$$$$$$$$$$$$$$$$$$$$4##qqqqqqqqqqqqqqqqqqqqqqqqqqqq qqq q qqq  qqqq   q q  q qq@q qq @q@ q     q@ @  q@ @ @q@ @   @ @  @ @ @  @ @ @ @ @ @ @ @ @ * @ @@@@@ @@@ @ @@@* @@@ *@ * *@@ @@* *@*@*@ *@*@@@@@*@@@@*@*@@@*@*@*@*@**@****@*@****@****@********************2****2********2***2***2*2***2*2**2*2*2*2*2*2*22*2*2*222*22222*222222**@8$=&&=&&&&&&=&&&&&=&=&&&=&=&&&==&@# ###############               ###############               ###############               ###############               ###############               ###############               ###############               ###############               ###############",
"               ###############               ###############               ###############               ###############               ###############               ###############               ###############               ###############               ####=$$$$$$$$$$$$$$$$$$$$$$$$$$$$$$$$$$$$$$$$$$$=q##qqqqqqqqqqqqqqqqqqqqqqqq qqqq qqq q qqq   qqqq  q q   q q@  q q      q@ q q @  q     q@ @   @  @   @ @  @ @ @ @ @ @ @ @ @ * @  @@@ @ * * @ @@@@@ *@@@* *@*@@@@@@@@@*@* *@*@*@@**@*@@***@*@***@*@*@*@*@***@*@****@****@****************************2****2***2****2*2*2**2*2**2*2*2*2*2*2*222*2*2*2*2*222*2** 6==&&=&&&=&=&=&&&=&=&&&=&=&=&&=&$%##  ###############               ###############               ###############               ###############               ###############               ###############               ###############               ###############               ###############",
"               ###############               ###############               ###############               ###############               ###############               ###############               ###############               ###############               #####7$$$$$$$$$$$$$$$$$$$$$$$$$$$$$$$$$$$$$$$$$$$$0###qqqqqqqqqqqqq qqqq qqqqq qqqq qqqq  qqqq   qqq  q q  q qq    q@q q@ q @q@q q@ @q@ @    @ @  @ @ @  @ @  @ @ @ @ @@ @ @@ @ @@@ @ * * @ @@@@ @@@@ @ * * @ * * * * * *@@* * *@* *@*@*@@@*@*@@@*@*@*@*@**@****@*@****@****@**********************2*********2***2*******2***2*2*2*2*2*2*2*2**22*22*22*2*2*2*@2&==&=&&&=&&&&&&=&=&&&=&=&&&&&=&=$7#q   ###############               ###############               ###############               ###############               ###############               ###############               ###############               ###############               ###############",
"               ###############               ###############               ###############               ###############               ###############               ###############               ###############               ###############               ######4$$$$$$$$$$$=$$$$$$$$$$$$$$$$$$$$$$$$$$$$$$$$$5##qqqqqqqqqqqqqqqqqqqqqqqqqq qqqqq qqq q qqqq  qqq q q q   q q q@q q   q   @  q    q  @     @     @  @  @ @ @ @ @  @ @ @ @@ @ @@@ @ @@@@@ * * * @*@@@ *@* * *@@@* *@@* *@*@@@*@* *@@*@*@@***@*@***@*@*@*@*@*****@****@******************************2*****2***2*2*2**2*2***2**2**2*2*2*2*2*2*222*2*22*@@8$=&&&&=&=&&=&=&=&&&=&=&&&&=&=&==$4#q    ###############               ###############               ###############               ###############               ###############               ###############               ###############               ###############               ###############",
"               ###############               ###############               ###############               ###############               ###############               ###############               ###############               ###############               #######@$$$$$$$$$$$$$$$$$$$$$$$$$$$$$$$$$$$$$$$$$$$$$=q##q#qqqqqqqqqqqqqqqqqqqqqqqqq qqqq qq q q  qq  q qq   qq  q@q q @q q@  q q @q@q@q@  q@q@    @ @  @  @   @  @ @ @@ @ @ @ @ @ @ @@@@ @ @ * @ @ * @ @@@@ @@@@@ * *@@ * *@@ *@* *@*@*@@*@*@@@@*@*@@@*@*@*@*@**@@*@**@****@**@****************************************2****2*2**2*2*2**2*2*2*2*2**2222** 6===&=&=&&&&=&&=&&&=&=&&&=&=&=&&==&@#      ###############               ###############               ###############               ###############               ###############               ###############               ###############               ###############               ###############",
"               ###############               ###############               ###############               ###############               ###############               ###############               ###############               ###############               #########&$$$$$$$$$$$$$$$$$$$$$$$$$$$$$$$$$$$$$$$$$$$$$0###qq#qqqqqqqqqqqqqqqqqqqqqqqqq qqqqqqqqqqq qq q  qqq   q q q  qq@ qq q@  q       q@   q@q@  q@  @  @ @ @ @  @  @ @ @ @ @ @ @ @  @@ @@ @@@@@ @@@@@ @@* * @*@@@ @*@@@ ** * *@@@@@@* *@@**@*@@***@*@***@*@*****@**@*@*****@**@***********************2****2**2**2***2*2****2***2**2*2*2*2*2*2*2***@2&==&=&&&&=&=&&=&&=&=&&&=&=&=&=&&=$o##       ###############               ###############               ###############               ###############               ###############               ###############               ###############               ###############               ###############",
"               ###############               ###############               ###############               ###############               ###############               ###############               ###############               ###############               ##########8$$$$$$$$$$$$$$$$$$$$$$$$$$$$$$$$$$$$$$$$$$$$$$5##qqq#qqqqqqqqqqqqqqqqqqqqqqqqqq qq q q qq qq qq q qqq  q q    q q@q q q@q  q@q@ q  @     @     @      @  @ @ @  @ @ @ @ @ @ @@ @ @ @@ @ @@@ @ *@@ @@@@@ @@*@@ *@*@@@@*@@@* *@* *@*@@@*@*@@@@*@*@@@**@*@@*@**@***@*@*******@***************************************2*2***2**2**2**2**2*2*2**@@8$=&=&&=&=&&&=&=&=&&=&=&=&=&&&=&==$8#q        ###############               ###############               ###############               ###############               ###############               ###############               ###############               ###############               ###############",
"               ###############               ###############               ###############               ###############               ###############               ###############               ###############               ###############               ###########5$$$$$$$$$$$$=$$$$$$$$$$$$$$$$$$$$$$$$$$$$$$$$$= ##qqq#q#qqqqqqqqqqqqqqqqqqqqqqqqqqqqqqq qq qq q q q qq q  qqq   q q   q q@   q  @q q@q@  q@q@    @ @  @ @   @ @ @ @ @ @ @@ @ @ @@@ @ @@ @ * *  @@@ @ @@* @ @*@ @ @@@@ * *@* *@* * ** *@@**@*@@***@*@****@*@**@*@***@*@*@**@***@**************************2**2**2*****2**2**2**2*2*2*2*2** 6===&=&=&&=&=&=&&=&&=&=&&=&=&&==&===5#q         ###############               ###############               ###############               ###############               ###############               ###############               ###############               ###############               ###############",
"               ###############               ###############               ###############               ###############               ###############               ###############               ###############               ###############               ############q=$$$$$$$$$$$$$$$$$$$$$$$$$$$$$$$$$$$$$$$$$$$$$$0###qqqqq#qqqqqqqqqqqqqqqqqqqqqqqqq qqqqq qq qq qq q q qqq   qq    qq@q  qq  @q q @q  q @    @q@   @     @ @   @  @  @ @  @ @ @  @@ @ @@@ @ @@@@ @* * @ *@@@ @*@* * *@@@@ *@@@@*@*@ *@*@@@*@*@@@@*@*@@@**@*@**@**@**********@*************************************2****2**2**2***2**2** 2&===&&=&&=&&=&=&=&=&=&=&=&=&===&==$&@#           ###############               ###############               ###############               ###############               ###############               ###############               ###############               ###############               ###############",
"               ###############               ###############               ###############               ###############               ###############               ###############               ###############               ###############               ##############o$$$$$$$$$$$$$$$$$$$$$$$$$$$$$$$$$$$$$$$$$$$$$$$5###q#qqq#q#qqqqqqqqqqqqqqqqqq qqqqqq qqqqq qq q qq qq  qqq   qqq q q q@q@qq q@   q@ @q q@    q@    @ @   @ @ @ @ @ @ @ @ @ @@ @ @ @@  @@@@ @ @@ @ @@@ @ @@* @ * * * *@*@@@@* * *@* * ** *@@*@*@@*@**@*@*@*@**@*@*@@*@*@*@****@**@***************************2*****2*****2***2**2**@@8$==&&=&=&=&=&=&&=&=&=&=&=&==&=&&==$.#q            ###############               ###############               ###############               ###############               ###############               ###############               ###############               ###############               ###############",
"###############               ###############               ###############               ###############               ###############               ###############               ###############               ###############               ###############             q#6$$$$$$$$$$$$$$$$$$$$$$$$$$$$$$$$$$$$$$$$$$$$$$$$ ##qq#qqqqq#qqqqqqqqqqqqqqqqqqqqqqqqqq qqqqqqqqq q qqq  qqqq   q q q q q    qq@q  q  @q q@q@  q@ @q  @       @   @ @ @ @ @  @ @ @ @@@  @ @@@ @@@@@ @* * @ *@@@@@@@@ @ * * @@@*@@@*@*@@*@*@*@@*@*@@@*@*@*@*@**@****@*@****@*******@*****************************2****2****2**2**@q6=$=&&=&=&=&=&==&==&=&=&=&=&=&=&=&==$6###############               ###############               ###############               ###############               ###############               ###############               ###############               ###############               ###############               ",
"###############               ###############               ###############               ###############               ###############               ###############               ###############               ###############               ###############               #q=$$$$$$$$$$$=$$$$$$$$$$$$$$$$$$$$$$$$$$$$$$$$$$$8###qqqq#qqq#q#qqqqqqqqqqqqqqqqqqqqqqqq qq qq q qqq  qqq   qq q  q q  q qq   q q    q@q@   q@ @q  @   @ @ @   @ @    @ @ @ @ @ @ @  @@ @ @ @@ @ @@@ @ @@@@ @ * @@ *@*@@@@*@* @@* * * * * *@* *@@*@*@@*@*@*@**@*@@***@*@**@*@*@*****@**********************************2*****@q4=$==&====&=&=&=&=&=&=&=&==&==&=&=&=$&@################               ###############               ###############               ###############               ###############               ###############               ###############               ###############               ###############               ",
"###############               ###############               ###############               ###############               ###############               ###############               ###############               ###############               ###############               ###7$$$$$$$$$$$$$$$$$$$$$$$$$$$$$$$$$$$$$$$$$$$$$$$$8####qqqqqqqqq#qqqqqqqqqqqqqqqqqqqqqqqqqqq qqqq qqq q qqq q qqq  q q  @q q  @q@qq@q  q  @q q  @q  @q @q @ @    @ @  @  @ @ @ @ @ @ @ @@ @ @@ * @ * * @ @@@@ * *@ @ * * @ *@* @@@*@@@*@* *@*@*@* *@*@*@*@*@@*@**@*@**@*@*****@**@***@**************************2***2*****@q4=$=&=&=&&=&=&=&=&=&=&=&==&=&=&==&===$7## ###############               ###############               ###############               ###############               ###############               ###############               ###############               ###############               ###############               ",
"###############               ###############               ###############               ###############               ###############               ###############               ###############               ###############               ###############               ####-$$$$$$$$$$$$$$$$$$$$$$$$$$$$$$$$$$$$$$$$$$$$$$$$$8###q#q#qq#qqq#q#qqqqqqqqqqqqqqqqqqqqqqqqqqqqqq qqqq q qqqq  qqq@q qqq@q qq q  q q  @q q@q@  q@ q@   @    @ @  @ @  @ @ @  @ @ @ @ @ @ @ @ @ @@ @ @@@@@ @@@@@ @*@ * @*@@@ @*@* @@* * *@@@* *@*@* *@*@*@**@*@@*@*@*@**@*@@**@**@******@******************************@q4=$=&==&=&=&=&=&==&==&=&==&=&=&=&=&=&$=5#q  ###############               ###############               ###############               ###############               ###############               ###############               ###############               ###############               ###############               ",
"###############               ###############               ###############               ###############               ###############               ###############               ###############               ###############               ###############               ######%$$$$$$$$$$$$$$$$$$$$$$$$$$$$$$$$$$$$$$$$$$$$$$$$$0###qq#qqqqqqqqq#qqqqqqqqqqqqqqqqqqqqqqqqq qqqqq qqqq q qqq  qqq q  q q@q q q@  q q     q @q     @q  @q@q  @    @  @  @ @ @ @ @ @ @ @@ @ @@ @@@@ @ @ * @ @@@@ @@@@@ @@*@@ @@*@@ *@@@* * *@@@*@*@@@*@*@@*@**@*@*@**@****@***@**@*@****@**************************@q4=$=&==&=&==&=&==&=&=&=&==&=&==&======$.##    ###############               ###############               ###############               ###############               ###############               ###############               ###############               ###############               ###############               ",
"###############               ###############               ###############               ###############               ###############               ###############               ###############               ###############               ###############               #######6$$$$$$$$$$$$=$$$$$$$$$$$$$$$$$$$$$$$$$$$$$$$$$$$$$0###qqq#q#qq#qqq#q#qqqqqqqqqqqqqqqqqq qqqqqq qqqqq qqq q qqq  q qq q q q   qqq@  q@q q@q q@q@q q @    @ @   @  @  @  @  @  @ @ @ @ @ @ @ @ @  @ @@ @ * * @ * * @ *@@  *@* @ @* * * *@*@@@* * ** *@@@*@*@@*@*@*@@*@*@@*@*@*@*****@****@**********************@q5=$=&===&=&=&=&==&==&==&===&===&==&=&==$6#q     ###############               ###############               ###############               ###############               ###############               ###############               ###############               ###############               ###############               ",
"###############               ###############               ###############               ###############               ###############               ###############               ###############               ###############               ###############               ########q=$$$$$$$$$$$$$$$$$$$$$$$$$$$$$$$$$$$$$$$$$$$$$$$$$$0###qqqq#qqqqqqqqq#qqqqqqqqqqqqqqqqqqqqqqqqqq qqqq qqqq q qqq q qq q q qq@q qq q   q    q q@ @qq @q@q   @   @  @  @  @  @ @  @ @ @ @ @ @ @@@@ @ * @ @ @@@ @@@@@ @@*@ @ *@*@@@@@@@@ * *@@*@*@@*@*@* *@*@*@*@*@*@*@***@****@*@*@**@****@******************@q5&$==&=&=&=====&==&==&==&==&==&=&======$%@#q      ###############               ###############               ###############               ###############               ###############               ###############               ###############               ###############               ###############               ",
"###############               ###############               ###############               ###############               ###############               ###############               ###############               ###############               ###############               ##########8$$$$$$$$$$$$$$$$$$$$$$$$$$$$$$$$$$$$$$$$$$$$$$$$$$$0###q#qqq#q#qq#qqq#q#qqqqqqqqqqqqqqqqqqqqqqqqq qqq q qqqq qq qq q q q  q q q@q qq@q@q   @q q  @q    @q q@     @  @  @ @  @ @ @  @ @ @ @ @  @@ @ @@@@@ @@@ @ * * @ @*@@ @ * *@@@*@@* *@@@@ * * @@*@*@@@*@*@*@*@*@@**@*@@*@***@**@*@***@*@************@q5&$==&====&==&=&==&===&=======&=====&===$8#q        ###############               ###############               ###############               ###############               ###############               ###############               ###############               ###############               ###############               ",
"###############               ###############               ###############               ###############               ###############               ###############               ###############               ###############               ###############               ###########1$$$$$$$$$$$$$$$$$$$$$$$$$$$$$$$$$$$$$$$$$$$$$$$$$$$$0###q#qqqq#qqqqqqqqq#qqqqqqqqqqqqqqqqqqqqqqqqqqqqqqq q qq qq qq q qqq  q q q@q qq q@qq   @q q@q@q q@ @q @q@ q @  @   @  @  @ @ @ @ @ @ @@ @ @@  @ @ @ @@ * @ * * @ *@@@ @@ * @ * * @@*@*@@*@*@@@* ** *@*@*@*@**@@*@***@*@***@****@*****@******** q5&$======&====&=======&===&=&=&===&==&==$=2#q         ###############               ###############               ###############               ###############               ###############               ###############               ###############               ###############               ###############               ",
"###############               ###############               ###############               ###############               ###############               ###############               ###############               ###############               ###############               #############7$$$$$$$$$$$$=$$$$$$$$$$$$$$$$$$$$$$$$$$$$$$$$$$$$$$$0####q#qq#q#q#qq#qqq#q#qqqqqqqqqqqqqqqqqqqqqqqqq qqqqq qq qq qqqq  qqq  q qq   q q q@qq q@q  q @   q@   q@ @      @  @  @  @  @ @ @ @ @ @ @ @@ @ @ * @@ @@@ @ * * @ @@* * *@*@@@* * * @* * * *@* *@*@@@@*@*@@**@*@@**@*@*@**@*@***@*@****@** q5&$=====&=&===&====&=&=&===&======&==&===$7##           ###############               ###############               ###############               ###############               ###############               ###############               ###############               ###############               ###############               ",
"###############               ###############               ###############               ###############               ###############               ###############               ###############               ###############               ###############               ##############1=$$$$$$$$$$$$$$$$$$$$$$$$$$$$$$$$$$$$$$$$$$$$$$$$$$$$0####q#qqqqq#qqqqqqqqq#qqqqqqqqqqqqqqqqqqqq qqqqq qqqq qq qq@q qq  qqq q  q q@q  q   q q  q@qq    q @q@  q@ @ @q @   @  @  @  @  @ @ @ @ @ @ @@ @ @ @@ @ * @@ @@@* @ * @@ @ * @@@@@@* *@*@* *@*@@@*@*@@@*@*@@*@*@*@**@*@*@***@*@****@*@* #5&$=====&=====&===&========&===&=&=======$&1#q            ###############               ###############               ###############               ###############               ###############               ###############               ###############               ###############               ###############               ",
"###############               ###############               ###############               ###############               ###############               ###############               ###############               ###############               ###############               ################8$$$$$$$$$$$$$$$$$$$$$$$$$$$$$$$$$$$$$$$$$$$$$$$$$$$$$&*###q#q#qq#q#q#qq#qqq#q#qqqqqqqqqqqqqqqqqqqqqqqq qqqqqq qqqq qqqq  q qq q qq q qq@q @q  q@q@q@q@q   q@   q   @   @  @  @  @  @ @  @ @ @ @ @ @ @@ @ @@ @@ @@@ @ @@@@@@@@@@@@* * * @@@@@ @* * @@* * *@*@* *@*@*@*@*@*@*@**@@*@***@*@@qq6=$=====&===&=&===&==&==&==&===&=====&===$$9##              ###############               ###############               ###############               ###############               ###############               ###############               ###############               ###############               ###############               ",
"###############               ###############               ###############               ###############               ###############               ###############               ###############               ###############               ###############               ###############q#@&$$$$$$$$$$$$$$$$$$$$$$$$$$$$$$$$$$$$$$$$$$$$$$$$$$$$$$4####q#qqqqqq#qqqqqqqqq#qqqqqqqqqqqqqqqqqqqqqqqqqq qqqq q qq q qqq q@qq   q q  q qq  q  q q   q@q@ q  @ @q@q @   @  @  @ @   @ @  @ @ @ @ @ @ @ @ @ @ @@ @@@@ @ @ * @ * @@@@@@* * *@*@ *@*@* *@* * *@*@* *@*@*@*@*@*@***@*@*@@ q*8$$=====&===&=====&=======================$%q##               ###############               ###############               ###############               ###############               ###############               ###############               ###############               ###############               ###############               ",
"###############               ###############               ###############               ###############               ###############               ###############               ###############               ###############               ###############               ###############  q#0$$$$$$$$$$$$=$$$$$$$$$$$$$$$$$$$$$$$$$$$$$$$$$$$$$$$$$$0q##q#q#q#qq#q#q#qq#qqq#q#qqqqqqqqqqqqqqqqqqqqqqqq qqqqqqq qq q qqqq qqq q  q q   q@q     q@  q q@q@q q  @  q@      @   @ @ @  @ @ @ @ @ @ @ @ @ @@@ * @ @ @@@@@ * * @@ * @@ * * @ *@* * @* * *@*@* *@*@* *@@*@*@*@*@@***@qq4&$$==========================&===&========$$6####               ###############               ###############               ###############               ###############               ###############               ###############               ###############               ###############               ###############               ",
"###############               ###############               ###############               ###############               ###############               ###############               ###############               ###############               ###############               ###############   q#q%$$$$$$$$$$$$$$$$$$$$$$$$$$$$$$$$$$$$$$$$$$$$$$$$$$$$$$$=2###q#q#qqqqqq#qqqqqqqqq#qqqqqqqqqqqqqqqqqqqqqqqqqq qqqqq qqq q qq q q qq q@qqq q qq q@qq q@q  q  @  q  @  q@ @   @       @   @  @  @ @ @ @@ @  @ @ @@ *  @ * @@ * * @@@@@@@@@* @ @@@*@@@*@@@ * *@@@*@*@* *@*@*@***@ q@0$$=================&=====&==&===========&==$o######               ###############               ###############               ###############               ###############               ###############               ###############               ###############               ###############               ###############               ",
"               ###############               ###############               ###############               ###############               ###############               ###############               ###############               ###############               ###############               #######4$$$$$$$$$$$$$$$$$$$$$$$$$$$$$$$$$$$$$$$$$$$$$$$$$$$$$$$$$4####q#q#q#qq#q#q#qq#qqq#q#qqqqqqqqqqqqqqqqqqqqqqqq q qqqq qqq qq qqq@q qqq   q q@q qq   q  q@q qq@ @q q @  q@ @q @ @ @  @ @ @ @ @ @ @ @  @ @@@ @ @ @ * * @ @@ @@ * * @ * @@ @@*@* @ *@@ *@*@* *@* * *@*@* *@*@@q#5%$$=========================================$$4#q     ###############               ###############               ###############               ###############               ###############               ###############               ###############               ###############               ###############               ###############",
"               ###############               ###############               ###############               ###############               ###############               ###############               ###############               ###############               ###############               #########.$$$$$$$$$$$$=$$$$$$$$$$$$$$$$$$$$$$$$$$$$$$$$$$$$$$$$$$$$8q###q#q#q#qqqqq#qqqqqqqqq#qqqqqqqqqqqqqqqqqqqqqqqqqqq qqq qq qq qqqq q q qq@q q q@ qq     q @q@qq  @q@q @q q @     @ @     @   @ @ @ @@ @  @ @@ @ @ @ @@@ @@ @@ @ * * @@@* * @ *@* @*@ * @@* * *@*@@@* *@@ qq0=$$============&=============================$.##       ###############               ###############               ###############               ###############               ###############               ###############               ###############               ###############               ###############               ###############",
"               ###############               ###############               ###############               ###############               ###############               ###############               ###############               ###############               ###############               ##########@=$$$$$$$$$$$$$$$$$$$$$$$$$$$$$$$$$$$$$$$$$$$$$$$$$$$$$$$$$=2####qqq#q#q#qqq#q#qq#qqq#q#qqqqqqqqqqqqqqqqqqqqqqqqqqqqqqqq qq q qqq q qq q q qq@q@q qq@q q  q@q q   q  @  q@q@     @ @   @ @    @   @ @ @ @ @ @ @ @  @@ @@ @@@@@ @* @ @ @@* @ * @ *@@*@@@*@@* * *@*@ #28$$====================&======================$&1#q        ###############               ###############               ###############               ###############               ###############               ###############               ###############               ###############               ###############               ###############",
"               ###############               ###############               ###############               ###############               ###############               ###############               ###############               ###############               ###############               ############4$$$$$$$$$$$$$$$$$$$$$$$$$$$$$$$$$$$$$$$$$$$$$$$$$$$$$$$$$$$8*####qq#qq#q#qqq#qqqqqqqqq#qqqqqqqqqqqqqqqqqqqqqqqqq q qqqq qqq q qqq q q q q q qq@q q    q q@q@q q@  q @    q@q@    @ @   @ @  @@ @  @ @ @ @ @@ @@@ @ * @@  @ * @ *@@* @ *@@@@*@ * @ * * * *@*  q#4=$$===========================================$=4##          ###############               ###############               ###############               ###############               ###############               ###############               ###############               ###############               ###############               ###############",
"               ###############               ###############               ###############               ###############               ###############               ###############               ###############               ###############               ###############               ##############8$$$$$$$$$$$$$$$$$$$$$$$$$$$$$$$$$$$$$$$$$$$$$$$$$$$$$$$$$$$$0@###q#qq#qq#qqqq#q#qq#qqq#q#qqqqqqqqqqqqqqqqqq qqqqqqq qqqq qqq q qqq q q q q  q q  qqq@  q q@q@q q@q q@q@ @ q@q@    @ @  @ @    @ @  @ @ @ @ @ @ @ @ @ @@@@ @@@@ @ @@@@ * * @@@@@*@@@@@@  q#58$$============================================$$8##            ###############               ###############               ###############               ###############               ###############               ###############               ###############               ###############               ###############               ###############",
"               ###############               ###############               ###############               ###############               ###############               ###############               ###############               ###############               ###############               ###############qo$$$$$$$$$$=$$$$$$$$$$$$$$$$$$$$$$$$$$$$$$$$$$$$$$$$$$$$$$$$$$0 ####qq#q#q#qqqq#qqqqqqqqq#qqqqqqqqqqqqqqqqqqqqqqqqqq qqqq qqqq q qqq q qqq q q q@q qq    q q@q@q     q q@    @q@q   @    @ @  @ @ @  @ @ @ @ @ @ @ @ @ @@ @ @@@@ @ * @ @@* * @ * *  q#58$$$============================================$$.##q             ###############               ###############               ###############               ###############               ###############               ###############               ###############               ###############               ###############               ###############",
"               ###############               ###############               ###############               ###############               ###############               ###############               ###############               ###############               ###############               ###############q#2=$$$$$$$$$$$$$$$$$$$$$$$$$$$$$$$$$$$$$$$$$$$$$$$$$$$$$$$$$$$$$$0q####qq#q#q#qq#q#q#qq#qqq#q#qqqqqqqqqqqqqqqqqqqqqqqqq qqq q qqq q qqqq  q q  q q q@q qq    q  q@q@q @   q@q   @ @   @ @   @ @   @ @ @  @ @  @@ @@ @ @  * @@  @@@@ @@@* @ * *@ q##58$$$$===$========================================$$&1##               ###############               ###############               ###############               ###############               ###############               ###############               ###############               ###############               ###############               ###############",
"               ###############               ###############               ###############               ###############               ###############               ###############               ###############               ###############               ###############               ###############  ##6$$$$$$$$$$$$$$$$$$$$$$$$$$$$$$$$$$$$$$$$$$$$$$$$$$$$$$$$$$$$$$$$4####qq#qq#qqqqqq#qqqqqqqqq#qqqqqqqqqqqqqqqqqqqqqqqqqqqqqqq qqqq q qqq q qq q  q q  @qq q@q  q q@qq  @q  @q  q  @q   @ @   @ @   @ @ @ @ @  @ @@ @ @@ @ @@@ @ * @ @ @@@ @q##57$$$$=========$===================================$$$4####               ###############               ###############               ###############               ###############               ###############               ###############               ###############               ###############               ###############               ###############",
"               ###############               ###############               ###############               ###############               ###############               ###############               ###############               ###############               ###############               ###############    ##7$$$$$$$$$$$$=$$$$$$$$$$$$$$$$$$$$$$$$$$$$$$$$$$$$$$$$$$$$$$$$$$$=4#####qq#q#q#qq#q#q#qq#qqq#q#qqqqqqqqqqqqqqqqqqqqqqqqq qqqqq qqq q qqqq q qqq q qqq@q qq@q   q@q@q q@  q@  @ q@ @   q@ @    @ @   @  @ @@ @  @ @ @ @@@  @@@ @ @@@@ q##57$$$$===============$==============================$$$8######               ###############               ###############               ###############               ###############               ###############               ###############               ###############               ###############               ###############               ###############",
"               ###############               ###############               ###############               ###############               ###############               ###############               ###############               ###############               ###############               ###############     q#q7$$$$$$$$$$$$$$$$$$$$$$$$$$$$$$$$$$$$$$$$$$$$$$$$$$$$$$$$$$$$$$$$$$0@#####q#q#qqqqqq#qqqqqqqqq#qqqqqqqqqqqqqqqqqqqq qqqqq qqqq qqqq q@qqq q@qq q  q q   q q q  q  q@qq@ q @q @q q@ @    @ @   @ @  @ @   @ @@  @ @ @  @@  @@@@  q##57$$$$=======$==$==========$====$====$====$=====$====$$$7########               ###############               ###############               ###############               ###############               ###############               ###############               ###############               ###############               ###############               ###############",
"               ###############               ###############               ###############               ###############               ###############               ###############               ###############               ###############               ###############               ###############       q#q.$$$$$$$$$$$$$$$$$$$$$$$$$$$$$$$$$$$$$$$$$$$$$$$$$$$$$$$$$$$$$$$$$$$&4q####q#q#q#qq#q#q#qq#qqq#q#qqqqqqqqqqqqqqqqqqqqqqqqq qqq q qqq q qqqq q qq  q q q q@q q@q  q   q  q   q@   q@q@   q@ @    @   @ @ @  @@ @ @ @ @ @@  q##q5%$$$$$===$==$========$==$=======$====$====$=====$====$$$7##########               ###############               ###############               ###############               ###############               ###############               ###############               ###############               ###############               ###############               ###############",
"               ###############               ###############               ###############               ###############               ###############               ###############               ###############               ###############               ###############               ###############         q# o$$$$$$$$$$$=$$$$$$$$$$$$$$$$$$$$$$$$$$$$$$$$$$$$$$$$$$$$$$$$$$$$$$$$$82#####q#q#qqqqq#qqqqqqqqq#qqqqqqqqqqqqqqqqqqqqqqqqqqqqqqq qqqq q qqq q qq q q q q q q q@q q@q@q@q  @q  q@   q@ @   @ @  @ @ @  @ @  @ @ @ @  q##q58=$$$$=$==========$==$========$=$=================$====$$$7############               ###############               ###############               ###############               ###############               ###############               ###############               ###############               ###############               ###############               ###############",
"               ###############               ###############               ###############               ###############               ###############               ###############               ###############               ###############               ###############               ###############           q#@o$$$$$$$$$$$$$$$$$$$$$$$$$$$$$$$$$$$$$$$$$$$$$$$$$$$$$$$$$$$$$$$$$$$$$$$0*#####q#q#qq#q#q#qq#qqq#q#qqqqqqqqqqqqqqqqqqqqqqqq qqqqq qq qq qq qq q q q  q q  q qq@ q q q@  q q@   q @   q@     @      @    @  @  q##q58=$$$$$$======$=$=$=$==$====$=$=$=======$==$==$==$==$====$$$.q#############               ###############               ###############               ###############               ###############               ###############               ###############               ###############               ###############               ###############               ###############",
"               ###############               ###############               ###############               ###############               ###############               ###############               ###############               ###############               ###############               ###############             ##q%$$$$$$$$$$$$$$$$$$$$$$$$$$$$$$$$$$$$$$$$$$$$$$$$$$$$$$$$$$$$$$$$$$$$$$$$&4q#####q#qqqqq#qqqqqqqqq#qqqqqqqqqqqqqqqqqqqqqqqqqq qqqqq qq qq qqq q qqq@q q q@q qq    qqq@   q @q@q q@ @q @q@   @ @ @ @ @   q##q58$$$$$$=$====$=$==========$==$========$=$=$===$=====$=====$=$$o@###############               ###############               ###############               ###############               ###############               ###############               ###############               ###############               ###############               ###############               ###############",
"               ###############               ###############               ###############               ###############               ###############               ###############               ###############               ###############               ###############               ###############               ##@%$$$$$$$$$$$$$=$$$$$$$$$$$$$$$$$$$$$$$$$$$$$$$$$$$$$$$$$$$$$$$$$$$$$$$$$$$$802#######qq#q#q#qq#qqq#q#qqqqqqqqqqqqqqqqqqqqqqqqq qqq qq qq q qqqq  qq q q q q@q qq @ qq q@ q    @q q@      @       qq##q58$$$$$$$$==$===$====$=$=$=$=$=====$=$=$=$=======$===$=$====$=$$$o*#q###############               ###############               ###############               ###############               ###############               ###############               ###############               ###############               ###############               ###############               ###############",
"###############               ###############               ###############               ###############               ###############               ###############               ###############               ###############               ###############               ###############               ###############  ##1%$$$$$$$$$$$$$$$$$$$$$$$$$$$$$$$$$$$$$$$$$$$$$$$$$$$$$$$$$$$$$$$$$$$$$$$$$$$$$&02######qqq#qqqqqqqqq#qqqqqqqqqqqqqqqqqqqqqqqqqqqqqqqq qqq q@qqq q q q q q q @q qq@  q q@q  q    q q@ @q qqq#### 48$$$$$$$=====$==$=$==$========$===$=$=========$=$=$===$====$=$=$$$o@####               ###############               ###############               ###############               ###############               ###############               ###############               ###############               ###############               ###############               ###############               ",
"###############               ###############               ###############               ###############               ###############               ###############               ###############               ###############               ###############               ###############               ###############    q#@.$$$$$$$$$$$$$$=$$$$$$$$$$$$$$$$$$$$$$$$$$$$$$$$$$$$$$$$$$$$$$$$$$$$$$$$$$$$$$$$$&02######q#q#qq#qqq#q#qqqqqqqqqqqqqqqqqqqqqqqq q qqqq qqq q qqq q q q q qq q  qqq   q q @q@q  @ qq#### 208=$$$$$$$$$==$=$=$==$===$=$=$=$=$=$===$=====$=$=$=$=======$===$===$$$7q######               ###############               ###############               ###############               ###############               ###############               ###############               ###############               ###############               ###############               ###############               ",
"###############               ###############               ###############               ###############               ###############               ###############               ###############               ###############               ###############               ###############               ###############      q##8$$$$$$$$$$$$$$$$$$$$$$$$$$$$$$$$$$$$$$$$$$$$$$$$$$$$$$$$$$$$$$$$$$$$$$$$$$$$$$$$$$$&02#########qqqqqq#qqqqqqqqqqqqqqqqqqqqqqqqqqq qqq qqqq q qqq q q q  q q   @qq    q qqq####q208=$$$$$$$$$$=$===$=$=$=$=$=$=$===$==$==$=$=$=$=$=$=====$==$=$=$==$=$=$$$$8#########               ###############               ###############               ###############               ###############               ###############               ###############               ###############               ###############               ###############               ###############               ",
"###############               ###############               ###############               ###############               ###############               ###############               ###############               ###############               ###############               ###############               ###############        q##0$$$$$$$$$$$$$$=$$$$$$$$$$$$$$$$$$$$$$$$$$$$$$$$$$$$$$$$$$$$$$$$$$$$$$$$$$$$$$$$$$$$$$$$=842 ########q#q#qqqqqqqqqqqqqqqqqqqqqqqqqqqqqqq qqq q qqq q qqq q qqqqq#######q268=$$$$$$$$$$$=$=$=$==$=$=$=$==$=$=$=$=$=$=$=$====$===$==$=$=$==$=$==$=$==$$$=6###########               ###############               ###############               ###############               ###############               ###############               ###############               ###############               ###############               ###############               ###############               ",
"###############               ###############               ###############               ###############               ###############               ###############               ###############               ###############               ###############               ###############               ###############          q##4&$$$$$$$$$$$$$$$$$$$$$$$$$$$$$$$$$$$$$$$$$$$$$$$$$$$$$$$$$$$$$$$$$$$$$$$$$$$$$$$$$$$$$$$$$$$$&042 #############qqqqqqqqqqqqqqqqqqq qqqq qqqq qqqqq#########q*24087=$$$$$$$$$$$$=$=$=$=$=$=$=$=$=$==$=$==$==$=$==$=$=$$=$=$=$=$=$=$=$=$===$==$=$$$&3#############               ###############               ###############               ###############               ###############               ###############               ###############               ###############               ###############               ###############               ###############               ",
"###############               ###############               ###############               ###############               ###############               ###############               ###############               ###############               ###############               ###############               ###############             ##1%$$$$$$$$$$$$$=$$$$$$$$$$$$$$$$$$$$$$$$$$$$$$$$$$$$$$$$$$$$$$$$$$$$$$$$$$$$$$$$$$$$$$$$$$$$$$$$$$$$&004452*@q##################################@25007=$$$$$$$$$$$$$$$$$$$$$=$$=$=$=$=$=$=$=$=$=$=$=$=$=$=$==$=$==$===$==$=$=$=$==$==$=$=$=$$$o2###############               ###############               ###############               ###############               ###############               ###############               ###############               ###############               ###############               ###############               ###############               ",
"###############               ###############               ###############               ###############               ###############               ###############               ###############               ###############               ###############               ###############               ###############               ##q7$$$$$$$$$$$$$$$$$$$$$$$$$$$$$$$$$$$$$$$$$$$$$$$$$$$$$$$$$$$$$$$$$$$$$$$$$$$$$$$$$$$$$$$$$$$$$$$$$$$$$$$$$$$$$$$$=&78000088888&&&&====$$$$$$$$$$$$$$$$$$$$$$$$$$$$$$=$==$$=$$=$$=$$=$=$=$=$=$=$=$=$=$=$=$=$==$=$=$=$=$==$==$=$=$=$=$=$$$$7@#################               ###############               ###############               ###############               ###############               ###############               ###############               ###############               ###############               ###############               ###############               ",
"###############               ###############               ###############               ###############               ###############               ###############               ###############               ###############               ###############               ###############               ###############               #####4&$$$$$$$$$$$$$$=$$$$$$$$$$$$$$$$$$$$$$$$$$$$$$$$$$$$$$$$$$$$$$$$$$$$$$$$$$$$$$$$$$$$$$$$$$$$$$$$$$$$$$$$$$$$$$$$$$$$$$$$$$$$$$$$$$$$$$$$$$$$$$$$$$$$$$$$$$$$$=$=$$=$$$=$=$=$=$$=$$=$$=$$=$$=$=$=$=$=$=$=$=$=$=$=$=$=$=$=$==$==$=$$$%6##q  ###############               ###############               ###############               ###############               ###############               ###############               ###############               ###############               ###############               ###############               ###############               ",
"###############               ###############               ###############               ###############               ###############               ###############               ###############               ###############               ###############               ###############               ###############               #######q7$$$$$$$$$$$$$$$$$$$$$$$$$$$$$$$$$$$$$$$$$$$$$$$$$$$$$$$$$$$$$$$$$$$$$$$$$$$$$$$$$$$$$$$$$$$$$$$$$$$$$$$$$$$$$$$$$$$$$$$$$$$$$$$$$$$$$$$$$$$$$$$$$$$$$=$=$=$$=$=$=$=$=$=$$=$=$=$=$=$=$=$=$$=$=$=$=$=$$=$=$=$=$=$=$=$=$=$=$$$$$$7@##q    ###############               ###############               ###############               ###############               ###############               ###############               ###############               ###############               ###############               ###############               ###############               ",
"###############               ###############               ###############               ###############               ###############               ###############               ###############               ###############               ###############               ###############               ###############               ##########4%$$$$$$$$$$$$$$$$=$$$$$$$$$$$$$$$$$$$$$$$$$$$$$$$$$$$$$$$$$$$$$$$$$$$$$$$$$$$$$$$$$$$$$$$$$$$$$$$$$$$$$$$$$$$$$$$$$$$$$$$$$$$$$$$$$$$$$$$$$$$=$=$=$$$$$$$=$$$$$$=$$$$=$$=$=$=$$=$$=$$=$=$=$$=$$=$=$=$$=$=$=$=$=$=$=$=$$$$%4##q       ###############               ###############               ###############               ###############               ###############               ###############               ###############               ###############               ###############               ###############               ###############               ",
"###############               ###############               ###############               ###############               ###############               ###############               ###############               ###############               ###############               ###############               ###############               #############8$$$$$$$$$$$$$$$$$$$$$$$$$$$$$$$$$$$$$$$$$$$$$$$$$$$$$$$$$$$$$$$$$$$$$$$$$$$$$$$$$$$$$$$$$$$$$$$$$$$$$$$$$$$$$$$$$$$$$$$$$$$=$$$$$$$$$$=$$=$$$$$=$=$=$$$=$=$=$$=$=$$=$$$$=$$=$=$=$=$$=$$=$=$=$$=$=$=$$=$$=$=$=$=$$$$$8q##          ###############               ###############               ###############               ###############               ###############               ###############               ###############               ###############               ###############               ###############               ###############               ",
"###############               ###############               ###############               ###############               ###############               ###############               ###############               ###############               ###############               ###############               ###############               ###############5%$$$$$$$$$$$$$$$$$=$$$$$$$$$$$$$$$$$$$$$$$$$$$$$$$$$$$$$$$$$$$$$$$$$$$$$$$$$$$$$$$$$$$$$$$$$$$$$$$$$$$$$$$$$$$$$$$$$$$$$$$$$=$$=$$=$$$$$$$$=$$$$$$$=$$$$$$$=$$$$=$$=$=$$=$$$=$$$$=$=$=$=$$=$=$$=$=$=$=$$=$$$$$$o-##q            ###############               ###############               ###############               ###############               ###############               ###############               ###############               ###############               ###############               ###############               ###############               ",
"###############               ###############               ###############               ###############               ###############               ###############               ###############               ###############               ###############               ###############               ###############               ##################6%$$$$$$$$$$$$$$$$$$$$$$$$$$$$$$$$$$$$$$$$$$$$$$$$$$$$$$$$$$$$$$$$$$$$$$$$$$$$$$$$$$$$$$$$$$$$$$$$$$$$$$$$$$$$$$$$$$$$$$$$$$$$$$$$$=$$=$$$$=$=$=$$$=$=$$=$$=$$$=$$$$=$$=$=$=$=$$$$=$$$=$=$$=$$=$$=$$=$$$$$%4###               ###############               ###############               ###############               ###############               ###############               ###############               ###############               ###############               ###############               ###############               ###############               ",
"###############               ###############               ###############               ###############               ###############               ###############               ###############               ###############               ###############               ###############               ###############               ###############  q###6%$$$$$$$$$$$$$$$$$$=$$$$$$$$$$$$$$$$$$$$$$$$$$$$$$$$$$$$$$$$$$$$$$$$$$$$$$$$$$$$$$$$$$$$$$$$$$$$$$$$$$$$$$$$$$$$$=$$$$$$$$$$$$$$$$$$$=$$$$$$$=$$$$=$$$$$$=$$=$=$$$=$$$$$$$=$=$$=$=$=$$=$$=$$=$=$$$$%6######               ###############               ###############               ###############               ###############               ###############               ###############               ###############               ###############               ###############               ###############               ###############               ",
"###############               ###############               ###############               ###############               ###############               ###############               ###############               ###############               ###############               ###############               ###############               ###############     q###0&$$$$$$$$$$$$$$$$$$$$=$$$$$$$$$$$$$$$$$$$$$$$$$$$$$$$$$$$$$$$$$$$$$$$$$$$$$$$$$$$$$$$$$$$$$$$$$$$$$$$$$$$$$$$$$$$$$$$$$$$$$$$$$$$$$$$$$$$$$$=$$$$=$=$$$$$$$$=$$$$=$$=$=$$$=$$$$$$$=$=$$=$$$$$&6#########               ###############               ###############               ###############               ###############               ###############               ###############               ###############               ###############               ###############               ###############               ###############               ",
"               ###############               ###############               ###############               ###############               ###############               ###############               ###############               ###############               ###############               ###############               ###############               ############6&$$$$$$$$$$$$$$$$$$$$$$$$$$$$$$$$$$$$$$$$$$$$$$$$$$$$$$$$$$$$$$$$$$$$$$$$$$$$$$$$$$$$$$$$$$$$$$$$$$$$$$$$$$$$$$$$$$=$$=$$=$$$=$$$$$=$$=$$$$$=$$$$$$=$=$=$$$=$=$$=$$$$$=$$$=$=$=$$$$$$$$&0###q        ###############               ###############               ###############               ###############               ###############               ###############               ###############               ###############               ###############               ###############               ###############               ###############",
"               ###############               ###############               ###############               ###############               ###############               ###############               ###############               ###############               ###############               ###############               ###############               ###############0&$$$$$$$$$$$$$$$$$$$=$$$$$$$$$$$$$$$$$$$$$$$$$$$$$$$$$$$$$$$$$$$$$$$$$$$$$$$$$$$$$$$$$$$$$$$$$$$$$$$$$$$$$$$$$$$$$$$$$$$$$$$$=$$$$$$$$=$$$$$=$$=$$$$$$=$$$$$=$$=$=$$$=$$$$$$$$$$$&0q##q           ###############               ###############               ###############               ###############               ###############               ###############               ###############               ###############               ###############               ###############               ###############               ###############",
"               ###############               ###############               ###############               ###############               ###############               ###############               ###############               ###############               ###############               ###############               ###############               ##################47$$$$$$$$$$$$$$$$$$$$$$$=$$$$$$$$$$$$$$$$$$$$$$$$$$$$$$$$$$$$$$$$$$$$$$$$$$$$$$$$$$$$$$$$$$$$$$$$$$$$$$$$$$$$$$$$$$$$$$$$$$$$$$$$$$$$$$$$$$$$$$$=$$$$$=$$$$$$$$$=$$$=$$$$$$75###q              ###############               ###############               ###############               ###############               ###############               ###############               ###############               ###############               ###############               ###############               ###############               ###############",
"               ###############               ###############               ###############               ###############               ###############               ###############               ###############               ###############               ###############               ###############               ###############               ###############  q###@0&$$$$$$$$$$$$$$$$$$$$$$$$$=$$$$$$$$$$$$$$$$$$$$$$$$$$$$$$$$$$$$$$$$$$$$$$$$$$$$$$$$$$$$$$$$$$$$$$$$$=$$$$$$$$$$$$$$$$$$$$$$=$$$$$$=$$$$$$$$$$$$$=$$$=$$=$$=$$$$$$$$&0q######               ###############               ###############               ###############               ###############               ###############               ###############               ###############               ###############               ###############               ###############               ###############               ###############",
"               ###############               ###############               ###############               ###############               ###############               ###############               ###############               ###############               ###############               ###############               ###############               ###############      q###47$$$$$$$$$$$$$$$$$$$$$$$$$$$$=$$$$$$$$$$$$$$$$$$$$$$$$$$$$$$$$$$$$$$$$$$$$$$$$$$$$$$$$$$$$$$$$$$$$$$$$$$$$$$$$$$$$$$$$$$$$$$$$$$$$$$$$=$$$$=$$$$$$$$$$$$$$$$$75##########               ###############               ###############               ###############               ###############               ###############               ###############               ###############               ###############               ###############               ###############               ###############               ###############",
"               ###############               ###############               ###############               ###############               ###############               ###############               ###############               ###############               ###############               ###############               ###############               ###############         q###@0%$$$$$$$$$$$$$$$$$$$$$$$$$$$$$=$$$$$$$$$$$$$$$$$$$$$$$$$$$$$$$$$$$$$$$$$$$$$$$$$$$$$$$$$$$$$$$$$$$$$$$$$$$$$$$$$$$$$$$$$=$$$$$=$$$$$$$$$$$$$=$$$$$$$$%0q#############               ###############               ###############               ###############               ###############               ###############               ###############               ###############               ###############               ###############               ###############               ###############               ###############",
"               ###############               ###############               ###############               ###############               ###############               ###############               ###############               ###############               ###############               ###############               ###############               ###############             q###q6.$$$$$$$$$$$$$$$$$$$$$$$$$$$$$$$$$$$$$$$$$$$$$$$$$$$$$$$$$$$$$$$$$$$$$$$$$$$$$$$$$$$$=$$$$$$$$$$$$$$$$$=$$$$$$$$$$$$$$$$$$$$$$$$$$$$$$$$$$$$=.6@#################               ###############               ###############               ###############               ###############               ###############               ###############               ###############               ###############               ###############               ###############               ###############               ###############",
"               ###############               ###############               ###############               ###############               ###############               ###############               ###############               ###############               ###############               ###############               ###############               ###############               #######57&$$$$$$$$$$$$$$$$$$$$$$$$$=$$$$$$$$$$$$$$$$$$$$$$$$$$$$$$$$$$$$$$$$$$$$$$$$$$$$$$$$$$$$$$$$$$$$$$$$$$$$$$$$$$$$$$$$$$$$$$$$=$$$$$$$=74####q  ###############               ###############               ###############               ###############               ###############               ###############               ###############               ###############               ###############               ###############               ###############               ###############               ###############",
"               ###############               ###############               ###############               ###############               ###############               ###############               ###############               ###############               ###############               ###############               ###############               ###############               ###########19%$$$$$$$$$$$$$$$$$$$$$$$$$$$$=$$$$$$$$$$$$$$$$$$$$$$$$$$$$$$$$$$$$$$$$$$$$$$$$$$$$$$$$$$$$$$$$$$$$$$$$$$$$$$$$$$$$$$$$$$$$$%8-####q      ###############               ###############               ###############               ###############               ###############               ###############               ###############               ###############               ###############               ###############               ###############               ###############               ###############",
"               ###############               ###############               ###############               ###############               ###############               ###############               ###############               ###############               ###############               ###############               ###############               ###############               ###############q58o=$$$$$$$$$$$$$$$$$$$$$$$$$$$$$$$$$$$$$$$$$$$$$$$$$$$$$$$$$$$$$$$=$$$$$$$$$$$$$$=$$$$$$$$$$$$$$$$$$$$$$$$$$$$$$$$o0-####q           ###############               ###############               ###############               ###############               ###############               ###############               ###############               ###############               ###############               ###############               ###############               ###############               ###############",
"               ###############               ###############               ###############               ###############               ###############               ###############               ###############               ###############               ###############               ###############               ###############               ###############               ############### #####@68%$$$$$$$$$$$$$$$$$$$$$$$$$$$$$$$$$$$$$$$$=$$$$$=$$$$$$$$$$$$$$$$$$$$$$$$$$$$$$$$$$$$$$$$$$$$$$$$$$$$$%84q######               ###############               ###############               ###############               ###############               ###############               ###############               ###############               ###############               ###############               ###############               ###############               ###############               ###############",
"               ###############               ###############               ###############               ###############               ###############               ###############               ###############               ###############               ###############               ###############               ###############               ###############               ###############      q#####207%=$$$$$$$$$$$$$$$$$$$$$$$$$$=$$$$$$$$$$$$$$$$$=$$$$$$$$$$$$$$$$$$$$$$$$$$$$$$$$$$$$$$$$$$%761############               ###############               ###############               ###############               ###############               ###############               ###############               ###############               ###############               ###############               ###############               ###############               ###############               ###############",
"               ###############               ###############               ###############               ###############               ###############               ###############               ###############               ###############               ###############               ###############               ###############               ###############               ###############            q######1407&$$$$$$$$$$$$$$$$$$$$$$$$$$$$$$$$$$$$$$$$$$$$$$$$$$$$$$$$$$$$$$$$$$$$$$$$&7842###################               ###############               ###############               ###############               ###############               ###############               ###############               ###############               ###############               ###############               ###############               ###############               ###############               ###############",
"               ###############               ###############               ###############               ###############               ###############               ###############               ###############               ###############               ###############               ###############               ###############               ###############               ###############               ############1497o%=$$$$$$$$$$$$$$$$$$$$$$$$$$$$$$$$$$$$$$$$$$$$$$$$$$$$=%.786-q######q    ###############               ###############               ###############               ###############               ###############               ###############               ###############               ###############               ###############               ###############               ###############               ###############               ###############               ###############",
"               ###############               ###############               ###############               ###############               ###############               ###############               ###############               ###############               ###############               ###############               ###############               ###############               ###############               #######################@25408887777%%%&&====$$$===&&&%%%77778064-1q##########qq           ###############               ###############               ###############               ###############               ###############               ###############               ###############               ###############               ###############               ###############               ###############               ###############               ###############               ###############"
};
