/* XPM */
static char *_52b6417c0134f2bf23740d486e1d5b5mUVeyhzbMp6MRF9C[] = {
/* columns rows colors chars-per-pixel */
"360 300 20 1 ",
"  c #EEEEEE",
". c gray82",
"X c #272B2D",
"o c #949595",
"O c #696C6E",
"+ c #1A1C1D",
"@ c #E1E1E1",
"# c white",
"$ c #010101",
"% c #C0C1C0",
"& c #A9AAAA",
"* c #7D7E7F",
"= c #363A3C",
"- c #F8F8F8",
"; c #595C5E",
": c #474A4C",
"> c #120F0F",
", c #5B0A07",
"< c #A30B0C",
"1 c #E50F1A",
/* pixels */
"###############               ###############               ###############               ###############               ###############               ###############               ###############               ###############               ###############               ###############               ###############               ###############               ",
"###############               ###############               ###############               ###############               ###############               ###############               ###############               ###############               ###############               ###############               ###############               ###############               ",
"###############               ###############               ###############               ###############               ###############               ###############               ###############               ###############               ###############               ###############               ###############               ###############               ",
"###############               ###############               ###############               ###############               ###############               ###############               ###############               ###############               ###############               ###############               ###############               ###############               ",
"###############               ###############               ###############               ###############               ###############               ###############               ###############               ###############               ###############               ###############               ###############               ###############               ",
"###############               ###############               ###############               ###############               ###############               ###############               ###############               ###############               ###############               ###############               ###############               ###############               ",
"###############               ###############               ###############               ###############               ###############               ###############               ###############               ###############               ###############               ###############               ###############               ###############               ",
"###############               ###############               ###############               ###############               ###############               ###############               ###############               ###############               ###############               ###############               ###############               ###############               ",
"###############               ###############               ###############               ###############               ###############               ###############               ###############               ###############               ###############               ###############               ###############               ###############               ",
"###############               ###############               ###############               ###############               ###############               ###############               ###############               ###############               ###############               ###############               ###############               ###############               ",
"###############               ###############               ###############               ###############               ###############               ###############               ###############               ###############               ###############               ###############               ###############               ###############               ",
"###############               ###############               ###############               ###############               ###############               ###############               ###############               ###############               ###############               ###############               ###############               ###############               ",
"###############               ###############               ###############               ###############               ###############               ###############               ###############               ###############               ###############               ###############               ###############               ###############               ",
"###############               ###############               ###############               ###############               ###############               ###############               ###############               ###############               ###############               ###############               ###############               ###############               ",
"###############               ###############               ###############               ###############               ###############               ###############               ###############               ###############               ###############               ###############               ###############               ###############               ",
"               ###############               ###############               ###############               ###############               ###############               ###############               ###############               ###############               ###############               ###############               ###############               ###############",
"               ###############               ###############               ###############               ###############               ###############               ###############               ###############               ###############               ###############               ###############               ###############               ###############",
"               ###############               ###############               ###############               ###############               ###############               ###############               ###############               ###############               ###############               ###############               ###############               ###############",
"               ###############               ###############               ###############               ###############               ###############               ###############               ###############               ###############               ###############               ###############               ###############               ###############",
"               ###############               ###############               ###############               ###############               ###############               ###############               ###############               ###############               ###############               ###############               ###############               ###############",
"               ###############               ###############               ###############               ###############               ###############               ###############               ###############               ###############               ###############               ###############               ###############               ###############",
"               ###############               ###############               ###############               ###############               ###############               ###############               ###############               ###############               ###############               ###############               ###############               ###############",
"               ###############               ###############               ###############               ###############               ###############               ###############               ###############               ###############               ###############               ###############               ###############               ###############",
"               ###############               ###############               ###############               ###############               ###############               ###############               ###############               ###############               ###############               ###############               ###############               ###############",
"               ###############               ###############               ###############               ###############               ###############               ###############               ###############               ###############               ###############               ###############               ###############               ###############",
"               ###############               ###############               ###############               ###############               ###############               ###############               ###############               ###############               ###############               ###############               ###############               ###############",
"               ###############               ###############               ###############               ###############               ###############               ###############               ###############               ###############               ###############               ###############               ###############               ###############",
"               ###############               ###############               ###############               ###############               ###############               ###############               ###############               ###############               ###############               ###############               ###############               ###############",
"               ###############               ###############               ###############               ###############               ###############               ###############               ###############               ###############               ###############               ###############               ###############               ###############",
"               ###############               ###############               ###############               ###############               ###############               ###############               ###############               ###############               ###############               ###############               ###############               ###############",
"###############               ###############               ###############               ###############               ###############               ###############               ###############               ###############               ###############               ###############               ###############               ###############               ",
"###############               ###############               ###############               ###############               ###############               ###############               ###############               ###############               ###############               ###############               ###############               ###############               ",
"###############               ###############               ###############               ###############               ###############               ###############               ###############               ###############               ###############               ###############               ###############               ###############               ",
"###############               ###############               ###############               ###############               ###############               ###############               ###############               ###############               ###############               ###############               ###############               ###############               ",
"###############               ###############               ###############               ###############               ###############               ###############               ###############               ###############               ###############               ###############               ###############               ###############               ",
"###############               ###############               ###############               ###############               ###############               ###############               ###############               ###############               ###############               ###############               ###############               ###############               ",
"###############               ###############               ###############               ###############               ###############               ###############               ###############               ###############               ###############               ###############               ###############               ###############               ",
"###############               ###############               ###############               ###############               ###############               ###############               ###############               ###############               ###############               ###############               ###############               ###############               ",
"###############               ###############               ###############               ###############               ###############               ###############               ###############               ###############               ###############               ###############               ###############               ###############               ",
"###############               ###############               ###############               ###############               ###############               ###############               ###############               ###############               ###############               ###############               ###############               ###############               ",
"###############               ###############               ###############               ###############               ###############               ###############               ###############               ###############               ###############               ###############               ###############               ###############               ",
"###############               ###############               ###############               ###############               ###############               ###############               ###############               ###############               ###############               ###############               ###############               ###############               ",
"###############               ###############               ###############               ###############               ###############               ###############               ###############               ###############               ###############               ###############               ###############               ###############               ",
"###############               ###############               ###############               ###############               ###############               ###############               ###############               ###############               ###############               ###############               ###############               ###############               ",
"###############               ###############               ###############               ###############               ###############               ###############               ###############               ###############               ###############               ###############               ###############               ###############               ",
"               ###############               ###############               ###############               ###############               ###############               ###############               ###############               ###############               ###############               ###############               ###############               ###############",
"               ###############               ###############               ###############               ###############               ########## ####               ###############               ###############               ###############               ###############               ###############               ###############               ###############",
"               ###############               ###############               ###############               ###############               ##########O ###               ###############               ###############               ###############               ###############               ###############               ###############               ###############",
"               ###############               ###############               ###############               ###############               ##########X&###               ###############               ###############               ###############               ###############               ###############               ###############               ###############",
"               ###############               ###############               ###############               ###############               ##########$=###               ###############               ###############               ###############               ###############               ###############               ###############               ###############",
"               ###############               ###############               ###############               ###############               #######-##$$###               ###############               ###############               ###############               ###############               ###############               ###############               ###############",
"               ###############               ###############               ###############               ###############               #####-####$$o#-               ###############               ###############               ###############               ###############               ###############               ###############               ###############",
"               ###############               ###############               ###############               ###############               ###-##--#@$$=## @             ###############               ###############               ###############               ###############               ###############               ###############               ###############",
"               ###############               ###############               ###############               ###############               ####-##-#.$$$@#   @           ###############               ###############               ###############               ###############               ###############               ###############               ###############",
"               ###############               ###############               ###############               ###############               ##-##---#%$:$O# @   @         ###############               ###############               ###############               ###############               ###############               ###############               ###############",
"               ###############               ###############               ###############               ###############               ###-----#&$O+># @ @           ###############               ###############               ###############               ###############               ###############               ###############               ###############",
"               ###############               ###############               ###############               ###############               -#--#---#*$O;$&#@ @ @         #############o#               ###############               ###############               ###############               ###############               ###############               ###############",
"               ###############               ###############               ###############               ###############               #-------#O$O*$:# @@  @ @      ############@>#-              ###############               ###############               ###############               ###############               ###############               ###############",
"               ###############               ###############               ###############               ###############               --#--- -#:$**:$@ @@@          ############*$#-              ###############               ###############               ###############               ###############               ###############               ###############",
"               ###############               ###############               ###############               ###############             @ #----- -#X>*Oo$*#@ @@@@ @     ########-###$$#-              ###############               ###############               ###############               ###############               ###############               ###############",
"###############               ###############               ###############               ###############               ##############- @ @@@@@ >X*;&>X#- -----#--###          #*$$.#-#-###########               ###############               ###############               ###############               ###############               ###############               ",
"###############               ###############               ###############               ###############               ###########-#-- @@@@@@@ $=*:&;$.#  ------#-#-       @ - >$$.#-###-#########               ###############               ###############               ###############               ###############               ###############               ",
"###############               ###############               ###############               ###############               ############---@ @@@@@@@$;*:o&$O#   -----##-#    @   @#o$+$.#--#-##########               ###############               ###############               ###############               ###############               ###############               ",
"###############               ###############               ###############               ###############               ###############@@@@@@@@%$O*:*%+$--    -----#-  @   @  ->$;$&#---#-#-#######               ###############               ###############               ###############               ###############               ###############               ",
"###############               ###############               ###############               ###############            -  ########-##@.#-@@@@@.. &$**:*%O$&#   ------#-   @ @ @#o$:O$&#----#-########               ###############               ###############               ###############               ###############               ###############               ",
"###############               ###############               ###############               ###############          -.%# ##-##-###-#%+##@@@@.@. o$o*:O&&$:#      ----#@ @ @ @ -+$O*$o#------#-#-####               ###############               ###############               ###############               ###############               ###############               ",
"###############               ###############               ###############               ###############          -.+ #####-##---#.$*#@@@@... O$oO:;&%=$@-   - ----- @ @@@@#&$=Oo$o#-------#######               ###############               ###############               ###############               ###############               ###############               ",
"###############               ###############               ###############               ###############          --$:##-#-##-#--#@$$%-@@.@.. :$&O:;o%*$*#    -  ---@ @@ @ -X$;*o$*# -------#-####               ###############               ###############               ###############               ###############               ###############               ",
"###############               ###############               ###############               ###############           -$$o##-#------#.$$+@ ..... =$&O::*&&>+  @    ----@@@@@@-%$=;o&$;#   ------#####               ###############               ###############               ###############               ###############               ###############               ",
"###############               ###############               ###############               ###############        @  #+$$%#--------#.$$$; @....@+>&O::=&%;$%-@    #.@#@@@@@@-=$O:o&$;# -  -----#####               ###############               ###############               ###############               ###############               ###############               ",
"###############               ###############               ###############               ###############           -+$$> #----- -#.$+>$o .....>+%O:;+o&o$;-@@@  #O;#@@@@@ %$:O;&%$=#     ---#-%###               ###############               ###############               ###############               ###############               ###############               ",
"###############               ###############               ###############               ###############       @ @ #X$O$=##- - - #.$>=$$%@.%.%$=%O:;:&&%+$@ @@@ #+$#@@@.@ :$O;;&%$=#      --#*O##-               ###############               ###############               ###############               ###############               ###############               ",
"###############               ###############               ###############               ###############    @ @ @  -=$*;$*#-     #.$+==$=@.%.%$:%O:;;&&&O$& @@@-.$$% @.@@.$=O:*&%$X- @    -#.$o#-#               ###############               ###############               ###############               ###############               ###############               ",
"###############               ###############               ###############               ###############       @ @@#:$;o=$&#     -.$+X:+$*@%.&$;%O:;:&&&&$= @@@#O$$O ... ;$*;:*&%+>  @    # +$&#-#               ###############               ###############               ###############               ###############               ###############               ",
"###############               ###############               ###############               ###############   @ @ @ @@#;$;O&$$@#  @@-.$++=:$$&..o$O%O:;:o&&%=$.@. @>$$>@@.@.$=*;+*&%X$ @@@@ -#:$$%#--               ###############               ###############               ###############               ###############               ###############               ",
"               ###############               ###############               ###############               ##-#---- --#*$;:&o$+@@...@%$XX+:=$X.@o$*&O:;:*&&&o$O@%@&$+X$% @-*$*;:=o&%=$.....@-*$$$&-@ -#-#-##########               ###############               ###############               ###############               ###############               ###############",
"               ###############               ###############               ###############               #-#-----   #o$O:O%O$; @..@&$XX+=:X$; *$o&;:;;;o&&&$+..@=$X=$;-@@$X*:;O&&&:$..... &$$+$%-@@--#-###########               ###############               ###############               ###############               ###############               ###############",
"               ###############               ###############               ###############               ##----- -  #o$O;:o%=$* ...%$+X+X::>$&O$&&;:;;+*&o%;$&@%$>X:$>@-*$*O;:*&&%:$%...@%$$X+$. @@---#-#-########               ###############               ###############               ###############               ###############               ###############",
"               ###############               ###############               ###############               --#---     #&$O;:O&&>$&@...$+=+X=:=$X=$&&;;;;;&&&&o$:.*$XX:X$%->+&;;;o&&&O$&.%..X$+=+$. @@-----#-#-######               ###############               ###############               ###############               ###############               ###############",
"               ###############               ###############               ###############               #-----    @-&$*O:;o%o$>%.%.$+=++=::X$$+&&;:;:;o&o&%X$>$$$$$$$$+$+:=::o%%%O$&.%@;$+X=>$@@@@ -----#########               ###############               ###############               ###############               ###############               ###############",
"               ###############               ###############               ###############               ----     @@ %$O*::O&%*$=..%$+:+XX:==>$X&&;;;;:o&&&%O$$$>$$$$$$$$$$$$$>X:**$o@.*$>XX:>$@@@@  ---##########               ###############               ###############               ###############               ###############               ###############",
"               ###############               ###############               ###############               #---##   @@ %$;o:;;o&%:$O..$+:+>>$$$$$:%&;:;;:o&&%*$$X+=;;:;;;:::=X+>$$$$$$=&&$$=+X:$>-@.@   -##&:-##-###               ###############               ###############               ###############               ###############               ###############",
"               ###############               ###############               ###############             @ ---#&%#-@@@@@$:o:;:*&&&X$o%$$$$$$$$>+$>O&O;OO;*&OX$$:;:+X;;::;;;;;;O;;:=+$$$$$$XXX=:$> ..@  ##@;$$#--##-#               ###############               ###############               ###############               ###############               ###############",
"               ###############               ###############               ###############               ---#o$O -@@@@$:&:;:;&&&&$$+$$$+XXX+>+$$$>++++>$$$$+:;:;:+X;;;;;;::::::::;;:=+$$$$+=:$X ... # O$$$=#----##               ###############               ###############               ###############               ###############               ###############",
"               ###############               ###############               ###############            @ @-- #.$$>&- @@$X&;;;:*&&&*$$>X===XXXXX+>X>$$$$$>+=:;::;;;;+XX+$$$$$$$$$$$$$$>+X++$$$+$: .. -o$$>O$;#---#-#               ###############               ###############               ###############               ###############               ###############",
"               ###############               ###############               ###############              @-  -@$$$$=% ->+%;:;:;&&&%;$+=XXXXXXX+>:;::X>X:;;;:;;;:=+$$$$$+=;O********;:+$$$$$$$$$+& @o+$>OO&$*#------               ###############               ###############               ###############               ###############               ###############",
"               ###############               ###############               ###############          @ @@@-  - +$=+$$O X>%O:;;:*&&&%=$+XXXX+X==:;::;::X>X:;;;=>$$$+;o&.@@@@         @..&*:$$$$$$$;=$$Oo;oo$o# ----- @             ###############               ###############               ###############               ###############               ###############",
"               ###############               ###############               ###############        @   @ @    -=$X==$$X+>%*:;;;:o&&&X$+XXXXX:::::::::;;:=+XX$$$=*%.@@@@.%&o*O*******>$O  @.o:$$$$$$+&&;O&*$%#   ---@  @           ###############               ###############               ###############               ###############               ###############",
"               ###############               ###############               ###############         @ @@@@   @#;$X+=:X$$$%o:;;;==%oX$>XXX+X:::::::;:::;;;+$$+*%...@.&*:+$$$$$$$$$$$$$$$=*&. @%O>$$$$X:;o%;$.-    --  @            ###############               ###############               ###############               ###############               ###############",
"               ###############               ###############               ###############      @ @ @@@@@ -#-#*$X+X:X$$$&&;;;;;>+$$$++XX=::::::;:::;;;X$$=o.....%OX$$$>>,,,,,,,,,>$XX$$$$XO%@ .O$$$$$:&%:$@ @    -@@ @ @         ###############               ###############               ###############               ###############               ###############",
"###############               ###############               ###############               -#-----------## %*:X$$$$+$$$>$$$$$$$$$$>XX+>$>X:;:;:::;:;;=$$X&.....o=$$$>,,,,,,,>>>$$$$>X==$>>$$$=o@ %=$$$$X&:$@ @.@@@@ -####-#-######               ###############               ###############               ###############               ###############               ",
"###############               ###############               ###############               ##-#----- -##@*+$$$$$+>$$$+::X>$$$$>>+XXXXXXX=+>+=;;;::;:+$>*..%..oX$$>,,,,,,,,>$$$$$>$$=XX:$$$$$>$$X&@@*$$$$>>$Xo@ @.@ ##-. #--#######               ###############               ###############               ###############               ###############               ",
"###############               ###############               ###############            @  #####--  ##.;$$$>X:o.@.=$$::XXXXXXXXXXXXXXX=:;;:X+>=;;;=$$:..%..&=$$,,,,,,<,>$$$$X==**$>:+X:+$X>$$>>$$:% &X$$$$$$$Xo - @&:$$+##--#-####               ###############               ###############               ###############               ###############               ",
"###############               ###############               ###############              -o=*.##### O$$$$>Oo%.%%..X$>XXXXXXXXXXXX$$$$X;:::;;=++:=$>&..%..O$$,,,,,,<,$$$$>$$;::Oo$$=+X:X$*o*$$$$>$>o .=$>>$$>$$;o:$$$X+$@#--#-#-##               ###############               ###############               ###############               ###############               ",
"###############               ###############               ###############         @ @   $$$$$O% &+$$>X+$X..%%%%.%>$+XXXXXXXXXX$$XO:$=:::::;;:>$+%.%%.&X$>,,,,<<,$$$+X==>$::=:o;$$+==$$oo&=$$$$$$$;@@:$X>$>X$$$$=*%%=$ #----####               ###############               ###############               ###############               ###############               ",
"###############               ###############               ###############            @  $X&*X$$>$$>XX+X=$;@.%%%%.o$$XXXXXXXXXX$$:%-+>;::;:;;+$:%.%%.o$$,,,,,<,$$$+==XX=+$=;==*o:$$>$$Oooo*$>=>$$$$:@.X$=+$>=+$$& .*+$-- -----#-               ###############               ###############               ###############               ###############               ",
"###############               ###############               ###############       @ @@ @  >>*. %>$$X=X+X::X$*O&%%%%.;$>XXXXXXXXX>$X*o$>;:;:;;>$;..%..*$>,,,,<<>$$+==XXXX=X$>O:=;oo:$$>*&ooo&+$=:X$$$$:@.X$:+$>=X$$*oO+$#- ------#               ###############               ###############               ###############               ###############               ",
"###############               ###############               ###############        @  @@@-X$Oo%X$$==++=::::>$*%%%%%.%>$+XXXXXXXXX>$$$$=;::;;>$O..%..;$>,,,,<,$$$==X+XXX===>$O;=:oooo*o&oooo&;$+::=>$$$=@.>$;+$>:X$$=*>>#    -----               ###############               ###############               ###############               ###############               ",
"###############               ###############               ###############     @ @ @@@@@ =$*O+$>==+X=::::;:$o@%%%%%.*$$++XXXXXXX:=X=:;:;;;>$O.%%..:$>,,,<<,$$+==+X:;=++>>>$=O::*oooo&&o&&o&o$$++X=+$$$; %$>O+$$:=$$=>+#    ----- @             ###############               ###############               ###############               ###############               ",
"###############               ###############               ###############      @ @@@@@@-;$O>$>:=X+=:;;;;:;>>.%%%%%%.+$+>$>>+XX=;:;:;::;;X$;.%%..:$,,,,<<,$$X:XX:O:=+>+X==$>*::Ooooo&=$>*&&&X$XX+>+>$$$O o$XO>$>:=$$$:#@      --@              ###############               ###############               ###############               ###############               ",
"###############               ###############               ###############   @ @ @@@@@.@ *$>$+:=X>$$$$>+=:;:$*.%%%%%.*$>=X++>$>=:;;::;;;=$=..%%.O$,,,,<<,$$X=XXX=+X:O=====>$O;:;ooo&:$$$>o&&*$+::::+$$$$& :$;O>$>:=$$:# @@   --# @ @           ###############               ###############               ###############               ###############               ",
"###############               ###############               ##############-    @ @@@@@.@. o$$+:=XX$$:;=>$$$:;$X.%%%%%.%>$XXXXXXX+>+=:;;;;$>%.%%.*$>,,,<<,$$==X>>X:O*O*:X===+$:*::oo&o$>XX$=&&&$$:=:*;X+$$>..>$O;$$+:=$$*---######-              ###############               ###############               ###############               ###############               ",
"###############               ###############               ############### @ @ ---  @@.@@:$>:=X+=+$Oo%..&$+O=$%.%%%%%.;$+XXXXX;;:=+>+=;+$o.%%.&$>,,,<<,$$=:+$+:O*OOOO:X===X$X*::*&&:$=+=+$o%%X$=:=OO;=+$$; *$=*:$$X:=$$*.&o*;=>>*- @ @         ###############               ###############               ###############               ###############               ",
"###############               ###############               ##############-     oo&%..@  :$>:=XXX;=$*OOo.@>>;;$O.%%%%%.&$$XXXX::::;;;=X>$:.%%%.+$,,,<<,$$X=>$X**OOOOOO;X====$$o;:O%*$>=+==$:%%*$+:=OOO:=>$$&@X$OOX$$=:=$$$$$$$$=$>@ @           ###############               ###############               ###############               ###############               ",
"###############               ###############               #############-# @@-;$$$$$$>X=$$:=XX+:;:$O*;;*o$+;;>X.%%%%%%.+$XX+=::;:;:;;O$$%.%%.O$,,,,<<>$+X>>XOO;OOOOOO;X===:$$*O:O&+$==++:>$&%&$$:=;OO;==$$: o$=OO>$>=:X$$:&&%@@>+  @@ @        ###############               ###############               ###############               ###############               ",
"               ###############               ###############               ---#=$&o*;:=$$$=:X+X=;;;$=%;OO+$:;;=$%.%%%%%.;$+XX::;::;:;;:$O.%%.&$>,,,<<,$>+>++:O;OOOOOO*;X===:+$;o:;*$+:X++:X$O%%>$::;OOO:=X$$%@+$OO;$$+=:X$>&@..*$;# -----#-#####               ###############               ###############               ###############               ###############",
"               ###############               ###############            @ @---#o$*@@@-o$$=:XXXX:;:;>>@oOX$XO;;;$o.%%%%%.o$>XX:::;:;;;;>$%.%%.;$,,,<<,$$$+X+XOOOOOOOOOOX=:===+$=&:;*$+:X+=:=$:%.:$+X=OO*O==>$; *$:OO=$$X=:+$$&@o=$&#  -----######               ###############               ###############               ###############               ###############",
"               ###############               ###############              @-- #.$+o..&$$=:=XXX=;:;;X$;;>$XO;;;;$;.%%%%%.%$$X:;;:;:;:;;$:@%%.%$>,,<,<,$$X=++:OOOOOOOOO*>++>>++$+&;;o+$=++=:=$;%.*$$X>X+=;X=X$>..$+OOO>$>X::+$+oO+$@-   -----#-###               ###############               ###############               ###############               ###############",
"               ###############               ###############          @ @ @-  - +$O&%>$X:=XX+X;;;;;;>$$$XO;;;;O+X@%%%%%%@+$X:::;:;;;O=$o.%%.O$,,,<<,$$X=X+XOOOOOO*O;=X>+X==::$>&O:oo$$+X:=$$o%%%$$::;O=+$+=>$o@=$OOO;$$XX::>$>O$+-     ---#-####               ###############               ###############               ###############               ###############",
"               ###############               ###############             @@    #:$OO+$X:=XXX=:O;O;;;;;:;OO;;O;OX$.%%%%%%.;$X;:;:;;X>+$>.%%%.X$,,,,<,$+:X++:OOOO*;=+X:O;==:=:=$$o*:*.*$$$>$$O.%%.X$=::O**;X>>$: *$;OOOX$$+=::>$X$;-@@    ----#-##               ###############               ###############               ###############               ###############",
"               ###############               ###############         @ @@@@-  @-o$:X$+:=X+$$$>>>>X;O;OOO;;O;O;O:$%.%%%%%.*$X;:;:;;;;O$:.%%.&$>,,<<<$$==X++;OO*;X+=;O**:====::$$o*:*%.oX$$$o.%%%.O$X:=;OO*OX+$>@&$=OOOO$$$X=:=$$$o-@@@   -----###               ###############               ###############               ###############               ###############",
"               ###############               ###############           @ @@  @@ .$$$$::X+$>+>>>$>$>O;;;;O;O;O;O;$o.%%%%%.&$+;:;;:;;;:$*.%%.o$,,,,<,$>:X++=O*;X+:O*OOO:====:=:>$&o;O%%..%&%.%%%%.o$>:=:OOOO==$$&@$+OOOO=$$XX=:=$$o-@@@@    --#--#               ###############               ###############               ###############               ###############",
"               ###############               ###############       @ @@ @@@ @@@@-=$$=:XX+$:&%..%.O$=OOOO;OOO;OOO$*.%%%%%.%$$;;:;;;;O=$o.%%.;$,,,<<,$+:X++:O=+=OOOOOO:X=====::$$&o;*.%%%..%%%%%%..>$::=:OO*:=>$* +$OOOOO>$+XX=:X$$&- -######---##               ###############               ###############               ###############               ###############",
"               ###############               ###############        @ @@@@. @@@ &$$=:=XXX$X*O&..@.$>OO;OOO;OOO;:$*.%%%%%%%>$;:;;:;;OX$&.%%@=$,,,<<>$==+X+=+=O*OOOO;=X======:=$>&*;*.%%%%....%%%%@=$X:==:O*;=+$; :$OOOOO:$$XXX=:+$>&ooo****-#----               ###############               ###############               ###############               ###############",
"               ###############               ###############      @  @ -##-####@+$X:=X+XX+$oO;O=o =$OOOOOOOOO=+=$;.%%%%%%.X$;;;;;;;;+$%.%%@+>,,<<,>$=X++>X;*OOO*;=XX=X===::X$$O%O;o.%%%@o:*..%%%.o$$X:===;:=X$= O$OOOOOO>$+XXX=:>$$$$$$$$$*#---#               ###############               ###############               ###############               ###############",
"               ###############               ###############        @  O>>$$$>=X$+:=XXXXXX$;o;O:=%=$OOOOOOOOO;O*>:.%%%%%%.=$+=;;;;;O+$%%%%@>>,,,<<$>=X+$>**O*O;=XXX=X=====>$$;%o;O%%%%.o$$$;@.%%..O$$+===X==X$X@*$;OO*;=>$>XXXX==>$:%&%&:$*# ---@              ###############               ###############               ###############               ###############",
"               ###############               ###############     @ @@ .$$XXXX=$$>==XXXXXX=$>%O;OOO$>OOOOOOOOOOO*$:.%%%%%%@:$=X>+=;OOX$%.%%@>>,,<<,$+:+$+XOOO:=++XXX=====+$$>*%&;;&.%%..X$X>$o.%.%.@o$$$=====X$>@*$O*;X+=;$$XXX+X:=$$o &*X$@# ---               ###############               ###############               ###############               ###############",
"               ###############               ###############   @  @ @@ X$o%@ o$$==X+XXXXXX+$o%OOOX$:*OOOOOO*OOO*+=.%%%%%%@:$:O;=X+X:+$%%%%@>>,,,<,$X=$+X+XXX++XXXX=XX+$$$$:&%o;O&.%%%@*$+X=$+..%%%%@%X$$>+X==$>@*$;=+=O**=$>XXXXX:X$$*OO$X#    -@ @            ###############               ###############               ###############               ###############",
"               ###############               ###############     @@@@@-*$;O%&$$X=X+XXXXXXX=$X&O:+$XOOOO*O*OOOOO*+X.%%%%%%.O$X;;;O;:X$$%.%%@+>,,<<,$+>+X+X++++XXXXX+>$$$$Xo%&O;*%.%%%.%$$=+=+$&.%..%%..O$$$>+X$$@*$+:O*O;;:$$XXX+XX=X$$;;$o#   --@              ###############               ###############               ###############               ###############",
"               ###############               ###############   @ @ @@@@%$=*;$$X=X+XX+XXXXX==$$$$$XO*O*O*O*O*O*O*+X.%%%%%%.O$$>:;;;OO=$&.%%.=$,,,<,$$+X++X+X+XXX+>>$$$$X*&&O;O&%%%%%%@;$==+==$:@.%.%.%.@o>$$+>$$@*$O**OX$$$$$+XXX+X==+$$>$. @     @ @           ###############               ###############               ###############               ###############",
"###############               ###############               -#-#--     -=$O$$+==+XX+XXXXXX=O::::;OOOOO*O*O*O*OO*+X.%%%%%%@O$=$>;;;;O:$o.%%.;$,,,<,$+=+X+X+XXX+>$$$$$=*&oO:;o%%%%%%.%.>$:X+=:$$.@..%%.%%.%=$$X$$@O$O*O=$XO:$$>XXX+++==+$$X-..@.@@----#-#########               ###############               ###############               ###############               ",
"###############               ###############               ##----   @@-o$$$+==X++XXXXXXX==;OOOOOOOOO*O*O***O*O*+X.%%%%%%.O$&*$:;;;O;$;.%%.o$,,,<,$X=+X+X+X+>$$$$+:o&oO;;*&%%%%%%%%..>$:X+=:+$*%....%%.%..:$$$+@;$**;>$& @X$$+XXXXX+==+$$o@@..@@ ---#-#########               ###############               ###############               ###############               ",
"###############               ###############               -----    @@#&$$+==++XXXXXXX=XXX;O;OOOOO*O*O***O*O*O*+X.%%%%%%.O$oo$=O;;OO$+.%%.%$>,,<,$XX+X+X+>$$$$+;oo*;:X=&%%&%%%%%.%%@O$+X+=:$>o::%.%.%%%%..:$$+ =$**;>>o% :$$$$X+X+++==+$$*@@..@  ----#########               ###############               ###############               ###############               ",
"###############               ###############               #---    @ -&$$+==X++X+X$$$$$$$$XO;O;OOOO*O******O*O*>:.%%%%%%.O$;X$:;;;OO+$%.%%.X$,,,,$X=++X+>>$$>;oo*;::XXo%&&%%%%%%%%...=$>+=$$o .%..%.%.%%%..:$> X$**O+$:*O$$$$$+XX+X++X=+$$;@@@@  ---#--#######               ###############               ###############               ###############               ",
"###############               ###############              @----   @ -o$$+=XX++X+X>$X=;O*o=$;OOOOOOO*O*******OO*$:.%%%%%%@O$$$X;O;O;O:$O.%%.*$,,,,$+X+X+$+$$=**O;::Ooo&&&&%&%%%%%.%%...:$$$$*@....%.%.%%%%%..X$*>+**O:$$$$$:$$>XX+X+++XXX$$$X% @   ----########               ###############               ###############               ###############               ",
"###############               ###############               ---    - O$$+=X+++X+XX+$Oo&.@@%$XO;OOOO*O*O***O*O*O*$;.%%%%%%.O$>=;O;;;OOO$+.%%.%$>,,,$+XX+$+>$=*O;:=;*&&&&&&&&%%%%%%%%.%..@o;;&@........%%.%%%%.&$>$:*O**;+++:*>$+XX+X+X+++$+o=$$o -   ---#-######               ###############               ###############               ###############               ",
"###############               ###############             @ --    -@:$$$$XX++++X+XX$+o;Oo%.$XOOOOOOO********O*O*$O.%%%%%%@;$=O;;;O;OOO=$o.%%.O$,,,$>=+$+X$$O*:==;oooo&&&&%%&%%%%.%.%....@@@@.....%.%.%.%%%%%%%+$$;**O*OOOOO*=$+XXX+X+X+$>o.%;$$O #  ----#######               ###############               ###############               ###############               ",
"###############               ###############              @--   #%+$+&&+$>++X+X+XX+$oo;;*O$=O;OOOO*OO*O***O*O*O$*.%%%%%%@:$:O;;;;O;OOO$+.%%.%>$,,$$X$+X+$>oO=::*ooo&o&&&&&%%%%%%%.%.%.............%.%.%%%%%%.:$$**O*O*O*OO*:$>X+X+XX>$XOOo%%*$$X.#- ----#-####               ###############               ###############               ###############               ",
"###############               ###############           @ @ -  ##o$$=&.%O+$>+X+X+XXX$X.*OO>$OOOOOOOO**O**O*O*O*;$o.%%%%%%@:$:O;O;O;OOOO=$*.%%.*$>,$$+>XX+$X*;==;oooo&&&&%&%%%%%%.%%.%.......@.......%.%...%%%.;$$O**OOOO**;X+$$XXXX+$$=OOO;*%.&X$$&# ----######               ###############               ###############               ###############               ",
"###############               ###############            @ @- # ;$$;%%oOOOX$$+XXX+XX>$&.*X$+OO;OOOO*OO**O*O*OO*:$&.%%%%%%.X$;O;=;OO;OOOO$$%.%%.:$,>$$+X++$=o;:=Ooooo*oo&%.......%.%...%............@@@@%&&%%%.O$XX:*****;X+:O>$XXX+$$=*OOOO;*&%%O$+ - -----####               ###############               ###############               ###############               ",
"###############               ###############             @@ -.+$$o%%o;;OOO:$$+X+XXXX$>:+$$=;O;OOOOOO*OO*O*OOO*=$.%%%%%%%.+$+=+=OO;OOOO*;$=..%.%>$,$>X+X+$=;=::*oooo+$$$$>X:O*&**@@@.........@@ @.%o;=>$$O.%.%:$OoO***;X+:O**X$XX>$+:;OOO;OO;O&.O$X   ---##-###               ###############               ###############               ###############               ",
"###############               ###############           @ @@ #O$=%.&*;OOOOO*=$$>XXXXX+$$$>=X:O;OOOOO*OO*O*O*OO*X+@%%%%%%.%>$;=>+=;OOOOOO*X$O@%%.&$$$$XXX+$$$$>=*ooo&o+$>>>$$$$$$+=;*%.@@@.@@ @%O=>$$$$>$$%..&>$$+Oo*OX+:O*OO*=$>$$:OOOO;OOO;Oo%O$$&-   ----####               ###############               ###############               ###############               ",
"###############               ###############          @ @@@ #o$$o.o;;OO;OOOOO=$$+XXXXXX=X=X=OO;OOOOOO*OOOOOOOO>:.%%%%%%%%$>OOO:X++=;O*O*O>$o.%%.o$$$+X>$$>X+$>*oooo&o>$,,,,,,,>>$$$$$=O&@@&;+$$$>,,,,,$O@%.=$X+$$==+:**OOOOO:$$+;OOOOOOO;;O&.;$$&-    ---#-###               ###############               ###############               ###############               ",
"###############               ###############           @ @@  -*$$*.oO;OOO;OOOO;+$>XXXXXX=X=X:O;OOOOOOOOO*OOOOO$*.%%%%%%.&$+O;;OOO;=+X:O**O$$&.%%.o$$>>$>=:::+$:oooo&&o>$,,,,,,,,,,,,>$$$>>$$>>,,,,,,,>$%..&$+::=>$>***O*OOOO;$>*OOOOO;OO;O&%:$$& @@@   ----###               ###############               ###############               ###############               ",
"###############               ###############         @ @@@@   -*$$O.&O;OOOOOOOOO=$$+X=XXX=XX:OO;OOOOOOOOOOOOO;$&.%%%%%%.o$XO;;O;OOOO:X+X:*O$$&.%%.o$$$>::==::$+ooooo&%o$$,,,<<,,,,,,,,,,>>,,,,,,,<<,,$;@%.O$=:=::+$X**OOOOO*O$$*OOOOOO;;*%%X$>& @@@    ---####               ###############               ###############               ###############               ",
"               ###############               ########-#---  @...@*$$:%&O;OOO;OOOO*;X$$+=X=XX=X;OO;OOOOOOOOOOOO=$%%%%%%%%.O$=O;;;O;OOOO*O;X+==$$&.%%@;$>::=:===>$*ooooo&%o$$,,,<<<<<<,,,,,,,,,,<,<<<,,>$%.%@:$X=X=::+$:**O*OOOO$$OOO;O;O;o%o>$+%@%%....@@@@@    ###############               ###############               ###############               ###############",
"               ###############               #########----  ......o$$=&%*;O;OOOOOOOO;+$$X==X=X=O;OO;OOOOOOOOOO+X.%%%%%%%@=$:O;;O;OOOOOOO**O;=>$$o...X$=:==XX++>$Ooooo&&&%&+$>,,,<<111<<<,,,,<<<11<,,>$*.%%.=$+X>>=::$$O*OOOOO*>$;OOOO;Oo.*$$=%..%%...@@@@  @   ###############               ###############               ###############               ###############",
"               ###############               #######-#---   @...%%.&+$>o.o;;OO;O;OOOOO:>$$+===X:OO;OOO;OO;O;OO$O.%%%%%%%.+$;;;;O;O;OOOOOOO****;$$O@o$X:=X++++X>$;oooooo&&%&=$>,,,,<111111<<<1111<,,,$=..%%.X$X+X++X==$=*O*OOOO+$;OO;;*%%:$$;%%%%%%....@@@@@    ###############               ###############               ###############               ###############",
"               ###############               ########----   ...%%%%%%X$$O%&O;OOOOOOOOOO*:+$$+X==;O;O;OO;OO;OO;$&.%%%%%%.%$$O;;O;O;OOOOO*O*O***o*>$;:$=X++++++X$$:oooo&&&&&%%O$$,,,,,<1111111111,,,,$X..%%%.X$+++++++=>$*OOOOO*X$:O;Oo%&+$$*%%...%%....@@@@ @   ###############               ###############               ###############               ###############",
"               ###############               #########---   ...%%%%&%=$$$=&%o;;OOO;OOOOOOO;=$$$+=OOOO;;O;;O;OX>.%%%%%%%.o$+O;;;;;OOOOOOOO*O*O****=$$$X+XX==::=$>:Ooooo&o&&&%.&X$>,,,,<<111111<,,,,$>%.%%%%.;$=::==XXX$$O*OOOO*X$:O*&%;$$$o%%o=;.%%%..@.@@@@    ###############               ###############               ###############               ###############",
"               ###############               #######-----   ...%%%&%o$$$$$>*.&O;O;OO;OOOOOOOO:+$$+=;OOOOO;;;O$;.%%%%%%%.*$=O;;OO;O;OOOOOOO*O*****o;$$$>$$$+XX$$=::*ooo&o&&&&%.%O$$>,,,,<1111<,,,,$X%.%%%%%.o$>X+$$$$$$X*O*OOO*=$:&%o+$$$$*&%X$$:.%....@@@@ @   ###############               ###############               ###############               ###############",
"               ###############               #########---   ...%%%&%;$$$<,$$=&%o;;OOOO;OOOOOOOOO:+$$>+=:;OOO;$o.%%%%%%%.:$:O;;;O;OOOOOO*O*O**O****o*=$$+;=$$$>=::::*o&o&&&&&&%%.%=$$,,,,<11<,,,>$=%.%%%%%%.O$$$$>+XXXX***OOOO*:$*%:$$><>$;%o$+>$o.%....@@@@ @  ###############               ###############               ###############               ###############",
"               ###############               #######----   @..%%%%%&+$$,1<,$$$O%&*;;OOOO;OOOOOOOO*O+=:>$$$$+$>.%%%%%%%%.$$;;;;O;O;OOOOOOO*O*O******oo;$$O.O$+**:=:::Oo&o&&&&%&%%..o+$>,,<11<,,$$O..%%%%%%%%+$O***oooo**OOOOOOO:$X>$$,<1,$=%;$**$=..%..@@@@ @   ###############               ###############               ###############               ###############",
"               ###############               ########----   ...%%&%o$$$<<<1<,$$+o%&O;;OOOOO;OOOOOOOOX*@%o*;=X*.%%%%%%%.&$>O;;;;;OO;OOOOOOO*O*********o*X$$O+$+O*O:=::;o&&&&&&%&%%%..:$,,,11,,>$o@.%%%%%%%.O$Xoo****O**O****OO*:$$$,<<<<,$+%>$%.$$&.....@@@ @   ###############               ###############               ###############               ###############",
"               ###############               ######-#---   @..%%%%%;$$><<<<<<<>$$=o%&O;;O;OOO;OO;OOO;X:......%%%%%%%%%.O$+;OOOO;O;OOOOOO*O*O*O******o*ooO+$$$$$=*oO;:::*&&&&&&%&%%%.&$>,,<<,,>>..%%%.%.%.o$$*o*******O*OO;**O:+$><<<<<<<$>*$=.@;$:@...@@@@@    ###############               ###############               ###############               ###############",
"               ###############               ########---   @...%%%%+$$,<<<<<<<<<>$$=o%&*;;O;OOOOOOOOOO:o%%%%%%%%%%%%%%.=$X++X:OOOO;OOOOOOO*O*********o*oooO+$$$$$=*o*;::O&&&&&&%&%%%.X$,,<<,,$;@%%%%%;*.o$$;o*********O*OXX=+=X$,1<<<<<<$$$$o..%$$%.....@@@@ @ ###############               ###############               ###############               ###############",
"               ###############               ######-#---    @...%%o$$$<<<<<<<<<<<,$$$=o%&*O;;O;OO;OOOOO;*&.%%%%%%%%%%.%$$;O:=++X:OOOOOOO*O**O*********o*ooooOX$$$$$=*o*::;o&&&&%&%%%.*$,,<,,>$&.%%%%.&:X$$;o*o*****O*O***:+X;*=$<<<<<1<<$$$=.%%.:$*@..@@@@@ @  ###############               ###############               ###############               ###############",
"               ###############               #######----   -&$$*..*$$><<<<<<<<<<<1<,$$$+*%%oO;;OOO;OO;OO;;*%..%%%%%%%.o$$:;;OO;=++X:O**OOO:**O*****o*o*o*oooo&*:>$$$$;o*::;o&&&&%&&%%.X$,,,,$:.%%%%%.%:$$;oo**********O:+=O*O*X$,<<<,,<1>$$&.%%.o$X.....@@@@   ###############               ###############               ###############               ###############",
"               ###############               #####-#---    -=$$$&.:$$,1<<<<<<<<<<<<1<,>$$$:&%&*O;;OOOOOOOO;O*&%.%%%%%.:$+:;;;O;OO;:X+X:O**XO***********o*o*oooo&o*=>$$+*o;:;o&&&&%&%%.&$>,,>>%.%%%%.o>$+*oo**o*******=+=O*OOO*+$<<<<,$$,$$+%.%%%.$$%...@@@@ @  ###############               ###############               ###############               ###############",
"               ###############               #######----   @$>:$=.+$$,,,<<<<<<<<<<<<<1<<,$$$XO&&o*O;;O;O;OOO;;*&%..%.%$$XX===;O;OOOOO:X+X:==*********o**o*ooooooo&&&*=$$OoO:;o&&&&&%&%.:$,,$*.%%%%.*$$=ooo*o*****oO=+=O**OOO;:>$<<<<,,>$$:O*.%%%@;$O@...@@@@ @ ###############               ########-##-##-               ###############               ###############",
"###############               ###############        @@@@@@&$X%>$:$$$>><<<<1<<<<<<<<<<<<<<,>$$$=*&%o*O;;O;OOOO;;Oo&%@o$>X$$$$>;O;OOOOO*O;=+$:O********o*o*o*oooooooo&&:$$:o*::o&%&&&%&%%>$$:.%%&%%*$$Oooo***o*ooO=+:***OOO*;>$$$<<,,,,>$+.o*%%%%@;$= @@@   ----               ###############               ###--#-#-######               ###############               ",
"###############               ###############     @ @ @@@. O$;%;>$$$$$,<<<<<<<<<<<<<<<<<<<<<<,$$$$X;o&&o*O;;;;OO;;;Oo=$+>$O%O$XOO;;OOOOO***;=+X=O*o*o****o*oo*ooooooo&&O$$+**;:*&%&&&&%%o$X%%%&%%&$$O&oo*o*o*oO=+:***O*O*OOX$oo$,,,,,,$$&.%%%%%.&$$$.@@@    ---               ###############      @  @ @ -#.O-##-###-#-###               ###############               ",
"###############               ###############       @@@@@. :$o&OO>$$$,,,,<<<<<<<<<<<<<<<<<<<<<<<,>$$$>=Oo&&o*OO;OOOO;$$X$$o @+>;O;OOOOOOOO****O:X+=O*ooo*oo*oooooooooo&&oX$$;*;:O&&%&%&%%o&%%&%%%:$:&o*o*oooOXX:*****O*OO*O>+@ X$,,,,$$o.%%%%%..+$>$&-@ -  ----               ###############  @ @  @ @ -#%:$$+ ##---#-####               ###############               ",
"###############               ###############      @ @@@.@@+$&&;OO+$$,,,,,,<<<<1<<<<<<<<<<<<<<<<<<<,>$$$$$X:Ooooo*O*=$>X$>;%.+$;O;O;OOOOOOOO******:X+=;*oooo*o*ooooooooo&&;$$+OO:;*oo&&&&%%&&&&%*$>ooo*ooo;XX;*o****O*O*OOO>+&.X>,,,$>&.%%%%%%.;$=X$*o>+.-   -- @             ###############@    @ @ -#.:$$X=$>.##-----#-#               ###############               ",
"###############               ###############    @ @@@@@.@.$$&&;OOOX$$>,,,,,,<<<<1<<<<<<<1<<<<<<<<<1<<<,,$$$$$$+X=;;>$XX$$+;:$X;O;OOOOOOO*O*******oo*;=+=;*ooooooooooo&oo&&o=$$=;;::;;;O;;;OOOO;$$Ooo*oo;XXOoo*******OOOOO*+$;;$>,>$+&.%%%%%%@*$X:X$X>$$;#  ---@              ###########-#-#  @@@ @-#.;$$$O@@:$$%##------#               ###############               ",
"###############               ###############     @ @@@@.@%$>%&;OOOO=$$$>,,,,,,,<<<<<1<<<<<<<<<<<<<<<<<<<<<<,,>$$$$$$$X=+$$$$>;O;O;O;OOOOO*;===;*****oo*;=+;o*o*ooooooooooo&&O>$$:;;;;;;;O;;;;=$$:&ooooXXOo*****O==:O*O*OOO;>$$>,$$=%.%%%%%%.*$+:=X$$$=$>-    -               ##########-##-- @ @  #.;$$$$O@## ;$$o##------               ###############               ",
"###############               ###############    @ @@@@..@&$X%o;OOOO*;>$$$>,,,,,>,,<<<<<<<<<<1<<<<<<<<<<<<<<<<1,$$>+>XXXXX++=;O;;;O;OOOOO*;>$$$$O*******oo*+ooooo*oooooo&ooo&&o=$$$+XXXXXXX+>$$$=ooo*o*Xoo*;=***>$$$X*OOOOOO;$$>$$O..%%%%%%@o$>:=X+$$$&=$%-  - @ @            #######-#-#----@@  #.;$$$+=$o.%-#-O$$*##-----@ @            ###############               ",
"###############               ###############    @ @@@.@.@o$=.o;O;OOOO=*=$$$$>,,,,,>,,,<<<1<<<<<<<<<<<<<<,<<<<<$$$+X=XXX=XXX;;;;;O;O;OOOOO+$*%&$+******o**o=:oo*oooooooooo&ooo&&*+$$$$$$$$$$$$+;ooo*oo::o***o**:$O.;$;*OOOOOO$$$>o..%%%%%%@o$>::X+X>$>@*$*#   -@@             ########-#-----  #@O$$$>*.@>;.%% ##*>$;-# ---@    @         ###############               ",
"###############               ###############  @  @@@@...@o$X%o;OOOOOO=o@&;>$$$$>,,,,,,,,,<<<<<<<<<<<<<<<,,<<1,$$>+>>+XX=X=X:;;O;;OOOOOOO;>>&@ =$O*******oo*+*oo*ooooooooooooooo&&o**=;*OOOO*o&ooo*o*oX*o*****oX$o %$:*OOOO*:$$X&.%%%%%%%.*$>::=++X>$O@&$X-    @ @ @          #####-#-#-----#-@O$$$>*%...*=.%%% ##o+$= -  -@@@ @  @       ###############               ",
"###############               ###############   @ @@@.@..@*$$XOOOOO;OO:o....o:+$$$$>,,,,,,,,,<<<1<<1<<<<<<$,1<$$$XXX+>>>>XXX=;;;;O;;O;OOO;>$*&%X$O*********o::o*o*o*oooooooooooooo&*;X*&&&&&ooooooo*o*Xo*******X$O%o$:*OO*O;+$:%.%%%%%%..*$>::=++X+$$%..+$. @  @@@            ###-##------## O$$$$O%..%%%.*%%%%% ##%=$O#   @ @@ @  @ @    ###############               ",
"###############               ###############   @@@@@@...@;$+$$:OOOOOO;*.%%%...&;+$$$$>,,,,,,,,,<<<<<<<<<<$$<>$$+XXXXXXX+>>>+:OO;;O;OOOOOOX$X;=$X**********o*+*oo*ooo*oooo*Oooooooo**=*oooo*oo*o**o*o::o*******;$X;>$;*O*;XX$$%.%%%%%%..;$+:==X+X+$$O.%.;$o-@  @@ @           ####--#---## *$$$$O%..%%%%%%%.%%%%%-#@O=$.-  @@@          @ #-#############               ",
"###############               ##############-   @ @@.@.@. O$+=$$+;OOOOO;%%%%%%%...&*X$$$$>,,,,,,,,<<<<<<<<,$$$$>XXXXXXXXXXX+>>X=;OOO;O;OOO;+$$$+O*O******o**o:=ooo*o*ooooooooooooooo&:Oooooo*oo*oo*ooX*o********X$$$:**;X+:;$X.%%%%%%.%=$X::=X++X>$+..%.&$=-@@ @@@@@ @        ###-#---##-*>$$$O%@.%%%%%%%%%%%%%..*::;;$;#  @@--.% #   -   -##############               ",
"###############               ############### @ @@@@@.@o=*O$+=++$$X:OOO;o.%%%%%%%%...%*=$$$$,,,,,,,,<1<<<1<$$$$+XXXXXXXXX=X==X:X++=:OOOOOO*O:::O************o*+;*ooooo*o*oooooooooooo:Ooo*ooo*o*oooo:Xo*********O::;*O=+:O*=$O.%%%%%@&>$X:==X++X+$$&.%%%.$$@ @ @@@ @          -#-#---#-o>$$$O%..%%%%%%%%%%%%%..oX$$;O;=$.-#--&=$$>X$$+@-  -#-############               ",
"###############               ##############-  @ @@@.@%$$$:$+X+XX+$$>X;O*..%%%%%%%%%%...&O+$$$>,,,,,,<<<<<<>$$+XXXXXXXXXXXXXXX:O;:=++X:;O*OO*O***OO*O********oO:XX:;*ooooooo*oooooooo:Oooo*o*ooooO:+=Oo*******O*****:+=OOOO$$&.%%%..*$$=:==X++X+$$*.%%%.%$$& @@.@@@@ @ @      ##----#.>$$$:%@.%%%%%%%%%%%%%..o::>>>=OO;$O#oX+$$$$$$$$$O#  --##-##########               ",
"###############               ############### @ @@@@.@o$+$$$+X+++XX+>$$$Xo....%%%%%%%%%%...oX$$$,,,,,,<<<<1,$$XXXXXXXXXXXXXX=XX;;OOO;:X++=;O**OOO**O*****o*o*oooo*;:=X=O*oooooo*o*ooo:Ooo*oooo*:XX:*oo**o***O**O**:+XO*OOO;$X.%%%..;$>:=:=X++X+$$O.%%%%.=$$O-@ @@@@@@         ----- #%$$;%..%%%%%%%%%%%%%..o=$$:*=>+;O;=$X$$$$$=X$$*;$$@ @---############               ",
"               ###############               ----   @-&$OO$$>X++X++X+X+$$$>:o%@..%%%%%%%%%%..&X$$>,,,,,<<<<,$$+XXXXXXXXXXXXXXXX=O;;;OOOO;=++X:O***O**O**X:*;==:*ooooo*O:X==;Ooooooooo=*oooo*;XX:*oo***:==O******:+=O*OOOO*+$*.%%.%:$X:=:=+++X+$$;..%%%@O$=$X...  ##--------#--   @@@ %$$%@%%%%%%%%%%%%...o=$$++>+=+>=OO;+$$>>$>::$$O.$$*#-@ @            ###############",
"               ###############               ---   @@-o$*.:$$+X++X++X+XX++>$$$:*%..%%%%%%%%%%..*>$$,,,,,<<<<$$$XXXXXXXXXXXX=X=X==;;;;;OOOO*;:=+X=;O*****O=>$$$$X****o*ooo*O:=XX:;*oo&=oo*;XX=Ooo****o=$$$>O**O=+=;*OOOOOO;$$%.%.&+$X:=:X++XX>$$O..%%%.o$XO$$$$$$$+%#----#-##-#@@@@@@ .$$&.%%%%%%%%%%.;o&=$$++++++>+>>;;::$,,,$$+X>$$.;$+--@ @ @          ###############",
"               ###############               ----  @@-*$*&o:$$>XX++X++++X+X:=+$$>=o...%%%%%%%%..%:$$>,,,,<<<$$$XXXXXXXXXXXXXXXXX>XO;O;;O;OOOO*O;=X+X**O**O$$&%:$;o*o***o*ooooo*;==XX:+=XX:Oooo**o***O$X%o$=**X=O**OOOOOOO=$;.%.&>$=:=:X++X+>$$*@%%%%.&$>;OX$X;;:=$:# ----#--#- @ @@@@.>$o.%%%%%%%%%.@*$$$+++++++>++>$+:::X,,,>$$;*>$:X$X--@@@  @         ###############",
"               ###############              @--    @@ *$o&;o;$$$+XX+X+X++X+X:::=+$$>O&..%%%%%%%%..O$$>,,,,<<,$$+XXXX+XXXXXXXX=X=X>:;;O;;OO;OOOO***OX:****:$:.@.$=****o**oo***ooooo**O+;*ooo***o****o:$;@@X+*O+**OOOOOOOOO$$&..o$$=:==X++X+$$>o.%%%%.%>$;;;=$:-%oo$:#  -----#--@ @@@@@@+$*.%%%%%%%..&:$>++++++>>++>$$$$:*::>,,<$$:&:$$$$&# @@ @           ###############",
"               ###############               ---  @@@ *$o&;O*O>$$>+XX+X+X+++X==:::=>$$:&..%%%%%%%%@*$$>,,,,1,$$+XXXXXXXXXXXXXXXX=+:;;;O;O;OOOOOOOO*;+****:$=o%&$=*******o;+>>X*o*o*ooXoo*o;+>+;o****:$:&.++*:=*OOOOOOOOO:$=@.o$>=:==X++X+$$+&.%%%%.%+$;O;;;$+&OoO$&#  --------@@@@@.@@X$;.%%%o...&:$$>+++++++>>$$$$$$X;&O:X,<<,$$*o>$$&#  @@@@@ @        ###############",
"               ###############              @--   @@@ *$o&;OOOO:>$$>+XX+X+X+++XX=:::=X$$:%.%%%%%%%%@*$$,,,,<,$$>XXXXXX+XXXXXXX=XXX=;;;;;O;O;OOOOOOO*X:*O*;$$::>$;*****o*O>$=X$X*o***o+o*oO$$=$$*****O$>;=$=*X;*OOOOOOOOO$$o@o$>::==X++X+$$:%.%%%%.%+$;O;;;;$$:o%$X-    -------@@@@... =$:@%%.=o&:$$>+++++>+>+>$$$$$X::=*o:=,<<<$$:*+$X#   @@@ @          ###############",
"               ###############            @  --   @@@@;$&&;OOOOOO=>$$$>+XXX+X++++X==:::X$$*..%%%%%%%.;$$,,,,<$$$XXXX+$+XXXXXXXXXX=X:;;;O;;OO;OOOOOO*O+O***:$$$$=********=$O@@:$Oo**o*+o**:$* o$:*****X$$$XOO+OOOOOOOOO;=$=@&$>:===+++X+$$O..%%%%.&$$OOOO;;O+$O@:$&-@  - ------@@@@@.. :$=@%.@:$$$>+++++++>+>>$$$$X:::::*@*=X<<<,$$$$$*-@@ @@@@@ @        ###############",
"               ###############              @-   @@@.@;$&&;OO;OOOOO:>$$$$>++XX+X++++X==::+$=%@&%%%%%..+$,,,,,$$$>>+XXXXXXXXXXX=XX=XX;;;;O;O;OOOOOOOO*=:*O**;==;*********X$O% o$;o****Xo**=$*@.$=*****O:=:O*:=*OOOOOO;O=$$&@+$:=:=X++X+$$;..%%%%@o$>O*O;;;;;=$Oo$;-@@    ----- @@@....@O$+ .&;>>+++++++>>+>>$$$$X:::=>$:o..:=,<1<$$$+o @@@ @@@@ @         ###############",
"               ###############              @-   @@@@@;$o%O;OOOOOOOOO;X$$$$$>++XX+X++++X=:=$>=:%%%%%%.o$$,,,,$$$X+>>$++XXXXXXXXXXX=XX;O;;O;O;O;OOOOOO;+;****************=$:*&=$;*****X***:$;o*$:***O******:>;OOOOOOOOOX$; O$=:==X+X+X>$+..%%%..*$X*;>$$$$$$>$+$+.@@@@   - - --@@@@...@*$+%;$$>+++++++>+>>$$$$+:::=::$$+*o@o:=<,$$$*@ @@@@ .@@@@  @       ###############",
"               ###############            @ @-   @@..@;$$;OOOO;OOOOOOO*O;X>$$$$$++XXX+X+++==>$&.%%%%%%.+$,,,,$$$XXXXX+>>>+XXX=XXXXX=X=;;;;;O;OO;OOOOO*:++=;*****O*******;$$X+$X****o;=***O$$X$$O**O****O=+X;*OOOOO;OO;$$o.$>:=:X+++X+$$&.%%%..O$X*O$$:==::X$$$>%@.@@     ---  @@....%.o$$>$>++++++>+>+>$$$$X:::=:;**$$:**.%::$$$$O@....@@@@@@@ @         ###############",
"               ###############              @-   @@@.@:$$$>;OOOOO;OOOOOOO*OX:=$$$$$>+++XX++XX$>%.%%%%%.O$>,,,$$$+XXXXXXX+>$>+XXX==XXXX=;O;O;;O;OOOOOOO**O:X+=;O****O*****;+$$XO*****;=****;>$>;*****O;X+=O**OOOOOOOOO+$=*:$=:==++X+X>$;.%%%..:$:**>$& @ .%O$$$&@..@@@@  -  -- @@@@..%.%+$$+++++++>+>>$$$$+:::X+:*o***OooO:;:;X$;&......@@@.@@@@@ @       ###############",
"               ###############            @ @-  @@@..@=$X+$$+;OOOOO;OO;OOOO=o &*;>$$$$>++X++++$=.%%%%%.&$$,,,$$$+XXXXXXXXXX+>>>>+XX=XXX=;;;;O;O;O;OOOOOOO**O:XXX:O********OOO*******;:*****OOO***O;X+X:O*OOOOOOOOO;:>$>OO$>:==X+X+X+$>%.%%..=$;**;$O .%&O&>$+$o....@@    - -  @@....%%.*$$++++>>+>>$$$$+=::===Oo****oo*=$$X;;:$&.%%%...@@@@@@@@ @        ###############",
"               ###############              @   @@@...=$+X+>$$X;OOOOOOOOOOO::.....&O=$$$$>XX+X+$o.%%%%%.+$,,,>$$>XXXXXXXXXXXXXX+>>>+X==X=;;O;;;O;OOOOOOOOOO***O;=XX=:O*************o:;*********;X+X:O**OOOOOOOOO;=+X$$:*:$+XXX++++X$$*.%%%.:$;***;$o.==;&*$:X$*....@@@     -  @@....%%%%+$$++>++>$$$$+=::==;*o*****o*=$$$$+OO;+X%%%%....@@.@@@ @         ###############",
"               ###############           @ @@-  @@@@@ =$+X+>+>$$+:O*OOO;OOO;X%%%%%...&O+$$$+X+X$+.%%%%%@:$,,,$$$>XXXXXXXXXXXXXXX=XX>>>>+X=;O;O;O;O;O;OOOOOOOOO****O;=X+=:O********;=+;*****O:X+X:O**OOOOOOOOOO;X+=OX$XO*=$X++++X+X+$>%.%%.*$;**O*;$;o=;o%$$O=$O@...@@@    -   @.@..%%%%%O$$>+>>$$$$+=::=:;******oo*=$$$$>>>;O;:$o%%%%..@@@@@@@@@ @       ###############",
"               ###############            @ @   @ @%*:$$$$>+>++>$$$=;OOOO;OOO.%%%%%%%...o+$$+XX+$o.%%%%.*$>,,>$$>XXXXXXXXXXXXXXXXXX=XX+>>>+:;O;;;O;OOOOOOOOOOOOOOO****O;=XX=:O*O;;==+=:;O:X+=;O***OO*OOOOOOO;++=O*:$>OOO+$X+X+X+X+$$o.%%.%$X*OOOOO$$OOo.=$:O=$;.%..@@@@    -  @@...%%%&%%+$$>$$$$+=::==;*******o*=$$$$>>+>>XOO;+X%%%....@@.@@@ @         ###############",
"###############               ##########-#---@@.@&>$$$+;;$$>+>>++>$$$+=;O*OOO%%%%%%%%%%...;$$>XX$+&.%%%.o$>,,>$$>=X+XXXXXXXXXXXXXXXXX===XX+>+;O;O;O;O;OOOOOOOOOO*OOOO*O***O;=>>++X=:+X+>>+;***O*OOOOOOOOOOOX+:OOO;$$;OOO+$X++X+X+$$=.%%%.;$O*OOOO*:$>:&;$XO;:$:%%%%...@@@@@@@@ @@@@..%..%=$$$$$+=:;::;******oo*:$$$$>>+>>++>:O;:$*%&%%%...    ----#######               ",
"###############               ###########--- @@.@O$=o%@  &>$+>+>>+++>$$$>:;OO&.%%%%%%%%%%..O$$>X>$Oo%.%.&$$,,>$$+:=XX+XXXXXXXXXXXXXXXXXX=X==>X:;O;O;O;O;OOOOOOOOOOOOO*O*OO;:=:==X+>>$>X==::O*OOOOOOOOOOOOOO+OOOO;>$;*OOO+$X+X++X>$>%.%%.%$=*OOOOOOO=$$$$+;;;+$=%%%%....@.@@@@@ @@@....%O>$$$$+=:::+$Xo*****o*:$$$$>>+>>X+++>XOO;++%%%%%%..@   ---########               ",
"###############               ###########--- @@.@&$+oooo&%:$>+>+>+>++++>$$$>X*...%%%%%%%%%%@*$$++$:OO&%..$$,,>$$>::=XXXX+XXXXXXXXXXXXXXXXXX=X>X=:;OOOOO;O;OOOOOOOOO*O*O;:========:;;X;:=====:O*OOOOOOOOO;O:XO;OO+$X%*OOO+$X+XX+>$$o.%%%.;$OOOOOOOOOO;:==;O;>>$=%%%%....@@@@.@. @@@.@@.X$$$>$$=:=::$$$O***o*:$$$$$++>++>:++++>:OO:$*%%%%...   ---##-######               ",
"###############               ##########-#-- @@..@O$:o;;;O=$>+>>+>+++++XXX+$$$>;o...%%%%%%%%@*$$+$=O;;O&%$$,,>$$$>=::XXXXXXXXXXXXXXXXXX=XX=XX>+=X=:==;OOOOOOOOOOOO*O;:========:;O;;:+OO;=====:O*OOOOOO;OOO==OOO=$$:%O;O*X$XX+>$$>o.%%%.%$=OOOOOOOO;OOOOOO;>>o$X%%%%%..@.@.@@@@ @@@ @oX$$>,,>$>:;**+$+**o*:$$$$$>++>++>X:>+++>XOO;++%%%%...@   ---########               ",
"###############               ##########---- @.....=$O%OO*+$+>++>++++>$$+XXXX++$$>:o..%%%%%%%@*$$$XOOO;;O$$,,>$$$$$X::=XX+XXX+XXXXXXXXXXXXX==X>=XXXX+>+=:;OOOOOOO;:=========:O;=>$$$$$+;O:=====;OOOOO;OO;O+;OO=$$$+&OOO*:$+>$$$;%.%%%%.=$OO;;O;;O;O;;;;;;>$%&$=%%%%.....@@@.@.@   &X$$$$,,,,$$:o*o*O*o*;>$$$$+>>+>+++>:=>++++>:OO:$*.%%...   ----########               ",
"###############               ###########--- @@....%X$;%o:$$+>>+>$$$$$$$$$+XXX:;:X$$+&.%%%%%%%.O$$+O*OOOO$$,,>$$,,$$>=::=XX+XXXXXXXXXXXXX=XXX=>+======X+>X:=:=::=X========:O;X$$$>>,,$$$XO;=====X=OOOOO;O;XO;X$$,$$&OOO;X$$$$=;o..%%%@O$:O;O;O;O;O;;;;O;$$& o$:%%%%%...@.@.@.@--&=$$$+>$$,,,>$>****o*;>$$$>>++>>+++++>*++++++>XOO;X+%%%...    --#-#######               ",
"###############               #########-#--  @...%%.%:$+X$$>+>++$$+:O&..;$>XX+X;;;O:>$O..%%%%%..o$$$=:;O*$$,,>$$,<<>$$+:::=XX+XXXXXXXXXXXXXXX=X$+X=X======XX=X=X======X=:O;X$$$,,<<<<<,$$$:;=====+X:OOOOOXX:X$$>,>$O;=>$$$+:OOOO*o..@*$XO;;;;;;;;;;O;O:$+&.@O$O%%%%%....@.@@  %=$$$>=::$$,<<<$$:oo*;>$$$$>++>++>++++>XO>+++>++>:O;:$*.%...   ----########               ",
"###############               ##########---- @....%%%%;$$>+>>+>+$$*&%%..@=$XXXX:;;;OOX$:..%%%%%%.%:$$$$$>$$>>$$$$>,<,$$$+:::=XXX+XXXXXXXXXX=XXXX+>>+XX==============X=:O;X$$$,<<<<,<,<<,,$$=;=X===+X=:=X>+==$$>,,>$$$$$>=;OOOOOO:+o.;$X;;;;O;;O;O;;;O=$=%..%$$o%&%%%......  &=$$$>=:::X$$$<<<,$>*;>$$$$>++>+++++++++>O:>++XX>+>+;::X+%....@  ----########               ",
"###############               ##########---  @...%%%&%*$>XX>+>+>>$:o;;=X*:$+XXX=;;;;;O:$=..%%%%%%..%*;=$$$$$$$$>+$><<<,$$$+:::=XXX+XXXXXXXXXXX=X==X+>>>+X===X=X=XXX=;O;X$$$,<<,<,<,<,<,<<,$$=;==X===X>>+X==$$$>$$$$$+:;O*OOOOOOO*;+>$=;;;;;;;;;;;;O;+$;..%.;$=.&%%%%....  %:$$$>=:::X>=;$$,<<<$$>$$$$>+>>++++++++++>+*+>+++==>>>=O;:$*@...   ---#########               ",
"###############               ##########---- @....%%%%o$$XX+>+>++$$*%O;;O=$+XXXX:;;;;OO:$=%.%%%%%%%.....%&&&&&%@&$><<<<<,$$$+=:::=XXX+XXXXXXXXXXXXX==XX+>>>+X====:;O;X$$$><<<,<<<<<<<<<<,<,$$X:===X>>X====>$$$$$>X:OOOOOOOOOOOOO:>$>:;;;;:;;;;;;;;:$$o..%.o$$&%&%%%%%.@ %:$$$$=:::=>XOooX$><<1,$$$$>++=>+++++++++++>=*$+++++;:>>XOO;X+....    ----#######               ",
"###############               #########-#--  @...%%%&%&$$>X+>+>>++$$*.oOOX$XXXXX:;;;O;O*;$+%.%%%%%%%%%%%......%.&$>,,,,<<<,>$$>X::::==XXXXXXXXXXXX=XX=X==X++>>+X:;:X$$$>,<<,<<,,>$$$>>,<<<<<>$>=X>+XXX++>$$$$X;OO*OOOOOOOOOOO;X$$$+X=:;:;:;:;;;;;X$=%.%%.&$$*%%&&%%%.@%:$$$$X:::=:;;o**oO$$,<,$$$>++>>:X>+++>++>+++$O:>+++>>+;:>>:OO:$*@..@  ---#########               ",
"###############               ##########---- @...%%%%&%>$>$>++>+>++$$;.&=$$XXXXXX;;;;O;O*;$$*...%%%%%%%%%%%%%%%.&$$$$$$$$$>>$$$$$>X::::::====X===X=XX=X=X=::;;:X>>$$$,<<<<<<<>$$$$$$$$$>,<,,,$$$$$$$$$$$$$$$$+*OOOOOOOOOOOO:+$$>+XXXXX=;;:;:;;;=$$*..%%.&>$>%%%&&%..%;$$$$X:::==+*o****ooX$$$$$$$$>++>=:>+++++++++>+*+>++++++>::>+OO;X+...@   ---#-######               ",
"###############               #########-#--  @....%%&&%X$O:$$>+>++++$$+X$$+XXXXXX:;;;OOOO*O+$+*&@.......%.%%%%%.&$>+>>>$$$$$$$$$$$$$$$>>>+++++XXXX======:::::X+$$$$,,<,,,,,,$$+O&...%*X$$$$$$$$$$$$$>>++XX=X$>*OOOOOOO*O:+$$$+XXXX+XX+X=:;;;;=$$;%.%%%@o>$$$o%&&%.&;$$$$X:::=:O*O****ooOX$$$$$;;$$>+++>O+>++++++++>=O>+++++++>+=:>:OO:$*@.@   ---########               ",
"###############               ###########--- @...%%%%&%;$:.O$$>+>++++>$$>XXXXXXXXX;O;;O;OOO*;>$$+:*&&&&%&&%%%%%.&$>=====XXXXX++>>>>$$$$$$$$$$$$$$$$$$$$$$$$$$$$$$$$$$$$>>>$$$O%@...%...*$$$>>++XXXX=======X=$$OOOOO;;X>$$$>+++++++X+XXX+X=::>$=&....@.o$$++$O%%%&:$$$$X:::=:O******ooO+$$$X:;*ooX$$+++>:=>++++++++>;:>++++++++>++++OO;X+..@    ----######               ",
"###############               #########-#--- @....%%%&%o$>%.O>$$>++++X+XX+X+XXXXXX=:O;O;OOOO**O:X>$$$$$$$$:.%%%.*$>=X++X==X======X==XXXXXX+X+X+++>>>$>>$>$>$>>>>>>>$>>>$>$$$O&%%.&%....@o$$===X====X>$$$+X++$$O;:X>$$$$>+++++X+X+X+X+XXXX+$$>*@@.%o;:+$$$$$$=.&:$$$$X:::=:;******ooO+$$$+*&&&o*oO$$>++>+=++++>+++>>*+>++++>+++++++>:OO:$O@@@  ---########               ",
"               ###############            @@@  @@...%%%%>$o%oO:>$$>++++++X+XXXXX=XX>;O;OOOOOOOO***OO;;:::$O.%%.@;$>>$$$$>XXX++++X=XX==XXX====X====X=X=X=X=X====X=X=X=X=X=+$;&*%..==;:*...O$>=XXX++>>$;O=$>++$$$$$$$>>+++++++++++X+X+XX+>$$+:O*O:X$$$$$$$$$$$$;$$$$X:::=:;******ooO+$$$+O&&oo*ooooX$$++++++>+++++++X;>+++++++++++++>+OO;X>@@.@@@@ @       ###############",
"               ###############          @ @ @  @@@..%%%%;$=%%oOO:>$$>+XXX+X+XXXXXX=>=O;O;OOOOOOOOOOOOOOOO$o.%%&*>$>$=%%O$>+>>>>>+++++$$$$>XXXXX+XXX=X=XX=X=+>>+X=X=XX=X=X$>%Oo..:$,,,$X%..X$++++>>>$; @@X$++$$$>>++++>>+>++++++++X+X+$$$=;O*O:$$$$>+X=====:X$$$$X:::=:;******ooOX$$$+*&&oooo*oo*oO$$>+++++++++++>>:=>++++++++++++++>:O;:$*@..@@@@ @      ###############",
"               ###############             @@  @@@...%%%&+$;%%oOOO;X$$$>+XXXXXXXXXXXXO;O;O;OOOOOOO;O;;;O:$&.%%oO$$>$&@..>$+++++++>++$$*oO$>+++>$>+++++X++X+$>>$$XX+X+X+X+$O%;&@;><<<<<>=.@*$$++>+++$*@%@:$++$$$>+>>>+>+>+>+++++X++>$$>:O*OOO=$$>X=:=====:;OO$$+:::=:;*o****ooOX$$$+*&&&ooo*oooooooX$$+++++++++++++:+>++++>++++++>>$$$:OOX>.@.@@@@@       ###############",
"               ###############           @ @@  @@@..%%%&%&$$:%%&*;OOO:+$$$>+XXXX=X=X=;;;O;OO;OO;O;OOOOOO$X.%%%@o$$>$&@..$>++>+>+>+++$=.@@X$+>+++++>+>+>++>$=.@o$>+>+>+>+$$o&:&&$<<<<<<<>*@%$$++++>+$=.@%>$++$>>$+>+>+>+>++++++>$$$>=;OOOOOO;$$X=:=====:;OOO*+$=:=:;*****o*XOX$$$+O&&&ooooooo*ooooo*$$>++>+++>+++>+=>+++++++++>>$$+X:;o.%:$O@..@@@ @ @    ###############",
"               ###############            @ @   @@@..%%%&%=$$X&.%oO;OOOO:+$$$$>++XX=X:OOOOOOOOOOOOOO;:+$$o.%%%.:$>+$X&%;$>+>++++++>+$=&. :$++>++>++++++>>$$;...>$+++++++$$%o;&O,<<<<<<1,X@@>$++>+++>$+=>$+++$>;$>+++++++>>>$$$$>=;OOOOOOOO*+$X:=====:OOOOOO*=$X:;*******o:$$$$>O&%&o&o&oooooooooo&*$$+>+++++++++++++++++++>$$>>;O***OO%.*+>.@.@@@@ @     ###############",
"               ###############            @ @-  @@...%%%&%=$>$$;%.%oO;OOO*O;:X>$$$$$$+=:::::::;:=+>$$$+:*.%%%.%$$++>$$$$>++++>+>++++$>;o*$$++++>++>+>+>>>>$:o..$>++>+>++$$%o;*;,<<<<<<<<>@@+$++++>++>$$$++++$>*X$$$$$$$$$$$+=:OO*OOOOOOOOO;$$======;OOOOOOOO:$X******oo*=$$$+*&%&&o&ooooooooooo&o;$$=O=>+++++++++++++>+>>$$X;*=:*OO*oo.# :$O@..@@@@      ###############",
"               ###############              @   @@@...%%%%X$;X$$>*%.&*;;OOOOOOOOO;=++$$$$$$$$$$$>+=;*%...%%%%.*$$>>++>>++++>++++>+>+>$$$$$+++>++>+++++++++$>:;X$++>+++++$$%o;O;,<<<<<<1,X@.>$++>++++++++>>$$$+*OX++X++X=:;OOOOOOOOOO;OO*;X$$+====:OOOOOOOOOOO$+o****o*=$$$>*%%&o&o&o&o&o&oooo&&;>$X:O*:>++>+++>+++++++>>=:O**OO+*%%%.%%##o+$%@.@@@@@ @   ###############",
"               ###############           @ @ -   @@...%%&%:$:OX>$$+O&.&*O;;OOOOOOOO*OOOO&%&%&%&&%.@@..%%%%%%..X$$$$$$$$>$>++>+++++++++>>>++>++>+++>+>+++++>$$$$>++++>+>+$$o&;O;><<<<<,<>O@%$$+++++>+>$$$$$$$>;OOO******OOOOOOOO;;;;O*o*=$$$$+===:OOOOOOOOOOOO$$**oo*=$$$>O&%%&&&o&&&&&&&&&&&*:$$+:;OO:++++++++++++++>>+O&oOO*o%o=..%%%%@# :$;@..@@@ @    ###############",
"               ###############              @-   @@@..%%%%;$:O==X>$$$:o%%oO;;OOOOOOOOOOO*........%%%%%%%%%%.%:$$X+>>$$$$$$$$$$$$$>>>>+++++++++++++++++>+>+++>>+++>+>++++>$O.O;OX,<1<1,$X%@o$$+>>$$$$$$$$+X=$XoO;;;;;;;;O;O;;;;;O*&&&*X$$$X+$X===OOOOOOOOOOOOO$$oo*=$$$>O&%%&&&o&&oO*****O:X>$>X:;OOO=>>++++>+++++++>$=o&ooo&%...:*.%%%%%##&X$%@.@@@@ @   ###############",
"               ###############             @ -   @@@..%%%%*$=O=====>$$$+;o%&*O;O;OOOOOO;;*%%%%%%%%%%%%%%%..&+$$X==X=XXX++>>$$$$$$$$$$$$$$$$>>>>>>>+++++++++++++++++++++++$>%&;OO+>,,,>X&@.X$$$$$$$$>+=:;;;;>$o%o**OOOOOO****o&%.%o:>$$$+=:X$+===OOOOOOOOOOO*O$>*:$$$>;&%&&&&&&&&&$$>>>>>>>X=:;;;*O:+>++++++>>+++++>>O&&o&&%%%%%%%&%%%%%%.##;$; ..@@@@ @  ###############",
"               ###############              @--  @@@...%%%o$XO:======X$$$$>:*o***OOOOOOOO;o.%%%%%%%%%%.@.o=$$$:=XXXXX=X=X===XXXXX+>>>$$$$$$$$$$$$$$$$$$$$$$>$>$>$>$>$>$$$$$:.o;OO:XX:*..%O$$$>X=::;;;;;;;;;=$:%..%%&%%&%%%..%&*=>$$$$+=:==X$+==:OOOOOOOOO*OO=$$>$$$;&%&&&&&&&&&&=$X;;:;:;;;;OOO;=+>>++++>++>>++++$>;&oo&%.%%%%%%%%%%%%%%%##&X$%@.@@@@@   ###############",
"               ###############              @--   @@...%%%&$+O:=======:X+>$$$$+==:;OOOOO*OOo..........o;+$$$$>;XXX=XXXXXXXXXX=XXX=X==XXXXX++++++++$$$$$$$$$$$$$$$$$$$$$$$$$$O.&O;OOO****;$>o=$X;O;;;;;:;:;;;$$+:*&%%%%%%o*;=+$$$$$$>=======$>==;OOOOO*OO;=+$$$$$$:o%&&&&&&&&&&%O$+OOOOOOOOOOO:=+>>+++>:=>++++++>$+O**&%%%%%%%%%%%%%%%%%%%.##;$; .@@@@ @  ###############",
"               ###############            @  --   @@@...%%&$$O;=========:OO:X>$$$$$$$>X=::::*ooooo*;X$$$$$X:$X:XXXXX=XX=X=XXXXX=XXXXX=X=XX=X==X:;;;;;;;:::=======:+$Xo*o*o*>$:%%o*OO**&;$$o@.O$>;;;:;:;:;:;;X$$$$$$$$$$$$$$$$$$$$>X========$$==;OO**;=+$$$$$$$$:o&&&&&&&&&&&&%o$$+::::::::=++>>++++++>:=>+++++>$=**Oo%%%%%%%%%%%%%%%%%%%&:##&X$%@.@@@@ @ ###############",
"               ###############               --   @@@..%%%%+$;O=========:OO**OO;=X>$$$$$$$$$$$$$$$$$$$+:=$:=$::XX=XXXXXXXXX=XXXXX=XXXXXXX=XXXXXX:;;;:;;;;;;;;;;;OX$$O@....@%X$>O&%&%&oX$$o.%%@&>$:;;:;;;:;:;:$X;=+$$$$$$$+X=X$$$+==========$$==;*O:>$$$$>+XX$>o&&&&o&&&&&&%&%%:$$>>>>>>>>>>>+++++++++>;=>++++$$;*O*&.%%%%%%%%%%%%%%%%%%.@:&##;>; @@@@@   -##############",
"               ###############               ---   @@...%%.:$:O:=======X:OOOOOO*O**OOO;::=XXXXXXXX::;O**=$:>$XXX=X=X=X=XX=XXX=X=XXXX=XX=XXX=XXXXX:;:;;:;:;:;;;;;X$*%o%%%%%%.%;$$$>>>$$$+&.%%%%.%+$;;;:;:;;;;;$$ooo;$>::=::=>$$+=:=========:+$+:O:$$$$+X=:===$$*&o&&&&&&&&&&&%o$$>++++++++++++++++++++>:=>++>$+O*O*%.%%%%%%%%%%%%%%%....%o;+**;=$%@.@@ @@ ###############",
"###############               #############-- @@@@....%%%&%*$+O;=========OOOOOOOOOOOOOO**O***O*****O*OO*+$;$>+$$$>++X===X=X=XXXXX=XXXXXXXXXXX=XXX=;;:;;:;;;:;:;:$O@..%%%%%%.@ .OX>>>X;&@.%%%%%%.%$+;;;:;:;;;OX$;**o=$>==:X$$$X=============X$$++$$+X=:=====;=$;&ooooo&&&&&&&%X$$++++++++++++++>++>++>+:+++>>XOOOo%.%%%.%%%%%%%%%%..%oOX$$$$$$$$$*    ----               ",
"###############               ##############-  @@@@@..%%%%&&$$OO=========;OOOOOOOOOOOOOOOOOOOOOOOOOOOOX+$$:$*&;:X>$$$$$$++XXXX====X=X=X=X=X=XXXXXX=;;;:;:;:;:;;$X.%%%%%%%..&O=+++$>$+:*&..%%%%%%.*$:;;;;;;;=X$$=*O**>$X:+$$+=:=============:+$$$>=:=====:OO*O$Xooooo&o&o&&&&*$$>++++++++++++++++++++++:>+$$;%o*&%%%%%*.%%%%%%%%..&;>$$$$$$+=Oo%.@     ---               ",
"###############               ############### @ @@@....%%&%%;$XOO;========OOOOOOOOOOOOOOOOOOOOOOOOOOOOO;$X=$ooOO**O;:=X+$$$$$$$$>>++XXXX=X=X====X=X:;;;;;;;;;;:$o.%%%%%..oX$$$$$$$$$$$$$X*..%%%%.%>X;:=+>$$$$:$>***oO$$>$$X==================X+X======:OOOOOO$>o&o&&o&&&&&&%+$$+++++>++>++>+++++++++++X>$X;*O&...%%%%=*.%%%%%.%&*X$$$>:Oo&.@@@@@@@@  ----               ",
"###############               ##############-  @@@@@...%%%&%&$$XOO;:======:OOOOO:;OOOOOOOOOOOOOOOOOOOO*:$:+$&*;O;OOOO*OOOO;;==X+>$$$$$$$$$$$$>>>++++=:::::::::+>.%%%%%.%=$$$,,,,,,,,,,,$$$=%.%%%%@=$$$$>X:*&.@=$O***o;$$$=:===========:;O;====:=====:OOOOOOOO$>ooooo&&&&&&&o$$>+++>++++++++++++>+++++>$>;&oOo%%%.%%%.*$&.%%..&*=$$>:*&&&&&%%%...@@    ---               ",
"###############               ############### @ @@@.@..%%%&&%o>$$=OO;======;OOOO=X;OOOOOOOOOOOOOOOOOOO*+$;>$&OOOOOOOOOOOOOOOO**OOOO;;;;;:=X++$$$$$$$$$$$$$$$$$$=.%%%%.&+$$,,,<,<,,,,,,,<,$$+%.%%%.&*&&%%@@..%@:$;***oo+$============;OOOOO;========OOOOOOOO*X$:&oo&&&&&&&&%=$$++X+++++++++++++++++>+>>X*&oo&%%%%%%%%.%$>%..%*:$$+Oo&ooo&&&%%...@@@@  ----               ",
"###############               ##############-  @ @@@....%%%&%%&;$$$X;O;=====;O*:===;OOOOOOOOOOOOOOOOOOO$$O$+oOO;OO;OO;OOOOOOOOOOOOOOOOOOO*O*O***OOOO;;+:&&&&&&&&.%%%.%+$>,<,,,,,><<<,,,,,,>$+%.%%%%....%%%%%%.*$=*ooOX$$=========+>:OOOOOOOO::==:;OOOOOOO*OX$>o&&&&&&&&&&%o$$>+>:+>+++++++++>+++++>>+:o&o&%%.%%%%%%%%@=$X.*$$$+Ooooooo&o&&%%%...@@    ---               ",
"###############               ###############   @@@@@..%%%%&%&%%o:$$$+:;:====;*XX===;OOOOOOOOOOOOOOOO*:$XO$>:;O*OOOOOOO;OOOO;OOOOOOOOOOOOOOOOO;OOOOOOOO=&@.....%%%%%.:$>,<,,,,>,<11111<,,<,>$=.%%%%%%%%%%%%%%@&$+o*=$$$>=======+>=;OOOOOOOOOOOOOOOOOOOOO*O>$$o%&o&&&&&&&&%:$$++>OX>+++>++>++++++>$+:*O*o&%%%%%%%%%%%%.*$$+$$$;ooo*oooo&&&&%%...@@@   ----               ",
"###############               ###############  @ @@@@....%%%%%&&&&o;>$$$=:====;>+===:OOOOOOOOOOO=;OOO*+$;*>$$$$+=;OOO*OOOOOOOOO;OO;OOOOOO;OO;OOOOOOOOOOO*&.%%%%%%%%.o$$,,,,<11111111111<,,<,$$o.%%%%%%%.;%@..%o$>o+$$$$>======:;O*OOOOOOOOOOOOOOOOOOOO*O=$$Xo&&o&&&&&%&%%&>$>++>;++++++++++++>$$+Oo&&**%%%%%%%%=%%%%%.%$$$$X*oo*oooo&o&&&&%%...@@@@   --#@              ",
"###############               ###############   @ @@.@..%%%%%%&%&&&&&O=$$$$+==:$$===+:OOOOOOOOOO$=*O*;$$*o*:=>$$$$$$+X=:;OOOOOO*OOOOOO;OOOO;OO;O;O;OOOO;;Oo%%%%%%%%.:$,,<,<1111111111111<,,,,$:@.......%=O;=+$$$:*$$>,$$=====:OOOOOOOOOOOOOOOOOOOOOOO*;>$$;&%&&&&&&&%&&&%*$$+++>*X++>>>>$$$$$+=:*&&oo&&%%%%%%%%;&%%%.@*$$$;oo*ooooooo&&&&%%...@@@    ----               ",
"###############               ###############    @@@@@...%%%%%%&&&&&o&&o;X$$$>X>$X==X+OOOOOOOO*;$+*O:$$;o***o**;:X$$$$$$$$$+X=:::;;OOO**O*O*OO*O*O*OOOOOOOOo%......@X$,,,,<11111111111111<,,,$+&o*;:X>$$$$$$$+=OO>$$>,>$X===:OOOOOOOOOOOOOOOOOOOOOO*;X$$Xo&&&&&&&&%&%&%%.=$$++>$*>$$$++XX=:;O***OOo&%%.%%%%%%%%%%%%.%:$$>*&o*oooooo&&&&&%&....@@@@  - ---               ",
"###############               ###############  @ @ @@.@...%%%%%%&&&o&ooo&o*:>$$$$>===XOOOOOOOO*X$>+$$$=oo******oo*$$XO:X>$$$$$$$$$$$$>>>+++X==X=X=X::::::::=:******o+$,,,<1111111111111111,,,$$$$$$$$$$$$$:**oo*$$$$$,>$+===OOOOOOOOOOOOOOOOOOOOO*OX$$>O&&&&&&%&&%&%&%&%&$$>$$$$*:;OX******OOO**o&%%%%%%%%%%%%%%%..&X$$Xooo*oooooo&&&&&&%%...@@@@    ----               ",
"###############               ###############     @@@@@....%.%%%%&&&&&oooooooO:+$$X===OOOOOOOO;$$$$$=Oooo**o*****;$$$:*ooO;==XX++>>$$$$$$$$$$$$$$$$$$$$$$$$$$$$$$$$$$$,<,<1111111111111111<,,,,>$$$+==::+$*o**o+$>o+$$,$$==OOOOOOOOOOOOOOOOOOOO*O=$$$;&&&&&&&%%&&%&%%%%.*$$$X:O*%*OO+OO***oo&&%...%%%%%%%%%%%%%%%.o$$$:o&ooooooo&&&&&&&%%%...@@@    ----#               ",
"###############               ###############   @ @@@@.@..%...%%%&%&&&&oooo**oo*$$>====OOOOOO*X$$:*oooooo*o**o**o=$+$$$=O*o**O;::::::$>++==XXXXXXXX+++X>$:::=+$$>,>,>,,,,,11111111111111111,,<,$$>=::==:>$***o*$$O#*$$<,$X;OOOOOOOOOOOOOOOOOO*O=$$$:o&o&o&&&%&%%%&%%&%%%=$+***OOo*ooO%%%%%%..%%%%%%%%%%%%%%%%%%..&=$$O&ooo&ooo&&o&&&&%%%%%..@@@@    ----#               ",
"###############               ###############     @ @@@@...%...%%%%&&&&&&&ooo**o=$$+====O*OO*:$$>ooooooooo*o*o*oo+$:=>$$$$X:;OO*OO;::$>XX=:::::::::::::+$oooooO$><,,<,<,,,<1111111111111111<<,>$X::==:=:$>**o*oX$+..>$,<$+OOOOOOOOOOOOOOOOO*;X$$$=o&&oo&&&%&%%%&%%%%%%%%$$:*O*o&%%..%%%.%%%%%%%%%%%%%%%%%%%%%%.%*+$+*&oo&o&oo&&&&&%&%%%%%%@@@@@    ----#-               ",
"###############               ###############     @ @@@.@......%%%%%&&&&o&oooooo*$$$>X===;OO=$$$;&oooooooooooo*o*>$:=XX+$$$$$$$$++++>$>X+X============:>$*****o:$,,,,,,,<,1111111<11111111111,$>XXXXXXXX$Xo*o*o*$$O-*$$<>$;OOOOOOOOOOOOOO*;X$$$=*&ooo&&&&&&%%%%%%%%%%%%o$$Oo&%.%.%%%%%%%%%%%%%%%%%%%%%%%%%%%..&:$$=o&oo&o&&&&&&&&%&%%%%%..@@@     -----##               ",
"               ###############               ###-#----    @@..%%%%&&&&&&&oo&oooo&O$$$$$$$$$$$$$>oo*oooooooooooooo$$;=XX===XXX+>$$$$$$$$+X++XXXXXXXXXXX+$+*******>$,<<,<,,,,11111111111111111<$>XXX+X+++$$;ooooo&=$>&o$$,,$X*OOOOOOOOOOO*;+$$$:o&ooooooo&&&&&&%%%.%..%.@;$+...%%%%%%%%%%%%%%%%%%%%%%%%%%%%%%..o+$$;oooooo&o&&%&%%%%......@@....@@@@@@ @   ###############",
"               ###############               #####----    @@..%%%%%%&&&&&&o&&&ooo&;$$$$$$$$$$$$*ooooooooo&&&&&o&o$>;=XXX====*******oo;$>++X+++++++++++$$:*******O$$$>,,,<,,,<1111111111111<,$$$$$$$$$$$$:oooooo&o$$$$$$$$$$=*OOOOOO**O:>$$>:o&ooooooo&&&&&%%%%%.......@X$;@%%%%%%%%%%%%%%%%.%%%%%%%%%%%%%..&;$$+*ooooooo&&&%%%%%.....@@@@@..@@@@@@ @     -##############",
"               ###############               ######----     ....%%%%%%&&&&&&&&&&o&&o;+$$$$$$$:*oooooooo&o&&&&&o&o$>;=X=XXX==:****ooo&&X$$$$$$$$$$$$$$$$:********o:$$$$$$>,,,,<11111111<,>$$$+XXX++++=>$;&ooo&o&o&;$$$$>$$X$$=*****O:X$$$+;o&ooooooo&o&&&&&%&%%%.......%$$o.%%%%%%%%%%%%%%%%%O%%%%%%%%%%..%*+$$:oooooo&o&&&&%%%%....@.@@@@@@@@@@@@ @ @ @  ###############",
"               ###############               ####-#-----   @.....%%%%&%&&&&&&&&&&o&o&&oo****o&ooooo&o&&o&&&&&&&&*$+;=XXX=====;****oooo&o;:===XXXXXX=X$:o********o;$X:+>$$$$$>>,<11<,>$$$+=Oo&ooooo**oX$*&oooo&o&&&o*ooooooO$$>::=+$$$$=*oooooo&oooo&&&&&%%%%%%%......@&$$%.%%%%%%%%%%%%%%%.oX.%%%%%....&:$$$+*ooooooo&&&&&&%.....@.@@@@   @@@@@@ @       ###############",
"               ###############               ########----   @......%%%%%%%&%%&&&&&&&&o&&&&ooooo&o&o&&&&&&&%&&&&&o$+;XXX=XX===:O**o*oooo&&&&&&&oooo*o=$;o*o*o*o**o:$X;X==XX+>$$$$$$$$>=Oo&&&ooooo*****>$o&oo&&&&&&&o&oooooooO+$$$$$$X;o&ooooo&o&&o&&&&&&%&%%%%.%@.@...@o$+%%%%%%%%%%%%%%%%%@:>....@@.&O+$$$>Ooooooooo&&&&&&%.....@@@@ @    @@@@@ @  @     ###############",
"               ###############               ######-#-----  @@......%%%%%&%%%%&&&&&&&&o&o&ooo&o&o&&&&&&&&%&%&&&%O$X;XXXX======:O*o*oooooo&ooooo***O*>$*o*o*o*o*oo:$=;XXXX=====X+>X;*o&&ooooooooO*o**O$$o&o&o&&&&&&oooooooooooO;;;*o&&oooo&o&o&&&&&&&&%%%%%%%.%..@....@;$=.%%%%%%%%%%%......>>.%ooO:+$$$$>;o&oooooo&&&&&%%%%...@@@@@ @     @@ @   @       ###############",
"               ###############               #########----- @@@@@.....%%%%%%%%%%%&&&&&&&&&&o&o&&&&&&&&&%&%%%%%&%O$X;XX=XX=X====XXOo*oooooooooo;Oo***$$ooo*o*oo*oo:$=;XX=XXX====::;*oooooooooo*X$$=**O$>&&o&&&&&&&&&&o&ooooooooooo&oooooo&o&&&&&&&&&&%&%%%%.%...@@.@..@=$:@%%%%%%%%..@%o*;:X$$$$$$$$$$$XOo&ooooooo&&&&&%&%%%..@@@@@      -- @ @ @         ###############",
"               ###############               #######-##-----@@@.@.......%%%.%%%%%%%&&&&&&&&&&&&&&&&%&%%&%%%%%&%%*$X;XXXX=X====:=XX*ooooooooo*X$$=O*O$>oo*oooooo*o:$=;XXX=X========::O*oooo&o:$$$$$$:;$X&&&&&&&&&&&&o&&o&ooooooooooo&o&&&&&&&&&%%&&%%%%%%%......@@@... +$O.%%%%%...&*=$$$$$$$$$$$$$+:Oo&&ooo&ooo&&&&&%&%%%%.@@@@@     -----@              ###############",
"               ###############               #########-##---@@@@@@@@......%...%%%%%%%%%%%&&&&&&&&%&%%%%%%%%%%%%%;$X;XX=XXX======:=:;O*o**oo=$$$$$$=:$=oooooooooo&:$=:XX+XX=X=====:=:=:;;OO:>$$++>>$$$$;&&&&&&&%&%%&&&&&o&o&oooooo&&&&&&&&&&%&%%%%%&%%%%........@@.@...>$*.%%%...o=$$$$$$+X=:;O**oo&&oooo&o&&oo&&&&&&%%%%%..@@@     - -----  @  @         ###############",
"               ###############               ##########-#--- @ @@@@.@...........%%%%%%%&%%&&&%&%%%%%%%%%%..%%%%.;$=;X++X=X=====:=:==:::=XX$$$++>>$$$$;oooooooooo&:$=:>>X$X=X====:=:=::::=>$$>+X+$+>$$Xo&&&&%%%%%%&&&&&&&&&o&&o&oo&&&&&&&&&%&%%%%&%%%%..........@@@..@.$$o.%%..o+$$$$X;**ooooooooooooooo&o&&&&&&&&%%%%%%....@@     -------#               ###############",
"               ###############               ###########-##-  @@@@@@@@@@...@@......%%%%%%%&%%%%%%%%%%%%%%...%%%.;$=;$XX$X=X=====:=:::::=>$$>+X+$++$$=oooooo&oooo&:$=:>&%=+========:::::+$$$+X++X>+X$+&&&&&%&%&%%%%&%&&&&&&&&&&&&&&&&&&%&%%%%%%%.%%.%.......@.@.@@@@.@%$$&...&X$$$XO*oooo*****oooooooo&o&&&&&&&&&%&%%%.%....     -------##-               ###############",
"               ###############               #############-# @  @@@@@@@.@..@@@@.......%..%%%%%%%%%%.%..%.....%%.;$=:>%%=>=X======:::::+$$$+X++X++X$+&&oo&o&o&&oo&:$==X%%:$+X=====:X+X+$$$+XX++X==>:X$*%&&%%%%%%%%.%&%%&&&&&&&&&&&&%%%%%%%%%%....%.%.....@.@.@.@@@@..@&$$&@.O$$$X*oooo***ooooooooo&o&&&&&&&&%&&%%&%%%%.....@   -------##-##               ###############",
"               ###############               ##############-   @   @@@@@@@@@@@@@.@........%%%%%.%........@....%.;$==X%.;>=X=====:++++$$$+X++XX:=>:X$O&o&o&o&&o&&&;$=:$o&+$+X=X====$$$$$>+X++>+:=:>=:$X%&%&%%%%.%.%%%%&%%%&%&&&&&&%%&%%%%%%%............@.@@@@@. @@@.@&$$%.=$$+*&oooo*oooo*o*o&o&&&&&&&&&&%%%&%&%%%%......@@  - ----##-####               ###############",
"               ###############               ###############    @ @ @@@@@@.  @@@@@@.@......%.%...............%%.O$X:$*o>+XX=X====$$$$$>+X++X=:=:>X:$>&&&&&&&&&&o&*$X;>$>>=XXX====X$>+>+X++XX+===:X+:+$*%%%%%%.....%%%%%%%%&%%%&%&%%%%%%.......@@...@.@@@@@@.@@. @@@.@.$$O+$$:&&oooooooooooooo&&&&&&&&&%%%%%%%%%%%......@@@@ -----##-######               ###############",
"               ###############               ###############         @ @@@@    @@@@@@@@@@................@@.....*$X;+$$>X=X=X===+$>+++X++X=:===:X>:X$O&o&&&&&&&&&o$+;X+XXXXX=XX==>$+XX+++==:=:=:==>=:$X%%%%%......%%%%%%%%%%%%%%%...........@@@@..@.@@@@@@@@@@@ @@@.@.>$$$$*%&ooooooooooooooo&&&&&&%&%%%%%%%%%%%......@@@@@-----#-########               ###############",
"###############               ###############               #-#-#----#---- @@@@@.@........@@@@@@ @    @ @...%%%%o$+;=XXXXXXX=X==>$+XX++X==:==:==:>=:$+%%&%&%%&%&%&$$;::==XXXX====$$++++X=:=======:+X:$>&&%%%%%%...@@@.@..........%%%%%%.%.......        -      ......%>$$$o%&&&&&&&&&&&&&&&%&&&&&&&&&&&%&%%%..@@@@@@     --@              ###############               ",
"###############               ###############               ########-#-----@@@@@@@.@.@....@@ @         @ ....%%%&$$;;::==XXXX===$$X+++==:=====:==X+:$>%%%%%%%%%%%%=$>=:::::==XX=+$>XX+=::=:=:=::=:=++$*%&%%%%%..%.@@@@@@@.@......%.%.........@.@   - -------   @...%.%$$+o%&&&&&&&&&&&&&&&%&%&&&&%&%%%%%%%%..@@@@@      ---  @            ###############               ",
"###############               ###############               #########-#----@@@@@@@@@@.@@@@              @...%%%%%X$>X=::;:::===+$>XXX=::=::::=:::=++$O%%%%%%%%%%&%o+$$$$$$$$$$$$$$$$$>X==:=:=:=====$$:%%%%%%......@@@@@@@@@@@@@@@.........@.@@@@  -----------  @.....%$X%%%&&&%&%&&%&%&%%%%%%&&%&%%%&%%%%.%.@@@@@    ------ @             ###############               ",
"###############               ###############               ##############- @ @@@@@@@@@@.@       -       @....%%%oX$$$$$$$$$$$$$$$$$>XX========XXX$$X%%%%%%%%%%%%%%%o:=++$>$>>>>+=X+$$$$$$$$$$$$$$$$X&%&%%%%...... @@ @@@@@@@@@@@......@.@.@@@@@ - --------- - @@....%;%.%&&&&%%&%%%&%%%%%%%%%%%%%%%%%%.%...@@@     - -----               ###############               ",
"###############               ###############               ############-#-  @ @ @@@@@@@@@  - --- ---    ....%%%%%%oO:X+>>>>>>+=::X$$$$$$$$$$$$$$$$+&%%%%%..%.%%%%%%%&&&oooo*o*ooooo***;::::::::;O*o&%&%%%.....@.@        @ @@@@@.@.@.@.@@@@@@@@-------------  @@......%%%%%&%%%%%&%%%%%%%%.%%%%%%%%........       -----###               ###############               ",
"###############               ###############               ##############-    @ @ @ @@@@@-------------  @....%%%&%&&&&&&&&&&&&ooooo**O;:;:;;;;O**o&%&%%%..%...%%%%%&&&o&ooooooo****oooo&o&&&&&&%%%%&&%%%%%...@.@@               @@@@@@@@@@@@@@ ----######---- @@@...%.%%%&%%&%%%%.%%%.%.....%%%.%........@.     ------#-#-               ###############               ",
"###############               ###############               ###############  @   @ @ @  @ ------------ - @....%%%%&&&&&o&o&oooooooooooooooo&o&&&&&&&&%%.......%..%%%&&&oooooo*o*ooo*ooooooooo&&&&&&&&%%%%....@.@@@  -            @@@@@@@@@@ @  @-###-#-#-#---- @@.@...%.%%%%%%%.%.%.........@..........@.@@@   -------#####               ###############               ",
"###############               ###############               ##############-    @      @ @ -------#------ @@....%%%%&&&&o&&&oooooooooooo*oooooooo&&&&&%%.%........%%%%&&&&&ooooooo*oooooooo&o&o&&&&%&&%%%%...@.@@@@------------ - @@@@@@@ @ @ @  ##-######-#----@@@.....%.%%%%%..........@.@@@........@.@@@@@ -------###-###               ###############               ",
"###############               ###############               ###############       @ @     --#####-#---- -@@....%%%&%&&&&&&o&&ooooooooo&ooooooo&&&&&%%%%............%%&&&&o&ooooooooo&o&&&o&&&&&&%%%&%%%%....@@@@@@-------- ------@@ @ @ @       -#########-#-- @@@@.......%.%%......@.@@@@@@@...@.@@@@@@@@@@-------#-######               ###############               ",
"###############               ###############               ###############             @ ###-#-#####--- @@@....%%%%&&&&&&&&&&&&&&o&o&ooooooo&o&&&&%&%...@.@@.@...%.%%&&&&&&&&o&oooo&&&o&&&&&&&%&%%&%%%%...@.@@@ @---------------  @ @   @ @ @  ###########----@@@.@@......%...@.@@@@@@@@@@@ .@@@@@@@@@@@@@@-----##########               ###############               ",
"###############               ###############               ###############               ########-#-#---@@.@...%%%%%&&&%&&&&&&&o&&&&&&oo&o&&&&&&%%%%%..@.@@.@@.@....%&%&&&&&&&o&&&o&&&&&&&&%&%%%%%%%%.....@@@@@@ ---##-##------- @    @        #########-##---@@@@@.@........@@@@@@@@@ @    @@@@@@@@@@@ @  ---##-#########               ###############               ",
"###############               ###############               ###############               ###########----@@@@....%%%%%%&%%&%&&&&&&&&&&&&&&&&&&&&&%&%%%@.@@@@@@@@.@...%%%&%&&&&&&&&&&%&&%&%&%&%%%%%.%%%%..@.@@@@ @ -##-###-######-   @           ###########-#--@@@@@@@.@......@@@@@ @        @@@@@@@@ @ @ @ -##############               ###############               ",
"###############               ###############               ###############               ############---@@@.@....%%%&%&%%%%%%&%&%&&%&&&&&&&&&%%%%%%%.@@@@@@@@@@@@...%%%%&%&%&&&&&&&&%%%%%%%%%%%%..%%.....@@@@ @  -#-######-##-##               ############-#- @@@@@@@.@@.@.@@           - -@@@@ @ @  @    -##-###########               ###############               ",
"###############               ###############               ###############               ###########-#--@@@@@.....%%%%%%%%%%%%%%%%%&%%&&&&&%&%&%%%%.%@@@@@@ @@@@@@@..%%%%%%%&%%%&%&%%%%%%%%%%%..........@@@@@ @  ###############               ##########-##-- @@@@@@@@.@@.@.          ----- @  @   @      ###############               ###############               ",
"###############               ###############               ###############               ############-#-@ @@@@......%%%..%%%%%%%%%%%%%&&%%%%%%%%%....@@@   @  @@@@@@..%%%%%%%%&%%%%%%%%%%.............@@@@@@ @   -##############               #############-# @ @@@@@@@@@@@@      ---------@  @  @        ###############               ###############               ",
"               ###############               ###############               ###############               ---     @@@@.@.%%%%%%%%%%&%%%%..%%.%....@.@@@.@.@.@@.@@.@...@@@.@........%.%%%%%%%%%%%%...@@@ @   ----#-#               ###############               ------ -       @@@@@@@@ @@ @  ##-#-####-#-#-#               ###############               ###############",
"               ###############               ###############               ###############             @ ---    @ @@@@.@.%.%%%%%%%%%%%%........@@@@@@@@@@@@@@@@@@.@..@@@@@@.@.......%.%.%%.%.......@@     ----#-##               ###############               --#------------@@ @   @       -##############               ###############               ###############",
"               ###############               ###############               ###############               -----     @@@@@..%...%%.%%%%%%....@.@@@@@@@  .@.@@@@@@@@@@@@ @@@@@@@@@@@@@@...%...........@     ------###               ###############               ##-------------@ @ @ @  @  @  ###############               ###############               ###############",
"               ###############               ###############               ###############               ------      @@@...............@@@@@@@@@@@  @ @@@@@@@@@@@@@@.   @ @@@@@@@@@@............@.@    ------#####               ###############               -##-#----------               -##############               ###############               ###############",
"               ###############               ###############               ###############               #-------       .@.............@@@@@@@@@@     @@@@@@ @@@@@@@@         @ @@@@..........@.@@@   - -----#-###               ###############               ###-##-#-------  @  @         ###############               ###############               ###############",
"               ###############               ###############               ###############               -#----- -      @.@@.@.@.......@@@ @         -@@ @ @ @  @ @@@-              @@@@@@@@@@@@@@@ -------#######               ###############               -####-#-######-               ###############               ###############               ###############",
"               ###############               ###############               ###############               ####--------   @@@@@@@.@@@@@@@           - --@ @ @ @ @ @ @ @--- -          @@.@@@@@@@@@@@@--------#-#####               ###############               ##########-#-##               ###############               ###############               ###############",
"               ###############               ###############               ###############               ##-##--------- @@@@@@@@@@@@@@@        - -----@ @      @  @ @-------- - -   @@@@@@@@@@@@@@ -----##########               ###############               #######-#######               ###############               ###############               ###############",
"               ###############               ###############               ###############               ####-###------- @@@@@@@@@@@@@@ - - ----------@    @ @       ---------------@@ @@@@@@@ @  @----##-#-######               ###############               #############-#               ###############               ###############               ###############",
"               ###############               ###############               ###############               ######-#-#-----@ @ @ @ @@@@@@ --------------#  @       @  @ --------------- @ @  @  @ @ @ -###-##########               ###############               ###############               ###############               ###############               ###############",
"               ###############               ###############               ###############               #########-##-#- @  @ @ @   @ @------------##-               ####-#-#-#-----    @   @      ##-############               ###############               ###############               ###############               ###############               ###############",
"               ###############               ###############               ###############               ###########-##-   @     @     --------####-##               ##-####-#-####- @    @   @    -##############               ###############               ###############               ###############               ###############               ###############",
"               ###############               ###############               ###############               #######-#####-#       @   @ @ #-######-#-###-               ###########-###   @           ###############               ###############               ###############               ###############               ###############               ###############",
"               ###############               ###############               ###############               ###############               -##-##-########               ###############               ###############               ###############               ###############               ###############               ###############               ###############",
"               ###############               ###############               ###############               ###############               ###############               ###############               ###############               ###############               ###############               ###############               ###############               ###############",
"###############               ###############               ###############               ###############               ###############               ###############               ###############               ###############               ###############               ###############               ###############               ###############               ",
"###############               ###############               ###############               ###############               ###############               ###############               ###############               ###############               ###############               ###############               ###############               ###############               ",
"###############               ###############               ###############               ###############               ###############               ###############               ###############               ###############               ###############               ###############               ###############               ###############               ",
"###############               ###############               ###############               ###############               ###############               ###############               ###############               ###############               ###############               ###############               ###############               ###############               ",
"###############               ###############               ###############               ###############               ###############               ###############               ###############               ###############               ###############               ###############               ###############               ###############               ",
"###############               ###############               ###############               ###############               ###############               ###############               ###############               ###############               ###############               ###############               ###############               ###############               ",
"###############               ###############               ###############               ###############               ###############               ###############               ###############               ###############               ###############               ###############               ###############               ###############               ",
"###############               ###############               ###############               ###############               ###############               ###############               ###############               ###############               ###############               ###############               ###############               ###############               ",
"###############               ###############               ###############               ###############               ###############               ###############               ###############               ###############               ###############               ###############               ###############               ###############               ",
"###############               ###############               ###############               ###############               ###############               ###############               ###############               ###############               ###############               ###############               ###############               ###############               ",
"###############               ###############               ###############               ###############               ###############               ###############               ###############               ###############               ###############               ###############               ###############               ###############               ",
"###############               ###############               ###############               ###############               ###############               ###############               ###############               ###############               ###############               ###############               ###############               ###############               ",
"###############               ###############               ###############               ###############               ###############               ###############               ###############               ###############               ###############               ###############               ###############               ###############               ",
"###############               ###############               ###############               ###############               ###############               ###############               ###############               ###############               ###############               ###############               ###############               ###############               ",
"###############               ###############               ###############               ###############               ###############               ###############               ###############               ###############               ###############               ###############               ###############               ###############               ",
"               ###############               ###############               ###############               ###############               ###############               ###############               ###############               ###############               ###############               ###############               ###############               ###############",
"               ###############               ###############               ###############               ###############               ###############               ###############               ###############               ###############               ###############               ###############               ###############               ###############",
"               ###############               ###############               ###############               ###############               ###############               ###############               ###############               ###############               ###############               ###############               ###############               ###############",
"               ###############               ###############               ###############               ###############               ###############               ###############               ###############               ###############               ###############               ###############               ###############               ###############",
"               ###############               ###############               ###############               ###############               ###############               ###############               ###############               ###############               ###############               ###############               ###############               ###############",
"               ###############               ###############               ###############               ###############               ###############               ###############               ###############               ###############               ###############               ###############               ###############               ###############",
"               ###############               ###############               ###############               ###############               ###############               ###############               ###############               ###############               ###############               ###############               ###############               ###############",
"               ###############               ###############               ###############               ###############               ###############               ###############               ###############               ###############               ###############               ###############               ###############               ###############",
"               ###############               ###############               ###############               ###############               ###############               ###############               ###############               ###############               ###############               ###############               ###############               ###############",
"               ###############               ###############               ###############               ###############               ###############               ###############               ###############               ###############               ###############               ###############               ###############               ###############",
"               ###############               ###############               ###############               ###############               ###############               ###############               ###############               ###############               ###############               ###############               ###############               ###############",
"               ###############               ###############               ###############               ###############               ###############               ###############               ###############               ###############               ###############               ###############               ###############               ###############",
"               ###############               ###############               ###############               ###############               ###############               ###############               ###############               ###############               ###############               ###############               ###############               ###############",
"               ###############               ###############               ###############               ###############               ###############               ###############               ###############               ###############               ###############               ###############               ###############               ###############",
"               ###############               ###############               ###############               ###############               ###############               ###############               ###############               ###############               ###############               ###############               ###############               ###############"
};
