/* XPM */
static char *_231b246fa954178b8abf63a0894cdc4N9wOdOzEpG0hWFcL[] = {
/* columns rows colors chars-per-pixel */
"129 63 84 1 ",
"  c #010101",
". c #0B0002",
"X c #0B0A00",
"o c #02030B",
"O c #0F000B",
"+ c #0A0A0A",
"@ c #120103",
"# c #1B0101",
"$ c #021000",
"% c #010214",
"& c #010816",
"* c #000F18",
"= c #161616",
"- c gray11",
"; c #250000",
": c #2C0101",
"> c #3E130D",
", c #2C1B16",
"< c #232323",
"1 c #2D2D2D",
"2 c #323232",
"3 c #3A3A3A",
"4 c #541409",
"5 c #581409",
"6 c #631507",
"7 c #62130A",
"8 c #59270E",
"9 c #5D3F34",
"0 c #7D3121",
"q c #5C4C23",
"w c #6A4128",
"e c #6A4430",
"r c #414141",
"t c #4E4E4E",
"y c #555555",
"u c #5D5D5D",
"i c #615F5F",
"p c #5F605F",
"a c #60605F",
"s c #5F5F60",
"d c #605F60",
"f c #5F6061",
"g c #626262",
"h c #6D6D6D",
"j c #727272",
"k c #747474",
"l c #777777",
"z c #797979",
"x c gray50",
"c c #AF300E",
"v c #BC320D",
"b c #B53114",
"n c #BB3413",
"m c #B6321B",
"M c #852F20",
"N c #AA3C28",
"B c #CC2E0E",
"V c #C7320A",
"C c #C73014",
"Z c #CE5D1D",
"A c #ECAA52",
"S c #EEBC62",
"D c #E8B66C",
"F c #818181",
"G c #848484",
"H c #8B8B8B",
"J c #8E8E8E",
"K c #909090",
"L c gray58",
"P c gray60",
"I c gray62",
"U c #A0A0A0",
"Y c gray64",
"T c #A4A4A4",
"R c #AAAAAA",
"E c #AFAFAF",
"W c #B1B1B1",
"Q c gray71",
"! c gray73",
"~ c gray74",
"^ c #DAAD80",
"/ c #C1C1C1",
"( c gray78",
") c #CACACA",
/* pixels */
"   +                                      +                        +                                        = +             +   +",
"                                       ++         +                                                                              ",
"<=   +==============================1----=  +  ----=======--=<  +  +<==---=====================--------   +  1-=======------    =",
"Qy+   W~~~~~~~~~~~~~~~~~~~~~~~~~~~~~WW//!k+    LW(~~~~~~~~/~~W-    1Q~~!!!~~~~~~~~~~~~~~~~~~~~~!Q!!!~~Q1    =E~~~~~~~~Q!!~/L+   u",
"~y    PTTTTTTTTTTTTTTTTTTTTTTTTTTTTTRUTR!z     HTRITTTTTTTUI!/-    <RRRTTTTTTTTTTTTTTTTTTTTTTTTUUTTTW/~2    +RETTTTTTTERIW~I   +y",
"!y    hkkkkkkkkkkkkkkkkkkkkkkkkkkkkkkjkH!z     gxkkkkkkkkkkkU!-    =jhjkkkkkkkkkkkkkkkkkkkkkkkkkkzjkLQ!2    +khkkkkkkkhkk!)E   +3",
"~y    hkkkkkkkkkkkkkkkkkkkkkkkkkkkkkjjjF!k     yjkjkkkkkkkkjRQ-    -jkkkkkkkkkkkkkkkkkkkkkkkkkkjjkhjL!~2    +jzkkkkkkkjzh/!U    3",
"~y    hkkkkkkkkkkkkkkkkkkkkkkkkkkkkkkkkG~k     ujzjkkkkkkkjjTQ=    -jkjjjjkkkkkkkkkkkkkkkkkkkkkjjkjkL!~1    +hkkkkkkkkjzj/!U    3",
"!y    hkkkkkkkkkkkkkkkkkkkkkkkkkkkkkkjkG~k     ukkkkkkkkkkjkT!=    =kjkjjjkkkkkkkkkkkkkkkkkkkkkkkjjkP~!1     kjkkkkkkkjkj~~U    3",
"!y    hkkkkkkkkkkkkkkkkkkkkkkkkkkkkkkjkG~k     ukkkkkkkkkkjkT!=    =kjkjjjkkkkkkkkkkkkkkkkkkkkkkkjjkP~!2     kjkkkkkkkjkj~~U    3",
"!y    hkkkkkkkkkkkkkkkkkkkkkkkkkkkkkkjkG~k     ukkkkkkkkkkjkT!=    =kjkjjjkkkkkkkkkkkkkkkkkkkkkkkjjkP~!2     kjkkkkkkkjkj~~U    3",
"!y    hkkkkkkkkkkkkkkkkkkkkkkkkkkkkkkjkG~k     ukkkkkkkkkkjkT!=    =kjkjjjkkkkkkkkkkkkkkkkkkkkkkkjjkP~!2    +kjkkkkkkkjkj~~U    3",
"!y    hkkkkkkkkkkkkkkkkkkkkkkkkkkkkkkjkG~k     ukkkkkkkkkkjkT!=    =kjkjjjkkkkkkkkkkkkkkkkkkkkkkkjjkP~!2     kjkkkkkkkjkj~~U    3",
"!y    hkkkkkkkkkkkkkkkkkkkkkkkkkkkkkkjkG~k     ukkkkkkkkkkjkT!=    =kjkjjjkkkkkkkkkkkkkkkkkkkkkkkjjkP~!2     kjkkkkkkkjkj~~U    3",
"!y    hkkkkkkkkkkkkkkkkkkkkkkkkkkkkkkjkG~k     ukkkkkkkkkkjkT!=    =kjkjjjkkkkkkkkkkkkkkkkkkkkkkkjjkP~!2     kjkkkkkkkjkj~~U    3",
"!y    hjjjjjjjjjjjjjjjjjjjjjjjjjjjjjjjxF/x     ujkkjjjjjjjkjTQ=    =zkjjkjjjjjjjjjjjjjjjjjjjjjjjjzhkL!~1     jkjjjjjjjjzj(QU    3",
"/y    hkkkkkkkkkkkkkkkkkkkkkkkkkkkkkFjhzQk     uzkhkkkkkkkjjE!<    =jkkkkkkkkkkkkkkkkkkkkkkkkkkjjkhjK!~2    +kkkkkkkkkzkj~~U+   3",
"Gr    yyyyyyyyyyyyyyyyyyyyyyyyyyyyyytyukKu+    tuuyyyyyyyyyuxx-    =yyyyyyyyyyyyyyyyyyyyyyyyyyyyyuyujGH<   +=yyyyyyyyyytyJPk=   1",
"++                                  +          +             + +    +                                +       +        +         +",
"                                                  +            +                                                        + +      ",
"222=                                                                                                                             ",
"kjj1                                    +                                                                                        ",
"kjk<                                                                                                                      +=     ",
"kkj<  hkkkkkkkkkkkkkkkkkkkkkkkkkkkkkhzzzkr+    ukxkkkkkkkkkkkkkkkkkkkkkkkkjzzkzjjkt+    ykkkkkkkkkkkkkkkkkkkkkkkkkkkkkhkzzzg    r",
"hkj<  W~~~~~~~~~~~~~~~~~~~~~~~~~~~~~//!!/j     P!~~~~~~~~~~~~~~~~~~~~~~~~~!/~!~!(/F+    F~~~~~~~~~~~~~~~~~~~~~~~~~~~~~//!(~P+   g",
"-tj1  zFFFFFFFFFFFFFFFFFFFFFFFFFFFFFFxFH!k     hFzGFFFFFFFFFFFFFFFFFFFFFFFFFxzxHEQH     yFFFFFFFFFFFFFFFFFFFFFFFFFFFFFxGxWQU    r",
" 3k1  hjjjjjjjjjjjjjjjjjjjjjjjjjjjjjjjzG(x    +yxkjjjjjjjjjjjjjjjjjjjjjjjkjkhhjG!~P     yjjjjjjjjjjjjjjjjjjjjjjjjjjjjjhzz(/E    3",
"+3h1  hkkkkkkkkkkkkkkkkkkkkkkkkkkkkkzjjzQk    +yjxgkkkkkkkkkkkkkkkkkkkkkkjjkkzjxQWJ     ykkkkkkkkkkkkkkkkkkkkkkkkkkkkkzxjQWI    r",
"h2+  +hkkkkkkkkkkkkkkkkkkkkkkkkkkkkkhhkJ(z     uhkkkkkkkkkkkkkkkkkkkkkkkkjjkkxjk!)K     ykkkkkkkkkkkkkkkkkkkkkkkkkkkkkhhj~(T    3",
"k3    hjjjjjjjjjjjjjjjjjjjjjjjjjjjjjzkjG!k     gkhzjjjjjjjjjjjjjjjjjjjjjjkkjhkhz~QH     yjjjjjjjjjjjjjjjjjjjjjjjjjjjjjzkkQ/I    3",
"j2    hkkkkkkkkkkkkkkkkkkkkkkkkkkkkkkjkG~k     ukkkkkkkkkkkkkkkkkkkkkkkkkkkjkjkz!!K     tkkkkkkkkkkkkkkkkkkkkkkkkkkkkkjkj~~U    3",
"k3    hkkkkkkkkkkkkkkkkkkkkkkkkkkkkkkjkG~k     ukkkkkkkkkkkkkkkkkkkkkkkkkkkjkjkz!!K     tkkkkkkkkkkkkkkkkkkkkkkkkkkkkkjkj~~U    3",
"k3    hkkkkkkkkkkkkkkkkkkkkkkkkkkkkkkjkG~k     ukkkkkkkkkkkkkkkkkkkkkkkkkkkjkjkz!!K     tkkkkkkkkkkkkkkkkkkkkkkkkkkkkkjkj~~U    3",
"k2    hkkkkkkkkkkkkkkkkkkkkkkkkkkkkkkjzG~k     ukkkkkkkkkkkkkkkkkkkkkkkkkkkjkjkz!!K     tkkkkkkkkkkkkkkkkkkkkkkkkkkkkkjkj~~U    3",
"h2    hkkkkkkkkkkkkkkkkkkkkkkkkkkkkkkjkG~k     ukkkkkkkkkkkkkkkkkkkkkkkkkkkjkjkz!!K     tkkkkkkkkkkkkkkkkkkkkkkkkkkkkkjkj~~U    3",
"3-+   hkkkkkkkkkkkkkkkkkkkkkkkkkkkkkkjkG~k     ukkkkkkkkkkkkkkkkkkkkkkkkkkkjkjkz!!K     tkkkkkkkkkkkkkkkkkkkkkkkkkkkkkjkj~~U    3",
"      hkkkkkkkkkkkkkkkkkkkkkkkkkkkkkkjkG~k     ukkkkkkkkkkkkkkkkkkkkkkkkkkkjkjkz!!K     tkkkkkkkkkkkkkkkkkkkkkkkkkkkkkjkj~~U    3",
"      hkkkkkkkkkkkkkkkkkkkkkkkkkkkkkhkjJ!j     yzjhkkkkkkkkjjzjzzjkhkhkkkkkjkhjGE~J     ykkkkkkkkkkkkkkjjkkxjxjkkkkkkkjjzQ~I+   3",
"      -------------------------------<-<2<++   ---<----------<----<-<-------<--<222     =--------------<<----<--------<<-221 +  =",
"                                                                                  +    +                                 +       ",
"     +                              +     +                        + ++                                ++   +         +          ",
"  +                                   +                                              ++                                        + ",
"   +                                     + +   =+            +  +   +              +                     +   +             = +  +",
"Qt    W~~~~~~~~~~~~~~~~~~~~~~~~~~~~~~~//Qj     HQQ!~~~~~~~//!R<    <E~(/~!~//~~~!W!((/~/~~~~~~~~~~~~~~~2    -Q~~~~~~~~~~/Q~P    u",
"/y    E!!!!!!!!!!!!!!!!!!!!!!!!!!!!!!~Q!/x     P/!!!!!!!!!!!/~-    <~!!!~~~!Q!~/~/~Q!~!!!!!!!!!!!!!!!~!1 +  +!~!!!!!!!!!!Q~R    g",
"!y    URRRRRRRRRRRRRRRRRRRRRRRRRRRRRRRRT(k    +xRERRRRRRRRET!~=    1UEEREERRRRRRRRRRRRRRRRRRRRRRRRETQ/!1    =TWRRRRRRRERI(QT    y",
"!y    hkkkkkkkkkkkkkkkkkkkkkkkkkkkkkjjzG!k     uzkjkkkkkkkkkT!-    =zkkkkkkkkkkkkkkkkkkkkkkkkkkkkkkkLQ~1     zkkkkkkkkjkz!QT    3",
"!y    hjjjjjjjjjjjjjjjjjjjjjjjjjjjjjkhjG/z     ujjjjjjjjjjhhT~-   +=jhjkjjjjjjjjjjjjjjjjjjjjjjjjkjjkL~(2    +jhjjjjjjjhjz~~R  + 3",
"!y    hkkkkkkkkkkkkkkkkkkkkkkkkkkkkkzjkF!k     ukkzkkkkkkkkkR~=    =kkzkkkkkkkkkkkkkkkkkkkkkkkkkkkkkP!~2    +zkkkkkkkkkjk!!T    3",
"!y    hjkkkkkkkkkkkkkkkkkkkkkkkkkkkkjjkG!k     ukkjkkkkkkkjkUQ=    =kkkjjjkkkkkkkkkkkkkkkkkkkkkkkkkjP~~2     kkkkkkkkkkjk!~T    3",
"!y    hkkkkkkkkkkkkkkkkkkkkkkkkkkkkkjjzG!k     uzkjkkkkkkkjjU!=    =kjjjkkkkkkkkkkkkkkkkkkkkkkkkzzjjL~~1     kjkkkkkkkkjk~/R    3",
"!y    hkkkkkkkkkkkkkkkkkkkkkkkkkkkkkkjkG!k     ukkkkkkkkkkjjT!=    =kjkkkkkkkkkkkkkkkkkkkkkkkkkjjkjjP~!1     kjkkkkkkkkhj!~T    3",
"!y    hkkkkkkkkkkkkkkkkkkkkkkkkkkkkkzjjG!k     ujjkkkkkkkkjhT/-    -zkjjhkkkkkkkkkkkkkkkkkkkkkkjhjjkI/!1     hjkkkkkkkxhj!QR    3",
"~y    hjjjjjjjjjjjjjjjjjjjjjjjjjjjjjhhzJ~k     uzzkjjjjjjjkzT~-+   =hhjkzkjjjjjjjjjjjjjjjjjjjjjjzzjjL~!1  + =kkjjjjjjjhgx//T    3",
"!y    hkkkkkkkkkzzkkkkkkkkkkkkkkkkkkFkkx~z     ykhhkkkkkkkhkTQ-  + -kkkjhkkkkkkkkkkkkkkkkkkkzzkkkkjhL~~2    +hjkkkkkzzxhzQ~U    2",
"~y    hjjjjjjjjjjkjjjjjjjjjjjjjjjjjjjhkF/z     ukzxjjjjjjjkzE!=  + =jkkjhjjjjjjjjjjjjjjjjjjjjjjjjkkkP~!2    +zzjjjjjjjkhj!!U    2",
"Qy    hkkkkkkkkkkkkkkkkkkkkkkkkkkkkkhjxG!k     yhhjkkkkkkkkhIQ= +  -kjjkzzkkkkkkkkkkkkkkkkkkkkkkkkkkL!~1  +  jjkkkkkkkhzk)WU++  3",
"(y  + hkkkkkkkkkkkkkkkkkkkkkkkkkkkkkxjhGQj     gxkjkkkkkkkkjQ(<    =jjhhhjkkkkkkkkkkkkkkkkkkkkkjjhhjK~(2     jjkkkkkkkzzh~!U    r",
"Jr    ysdiiapaiidffdiiiisssssuuuuuuuuuuzLg+    tyyguuuuuuuuuGF-   +=uugggguuuuuuuuuuuuuuuuuuuuugggggxLL<    =gyuuuguuuyyuJTx=   1",
"++   +   ..   .. oo @..  oo          +         =               +    +                               +        =            +     +",
"........@##X$X##+&*@:;#. %%o                                                                                                     ",
"444554457768qqwe,%o>775>@%%                                                                                                      ",
"nvvvvvcnCBVZASD^9.@MbmN0:Oo                                                                                                      "
};
